;FLAVOR:Marlin
;TIME:3774
;Filament used: 4.49441m
;Layer height: 0.15
;MINX:47
;MINY:63.765
;MINZ:0.36
;MAXX:117.739
;MAXY:120.223
;MAXZ:49.035
;TARGET_MACHINE.NAME:Unknown
;Generated with Cura_SteamEngine 5.10.0
M104 S200
M105
M109 S200
G28 ;Home
G1 Z15.0 F6000 ;Move the platform down 15mm
;Prime the extruder
G92 E0
G1 F200 E3
G92 E0
M82 ;absolute extrusion mode
G92 E0
G92 E0
G1 F1500 E-6.5
;LAYER_COUNT:319
;LAYER:-6
M107
G0 F7200 X52.996 Y68.909 Z0.36
;TYPE:SUPPORT-INTERFACE
G1 F1500 E0
G1 F3150 X54.074 Y68.096 E0.16167
G1 X54.835 Y67.603 E0.27024
G1 X55.871 Y67.021 E0.41252
G1 X57.036 Y66.483 E0.56617
G1 X58.587 Y65.927 E0.76345
G1 X59.889 Y65.583 E0.9247
G1 X60.91 Y65.389 E1.04914
G1 X62.249 Y65.255 E1.21026
G1 X86.077 Y63.804 E4.06863
G1 X86.66 Y63.78 E4.1385
G1 X87.705 Y63.765 E4.26363
G1 X88.228 Y63.772 E4.32626
G1 X89.526 Y63.828 E4.48182
G1 X90.583 Y63.918 E4.60884
G1 X91.38 Y64.013 E4.70495
G1 X91.936 Y64.092 E4.77219
G1 X92.647 Y64.207 E4.85843
G1 X93.296 Y64.329 E4.9375
G1 X94.399 Y64.57 E5.07268
G1 X95.446 Y64.838 E5.20209
G1 X96.004 Y64.999 E5.27163
G1 X97.3 Y65.418 E5.43472
G1 X98.025 Y65.682 E5.5271
G1 X99.182 Y66.148 E5.67645
G1 X100.099 Y66.559 E5.79677
G1 X100.807 Y66.902 E5.89097
G1 X101.668 Y67.356 E6.00752
G1 X102.447 Y67.794 E6.11453
G1 X103.626 Y68.516 E6.28006
G1 X104.403 Y69.037 E6.39208
G1 X105.109 Y69.546 E6.49629
G1 X105.816 Y70.087 E6.60288
G1 X106.563 Y70.691 E6.71791
G1 X107.443 Y71.453 E6.85729
G1 X108.06 Y72.039 E6.95918
G1 X108.842 Y72.825 E7.09193
G1 X109.851 Y73.928 E7.27093
G1 X110.474 Y74.67 E7.38693
G1 X110.956 Y75.274 E7.47946
G1 X111.349 Y75.794 E7.5575
G1 X111.743 Y76.344 E7.63851
G1 X112.4 Y77.323 E7.77969
G1 X112.727 Y77.842 E7.85314
G1 X113.113 Y78.484 E7.94283
G1 X113.551 Y79.279 E8.05151
G1 X114.042 Y80.316 E8.18889
G1 X114.447 Y81.413 E8.32891
G1 X114.826 Y82.746 E8.49484
G1 X115.081 Y84.03 E8.65159
G1 X115.209 Y85.005 E8.76933
G1 X115.271 Y86.219 E8.91488
G1 X115.252 Y87.31 E9.04554
G1 X115.151 Y88.419 E9.17887
G1 X115.112 Y89.03 E9.25218
G1 X115.147 Y89.757 E9.33933
G1 X115.276 Y90.439 E9.42244
G1 X115.59 Y91.344 E9.53714
G1 X115.881 Y92.005 E9.62361
G1 X116.197 Y92.839 E9.7304
G1 X116.369 Y93.384 E9.79883
G1 X117.189 Y96.216 E10.15185
G1 X117.444 Y97.262 E10.28076
G1 X117.603 Y98.179 E10.3922
G1 X117.716 Y99.277 E10.52437
G1 X117.739 Y100.427 E10.66209
G1 X117.7 Y101.301 E10.76684
G1 X117.588 Y102.328 E10.89054
G1 X117.372 Y103.459 E11.02841
G1 X117.228 Y104.051 E11.10136
G1 X116.508 Y106.675 E11.42717
G1 X116.163 Y107.773 E11.56497
G1 X115.722 Y108.868 E11.70632
G1 X115.239 Y109.85 E11.83735
G1 X114.701 Y110.765 E11.96445
G1 X114.197 Y111.507 E12.07185
G1 X113.455 Y112.448 E12.21533
G1 X112.823 Y113.135 E12.32711
G1 X110.734 Y115.227 E12.6811
G1 X109.943 Y115.955 E12.80982
G1 X109.098 Y116.626 E12.93901
G1 X108.213 Y117.233 E13.06751
G1 X107.304 Y117.762 E13.19344
G1 X106.328 Y118.23 E13.32304
G1 X105.541 Y118.556 E13.42504
G1 X104.471 Y118.905 E13.5598
G1 X101.718 Y119.676 E13.90212
G1 X100.684 Y119.927 E14.02952
G1 X99.447 Y120.126 E14.17954
G1 X98.405 Y120.212 E14.30473
G1 X97.331 Y120.223 E14.43333
G1 X96.299 Y120.157 E14.55715
G1 X95.379 Y120.037 E14.66824
G1 X94.193 Y119.794 E14.8132
G1 X93.534 Y119.615 E14.89497
G1 X91.042 Y118.878 E15.20613
G1 X89.88 Y118.482 E15.35312
G1 X88.887 Y118.058 E15.4824
G1 X87.956 Y117.574 E15.60804
G1 X87.101 Y117.057 E15.72768
G1 X86.19 Y116.403 E15.86195
G1 X85.371 Y115.717 E15.98987
G1 X84.796 Y115.173 E16.08465
G1 X82.61 Y112.975 E16.45583
G1 X81.866 Y112.161 E16.58787
G1 X81.216 Y111.332 E16.71401
G1 X80.988 Y110.995 E16.76273
G1 X80.529 Y110.414 E16.85138
G1 X80.065 Y109.958 E16.92928
G1 X79.56 Y109.564 E17.00597
G1 X78.949 Y109.202 E17.09101
G1 X78.314 Y108.933 E17.17358
G1 X77.667 Y108.752 E17.25403
G1 X76.861 Y108.636 E17.35153
G1 X62.204 Y107.737 E19.1098
G1 X61.043 Y107.623 E19.24949
G1 X59.981 Y107.432 E19.37869
G1 X59.065 Y107.202 E19.49177
G1 X57.991 Y106.865 E19.62655
G1 X56.97 Y106.482 E19.75712
G1 X55.94 Y106.011 E19.89273
G1 X54.46 Y105.162 E20.09703
G1 X53.356 Y104.382 E20.25888
G1 X52.531 Y103.697 E20.38728
G1 X51.627 Y102.832 E20.53709
G1 X50.862 Y101.989 E20.67339
G1 X50.15 Y101.086 E20.81108
G1 X49.373 Y99.886 E20.98225
G1 X49.079 Y99.382 E21.05212
G1 X48.554 Y98.371 E21.18852
G1 X48.141 Y97.425 E21.31212
G1 X47.838 Y96.559 E21.42197
G1 X47.563 Y95.589 E21.54269
G1 X47.415 Y94.987 E21.61692
G1 X47.199 Y93.938 E21.74516
G1 X47.067 Y92.916 E21.86855
G1 X47.001 Y91.506 E22.03756
G1 X47 Y81.624 E23.2208
G1 X47.04 Y80.623 E23.34075
G1 X47.145 Y79.515 E23.47401
G1 X47.341 Y78.29 E23.62255
G1 X47.579 Y77.286 E23.7461
G1 X47.923 Y76.184 E23.88433
G1 X48.124 Y75.656 E23.95198
G1 X48.328 Y75.157 E24.01652
G1 X48.712 Y74.292 E24.12984
G1 X49.245 Y73.289 E24.26584
G1 X50.181 Y71.871 E24.46928
G1 X50.993 Y70.849 E24.62558
G1 X51.651 Y70.132 E24.7421
G1 X52.996 Y68.909 E24.95977
G0 F7200 X53.324 Y69.164
G1 F3150 X103.049 Y118.888 E33.37976
G0 F7200 X104.8 Y118.377
G1 F3150 X54.634 Y68.21 E41.87461
G0 F7200 X56.06 Y67.374
G1 F3150 X106.425 Y117.739 E50.40306
G0 F7200 X107.9 Y116.951
G1 F3150 X57.641 Y66.692 E58.91357
G0 F7200 X59.351 Y66.139
G1 F3150 X109.225 Y116.014 E67.35896
G0 F7200 X110.433 Y114.959
G1 F3150 X61.233 Y65.759 E75.69015
G0 F7200 X63.328 Y65.591
G1 F3150 X111.565 Y113.828 E83.85826
G0 F7200 X112.689 Y112.689
G1 F3150 X65.461 Y65.461 E91.85552
G0 F7200 X67.594 Y65.331
G1 F3150 X113.724 Y111.461 E99.66685
G0 F7200 X114.628 Y110.102
G1 F3150 X69.726 Y65.201 E107.27015
G0 F7200 X71.859 Y65.071
G1 F3150 X115.396 Y108.607 E114.64231
G0 F7200 X116.002 Y106.951
G1 F3150 X73.992 Y64.941 E121.75599
G0 F7200 X76.125 Y64.811
G1 F3150 X116.502 Y105.188 E128.59315
G0 F7200 X116.976 Y103.4
G1 F3150 X78.258 Y64.681 E135.14947
G0 F7200 X80.39 Y64.551
G1 F3150 X117.283 Y101.444 E141.39667
G0 F7200 X117.306 Y99.204
G1 F3150 X82.523 Y64.421 E147.28658
G0 F7200 X84.656 Y64.292
G1 F3150 X116.841 Y96.476 E152.73647
G0 F7200 X115.922 Y93.294
G1 F3150 X86.806 Y64.178 E157.66677
G0 F7200 X89.1 Y64.21
G1 F3150 X114.763 Y89.873 E162.01236
G0 F7200 X114.819 Y87.666
G1 F3150 X91.605 Y64.452 E165.94326
G0 F7200 X94.399 Y64.983
G1 F3150 X114.83 Y85.414 E169.4029
G0 F7200 X114.404 Y82.726
G1 F3150 X97.649 Y65.971 E172.24008
G0 F7200 X101.869 Y67.928
G1 F3150 X112.941 Y79 E174.11493
G0 F7200 X101.27 Y119.372
G1 F3150 X52.133 Y70.235 E182.43544
G0 F7200 X51.052 Y71.416
G1 F3150 X99.366 Y119.731 E190.61668
G0 F7200 X97.185 Y119.812
G1 F3150 X50.096 Y72.724 E198.59032
G0 F7200 X49.246 Y74.137
G1 F3150 X94.573 Y119.464 E206.26567
G0 F7200 X91.42 Y118.573
G1 F3150 X48.541 Y75.694 E213.5265
G0 F7200 X47.967 Y77.383
G1 F3150 X79.936 Y109.352 E218.93991
G0 F7200 X81.185 Y110.601
G1 F3150 X87.271 Y116.687 E219.97047
G0 F7200 X79.257 Y109.919
G0 X76.54 Y108.218
G1 F3150 X47.59 Y79.268 E224.87266
G0 F7200 X47.41 Y81.351
G1 F3150 X74.129 Y108.07 E229.39706
G0 F7200 X71.718 Y107.921
G1 F3150 X47.399 Y83.603 E233.51499
G0 F7200 X47.399 Y85.866
G1 F3150 X69.306 Y107.773 E237.22456
G0 F7200 X66.895 Y107.624
G1 F3150 X47.4 Y88.13 E240.52562
G0 F7200 X47.4 Y90.392
G1 F3150 X64.484 Y107.476 E243.41851
G0 F7200 X62.066 Y107.321
G1 F3150 X47.457 Y92.712 E245.89229
G0 F7200 X47.943 Y95.46
G1 F3150 X59.341 Y106.859 E247.82244
G0 F7200 X55.54 Y105.32
G1 F3150 X49.456 Y99.237 E248.85257
G0 F600 X49.456 Y99.237 Z0.585
G0 F7200 X47.6 Y93.821
;TIME_ELAPSED:45.192845
;LAYER:-5
;TYPE:SUPPORT
G1 F3150 X47.757 Y93.665 E248.86914
G0 F7200 X49.688 Y73.349
G1 F3150 X55.149 Y67.887 E249.44714
G1 X55.039 Y67.949 E249.45659
G1 X54.308 Y68.425 E249.52187
G1 X53.512 Y69.025 E249.59647
G1 X53.013 Y69.648 E249.6562
G1 X52.899 Y69.534 E249.66827
G1 X51.936 Y70.415 E249.76594
G1 X51.295 Y71.117 E249.83708
G1 X50.756 Y71.798 E249.90208
G1 X50.87 Y71.913 E249.91419
G1 X50.304 Y72.408 E249.97046
G1 X49.585 Y73.505 E250.06862
G1 X49.035 Y74.555 E250.15733
G1 X48.545 Y75.653 E250.24731
G1 X48.438 Y76.013 E250.27541
G1 X57.826 Y66.624 E251.26902
G1 X58.919 Y66.252 E251.35543
G1 X59.864 Y66.001 E251.4286
G1 X47.812 Y78.053 E252.7041
G1 X47.751 Y78.305 E252.7235
G1 X47.751 Y79.03 E252.77776
G1 X47.62 Y79.03 E252.78756
G1 X47.527 Y79.752 E252.84204
G1 X61.548 Y65.731 E254.32593
G1 X62.288 Y65.654 E254.3816
G1 X63.088 Y65.605 E254.44158
G1 X47.403 Y81.29 E256.10157
G1 X47.403 Y82.705 E256.20747
G1 X64.594 Y65.513 E258.0269
G1 X66.1 Y65.422 E258.1398
G1 X47.403 Y84.119 E260.11857
G1 X47.403 Y85.533 E260.22438
G1 X67.606 Y65.33 E262.36253
G1 X69.112 Y65.238 E262.47544
G1 X47.403 Y86.947 E264.77297
G1 X47.403 Y88.361 E264.87879
G1 X70.617 Y65.147 E267.3356
G1 X72.123 Y65.055 E267.44851
G1 X47.403 Y89.776 E270.06476
G1 X47.403 Y91.19 E270.17057
G1 X73.63 Y64.963 E272.94626
G1 X75.135 Y64.872 E273.05909
G1 X47.52 Y92.487 E275.98167
G1 X47.481 Y92.881 E276.0113
G1 X47.806 Y93.615 E276.07138
G1 X76.641 Y64.78 E279.12307
G1 X78.147 Y64.688 E279.23599
G1 X47.844 Y94.991 E282.44305
G1 X47.844 Y95.117 E282.45247
G1 X48.129 Y96.121 E282.53058
G1 X79.653 Y64.597 E285.86686
G1 X81.159 Y64.505 E285.97977
G1 X48.472 Y97.192 E289.43914
G1 X48.904 Y98.175 E289.51949
G1 X82.665 Y64.413 E293.09258
G1 X84.17 Y64.322 E293.20541
G1 X49.386 Y99.106 E296.88671
G1 X49.901 Y100.006 E296.96431
G1 X85.677 Y64.23 E300.75059
G1 X86.021 Y64.21 E300.77638
G1 X86.866 Y64.309 E300.84005
G1 X86.866 Y64.178 E300.84985
G1 X87.148 Y64.173 E300.87096
G1 X50.471 Y100.85 E304.7526
G1 X51.095 Y101.64 E304.82794
G1 X88.498 Y64.237 E308.78641
G1 X88.848 Y64.194 E308.8128
G1 X89.437 Y64.224 E308.85694
G1 X89.817 Y64.332 E308.8865
G1 X51.75 Y102.399 E312.91525
G1 X52.473 Y103.091 E312.99014
G1 X91.171 Y64.393 E317.08567
G1 X91.84 Y64.485 E317.13621
G1 X92.276 Y64.702 E317.17266
G1 X53.225 Y103.753 E321.30554
G1 X53.607 Y104.069 E321.34264
G1 X54.026 Y104.366 E321.38108
G1 X93.597 Y64.795 E325.569
G1 X94.74 Y65.066 E325.65691
G1 X54.871 Y104.935 E329.87637
G1 X55.767 Y105.453 E329.95382
G1 X95.765 Y65.455 E334.18693
G1 X96.352 Y65.749 E334.23606
G1 X96.352 Y65.528 E334.2526
G1 X96.919 Y65.716 E334.2973
G1 X56.691 Y105.944 E338.55476
G1 X57.715 Y106.334 E338.63676
G1 X97.951 Y66.098 E342.89506
G1 X97.951 Y66.34 E342.91317
G1 X98.595 Y66.34 E342.96136
G1 X98.965 Y66.498 E342.99147
G1 X58.753 Y106.71 E347.24723
G1 X59.881 Y106.996 E347.33432
G1 X99.944 Y66.933 E351.57431
G1 X100.904 Y67.388 E351.65381
G1 X61.07 Y107.221 E355.86951
G1 X61.374 Y107.275 E355.89262
G1 X61.374 Y107.026 E355.91125
G1 X62.357 Y107.349 E355.98869
G1 X101.747 Y67.959 E360.15745
G1 X101.879 Y68.069 E360.17031
G1 X101.966 Y67.982 E360.17952
G1 X102.705 Y68.415 E360.24362
G1 X63.689 Y107.431 E364.3728
G1 X65.022 Y107.512 E364.47274
G1 X103.573 Y68.961 E368.55271
G1 X104.143 Y69.345 E368.60414
G1 X104.373 Y69.575 E368.62849
G1 X66.355 Y107.593 E372.65205
G1 X67.687 Y107.675 E372.75192
G1 X105.233 Y70.129 E376.72553
G1 X106.015 Y70.762 E376.80082
G1 X69.02 Y107.757 E380.71611
G1 X70.353 Y107.838 E380.81605
G1 X106.782 Y71.409 E384.67145
G1 X107.535 Y72.07 E384.74643
G1 X71.685 Y107.92 E388.54055
G1 X73.018 Y108.001 E388.64049
G1 X108.249 Y72.77 E392.36909
G1 X108.931 Y73.502 E392.44396
G1 X74.351 Y108.083 E396.10373
G1 X75.683 Y108.165 E396.20359
G1 X109.599 Y74.249 E399.79303
G1 X110.243 Y75.019 E399.86815
G1 X77.009 Y108.253 E403.38541
G1 X77.761 Y108.361 E403.44226
G1 X78.193 Y108.484 E403.47588
G1 X110.86 Y75.816 E406.93318
G1 X111.001 Y76.005 E406.95082
G1 X110.833 Y76.173 E406.9686
G1 X111.327 Y76.544 E407.01484
G1 X111.381 Y76.709 E407.02783
G1 X79.202 Y108.889 E410.43349
G1 X79.783 Y109.234 E410.48405
G1 X80.057 Y109.448 E410.51007
G1 X112.022 Y77.483 E413.89303
G1 X112.38 Y78.037 E413.94239
G1 X112.143 Y78.196 E413.96375
G1 X112.453 Y78.466 E413.99451
G1 X80.799 Y110.12 E417.34455
G1 X81.428 Y110.905 E417.41983
G1 X113.081 Y79.252 E420.76976
G1 X113.247 Y79.551 E420.79536
G1 X113.544 Y80.203 E420.84897
G1 X82.03 Y111.717 E424.1842
G1 X82.292 Y112.043 E424.2155
G1 X82.689 Y112.472 E424.25924
G1 X113.963 Y81.199 E427.56901
G1 X114.283 Y82.293 E427.65431
G1 X83.386 Y113.19 E430.92424
G1 X84.09 Y113.9 E430.99906
G1 X114.557 Y83.433 E434.22348
G1 X114.686 Y84.078 E434.2727
G1 X114.756 Y84.648 E434.31568
G1 X84.794 Y114.61 E437.48665
G1 X85.515 Y115.303 E437.56149
G1 X114.871 Y85.947 E440.66832
G1 X114.855 Y87.378 E440.77542
G1 X86.329 Y115.904 E443.79442
G1 X86.627 Y116.231 E443.82752
G1 X87.089 Y116.558 E443.86988
G1 X114.707 Y88.94 E446.79278
G1 X114.753 Y89.81 E446.85798
G1 X114.828 Y90.233 E446.89013
G1 X87.941 Y117.119 E449.73561
G1 X88.875 Y117.6 E449.81423
G1 X115.145 Y91.33 E452.59447
G1 X115.583 Y92.307 E452.67459
G1 X89.856 Y118.034 E455.39736
G1 X90.203 Y118.178 E455.42547
G1 X90.894 Y118.41 E455.48002
G1 X115.944 Y93.359 E458.13119
G1 X116.266 Y94.452 E458.21646
G1 X92.165 Y118.553 E460.76715
G1 X92.064 Y118.764 E460.78465
G1 X93.07 Y119.062 E460.86317
G1 X116.584 Y95.549 E463.35168
G1 X116.901 Y96.645 E463.43706
G1 X94.163 Y119.383 E465.84349
G1 X95.337 Y119.623 E465.93317
G1 X117.136 Y97.824 E468.24022
G1 X117.199 Y98.184 E468.26757
G1 X117.295 Y99.08 E468.33501
G1 X96.597 Y119.778 E470.52554
G1 X97.352 Y119.825 E470.58215
G1 X97.97 Y119.819 E470.6284
G1 X117.252 Y100.536 E472.66913
G1 X117.298 Y101.334 E472.72895
G1 X117.223 Y101.98 E472.77762
G1 X99.486 Y119.717 E474.65478
G1 X99.814 Y119.687 E474.67943
G1 X99.815 Y119.549 E474.68975
G1 X100.544 Y119.549 E474.74431
G1 X101.232 Y119.386 E474.79722
G1 X116.9 Y103.717 E476.45547
G1 X116.368 Y105.664 E476.60651
G1 X103.174 Y118.858 E478.00287
G1 X104.182 Y118.577 E478.08118
G1 X105.187 Y118.259 E478.16007
G1 X115.768 Y107.678 E479.27989
G1 X115.366 Y108.691 E479.36145
G1 X114.893 Y109.653 E479.44167
G1 X114.37 Y110.543 E479.51892
G1 X113.868 Y111.281 E479.58572
G1 X113.241 Y112.079 E479.66166
G1 X112.945 Y112.405 E479.69462
G1 X112.843 Y112.303 E479.70541
G1 X112.337 Y113.061 E479.77361
G1 X110.565 Y114.838 E479.96142
G1 X109.69 Y115.651 E480.0508
G1 X108.873 Y116.3 E480.12888
G1 X108.016 Y116.886 E480.20658
G1 X107.914 Y116.946 E480.21543
G1 X114.447 Y110.413 E480.90684
G0 F600 X114.447 Y110.413 Z0.735
G0 F7200 X111.667 Y76.595
;TIME_ELAPSED:105.861455
;LAYER:-4
;TYPE:SUPPORT-INTERFACE
G1 F4200 X111.726 Y76.654 E480.90892
G1 X112.655 Y78.093 E480.95165
G1 X112.622 Y78.115 E480.95264
G1 X102.668 Y68.162 E481.30377
G1 X101.932 Y67.732 E481.32504
G1 X101.867 Y67.798 E481.32735
G1 X101.356 Y67.415 E481.34328
G1 X113.445 Y79.504 E481.76975
G1 X113.914 Y80.539 E481.79809
G1 X100.218 Y66.842 E482.28128
G1 X99.867 Y66.677 E482.29095
G1 X99.783 Y66.717 E482.29327
G1 X99.547 Y66.53 E482.30078
G1 X99.185 Y66.375 E482.31061
G1 X114.238 Y81.428 E482.84164
G1 X114.472 Y82.228 E482.86243
G1 X98.385 Y66.141 E483.42995
G1 X98.151 Y66.14 E483.43578
G1 X98.151 Y65.95 E483.44052
G1 X97.318 Y65.639 E483.4627
G1 X114.568 Y82.89 E484.07126
G1 X114.568 Y83.082 E484.07605
G1 X114.691 Y83.082 E484.07912
G1 X114.815 Y83.702 E484.09489
G1 X96.462 Y65.349 E484.74234
G1 X96.152 Y65.245 E484.7505
G1 X96.152 Y65.425 E484.75499
G1 X95.793 Y65.246 E484.765
G1 X114.925 Y84.378 E485.43993
G1 X115.005 Y85.023 E485.45614
G1 X94.875 Y64.894 E486.16626
G1 X94.134 Y64.718 E486.18526
G1 X115.043 Y85.628 E486.9229
G1 X115.068 Y86.218 E486.93763
G1 X93.407 Y64.557 E487.70178
G1 X92.709 Y64.424 E487.71951
G1 X115.062 Y86.778 E488.50809
G1 X115.055 Y87.337 E488.52203
G1 X92.117 Y64.398 E489.33125
G1 X91.902 Y64.291 E489.33724
G1 X91.37 Y64.217 E489.35064
G1 X115.012 Y87.859 E490.18468
G1 X114.964 Y88.376 E490.19763
G1 X90.726 Y64.139 E491.05267
G1 X90.189 Y64.074 E491.06616
G1 X90.189 Y64.167 E491.06848
G1 X114.923 Y88.902 E491.94106
G1 X114.936 Y89.48 E491.95548
G1 X89.486 Y64.03 E492.8533
G1 X88.887 Y63.997 E492.86826
G1 X115.012 Y90.122 E493.78989
G1 X115.071 Y90.451 E493.79823
G1 X115.227 Y90.903 E493.81016
G1 X88.376 Y64.051 E494.75742
G1 X88.205 Y64.072 E494.76172
G1 X88.205 Y63.974 E494.76416
G1 X87.724 Y63.966 E494.77616
G1 X115.616 Y91.857 E495.76011
G1 X115.955 Y92.762 E495.78422
G1 X87.168 Y63.975 E496.79976
G1 X86.666 Y63.983 E496.81228
G1 X86.666 Y64.038 E496.81365
G1 X116.227 Y93.6 E497.85651
