;FLAVOR:Marlin
;TIME:9602
;Filament used: 19.4269m
;Layer height: 0.3
;MINX:37.8
;MINY:40.175
;MINZ:0.3
;MAXX:232.2
;MAXY:179.825
;MAXZ:3
;TARGET_MACHINE.NAME:Unknown
;Generated with Cura_SteamEngine 5.10.0
M104 S210
M105
M109 S210
G28 ;Home
G1 Z15.0 F6000 ;Move the platform down 15mm
;Prime the extruder
G92 E0
G1 F200 E3
G92 E0
M82 ;absolute extrusion mode
G92 E0
G92 E0
G1 F1500 E-6.5
;LAYER_COUNT:10
;LAYER:0
M107
G0 F4500 X38.789 Y41.079 Z0.3
;TYPE:SKIRT
G1 F1500 E0
G1 F3000 X39.18 Y40.758 E0.02524
G1 X39.617 Y40.503 E0.05048
G1 X40.088 Y40.319 E0.07571
G1 X40.582 Y40.213 E0.10092
G1 X41.027 Y40.176 E0.12319
G1 X228.339 Y40.175 E9.46823
G1 X229.037 Y40.185 E9.50305
G1 X229.54 Y40.232 E9.52826
G1 X230.03 Y40.358 E9.5535
G1 X230.494 Y40.56 E9.57875
G1 X230.92 Y40.832 E9.60396
G1 X231.298 Y41.167 E9.62916
G1 X231.618 Y41.558 E9.65437
G1 X231.873 Y41.995 E9.67961
G1 X232.056 Y42.466 E9.70482
G1 X232.163 Y42.96 E9.73004
G1 X232.199 Y43.615 E9.76277
G1 X232.2 Y175.929 E16.36394
G1 X232.191 Y176.656 E16.40021
G1 X232.145 Y177.159 E16.42541
G1 X232.02 Y177.649 E16.45064
G1 X231.819 Y178.113 E16.47587
G1 X231.548 Y178.54 E16.5011
G1 X231.213 Y178.919 E16.52633
G1 X230.823 Y179.24 E16.55153
G1 X230.387 Y179.496 E16.57676
G1 X229.916 Y179.679 E16.60197
G1 X229.422 Y179.787 E16.6272
G1 X228.76 Y179.824 E16.66028
G1 X41.666 Y179.825 E25.99443
G1 X40.968 Y179.816 E26.02926
G1 X40.464 Y179.769 E26.05451
G1 X39.974 Y179.644 E26.07974
G1 X39.51 Y179.443 E26.10497
G1 X39.084 Y179.172 E26.13016
G1 X38.705 Y178.837 E26.1554
G1 X38.384 Y178.446 E26.18063
G1 X38.129 Y178.01 E26.20583
G1 X37.945 Y177.539 E26.23106
G1 X37.838 Y177.045 E26.25628
G1 X37.801 Y176.592 E26.27895
G1 X37.8 Y44.006 E32.8937
G1 X37.809 Y43.341 E32.92688
G1 X37.856 Y42.837 E32.95213
G1 X37.982 Y42.348 E32.97732
G1 X38.183 Y41.884 E33.00255
G1 X38.454 Y41.457 E33.02778
G1 X38.789 Y41.079 E33.05298
G1 F1500 E26.55298
;MESH:test_plate_arduino_mega2.stl
G0 F4500 X41.424 Y42.71
G0 X41.424 Y43.799
G0 X53.85 Y70.553
G0 X54.477 Y71.296
G0 X56.756 Y72.186
G0 X56.702 Y71.876
;TYPE:WALL-INNER
G1 F1500 E33.05298
G1 F3000 X56.191 Y71.971 E33.07891
G1 X55.532 Y71.938 E33.11183
G1 X54.807 Y71.687 E33.15011
G1 X54.382 Y71.41 E33.17542
G1 X54.01 Y71.049 E33.20128
G1 X53.691 Y70.571 E33.22995
G1 X53.503 Y70.105 E33.25502
G1 X53.429 Y69.78 E33.27165
G1 X53.4 Y69.276 E33.29683
G1 X53.461 Y68.81 E33.32028
G1 X53.599 Y68.366 E33.34348
G1 X53.857 Y67.9 E33.37005
G1 X54.357 Y67.356 E33.40691
G1 X54.703 Y67.12 E33.42781
G1 X55.184 Y66.901 E33.45418
G1 X55.936 Y66.77 E33.49226
G1 X56.679 Y66.86 E33.5296
G1 X57.188 Y67.058 E33.55685
G1 X57.606 Y67.332 E33.58178
G1 X57.992 Y67.701 E33.60842
G1 X58.304 Y68.175 E33.63673
G1 X58.49 Y68.628 E33.66117
G1 X58.593 Y69.198 E33.69006
G1 X58.573 Y69.761 E33.71817
G1 X58.404 Y70.376 E33.74999
G1 X58.007 Y71.029 E33.78812
G1 X57.595 Y71.427 E33.81669
G1 X57.206 Y71.676 E33.83974
G1 X56.702 Y71.876 E33.86679
G0 F4500 X56.756 Y72.186
G0 X104.762 Y70.935
G0 X104.708 Y70.626
G1 F3000 X104.211 Y70.714 E33.89197
G1 X103.534 Y70.69 E33.92577
G1 X102.822 Y70.447 E33.9633
G1 X102.388 Y70.163 E33.98918
G1 X102.005 Y69.791 E34.01581
G1 X101.733 Y69.4 E34.03958
G1 X101.52 Y68.917 E34.06591
G1 X101.431 Y68.542 E34.08514
G1 X101.4 Y68.054 E34.10954
G1 X101.448 Y67.613 E34.13167
G1 X101.61 Y67.093 E34.15884
G1 X101.855 Y66.643 E34.1844
G1 X102.353 Y66.107 E34.22091
G1 X102.699 Y65.874 E34.24172
G1 X103.18 Y65.648 E34.26823
G1 X103.936 Y65.518 E34.3065
G1 X104.648 Y65.606 E34.34229
G1 X105.206 Y65.82 E34.37211
G1 X105.603 Y66.078 E34.39573
G1 X105.992 Y66.449 E34.42255
G1 X106.305 Y66.925 E34.45097
G1 X106.488 Y67.372 E34.47507
G1 X106.591 Y67.935 E34.50362
G1 X106.571 Y68.522 E34.53293
G1 X106.403 Y69.13 E34.5644
G1 X106.007 Y69.776 E34.6022
G1 X105.652 Y70.129 E34.62718
G1 X105.209 Y70.427 E34.65381
G1 X104.708 Y70.626 E34.68071
G0 F4500 X104.762 Y70.935
G0 X159.833 Y61.164
G0 X159.719 Y60.871
G1 F3000 X159.211 Y60.966 E34.70649
G1 X158.533 Y60.938 E34.74034
G1 X157.831 Y60.699 E34.77734
G1 X157.4 Y60.424 E34.80285
G1 X157.015 Y60.055 E34.82945
G1 X156.728 Y59.644 E34.85446
G1 X156.521 Y59.167 E34.8804
G1 X156.422 Y58.735 E34.90252
G1 X156.4 Y58.306 E34.92395
G1 X156.445 Y57.878 E34.94542
G1 X156.59 Y57.388 E34.97091
G1 X156.857 Y56.895 E34.99888
G1 X157.354 Y56.358 E35.03539
G1 X157.747 Y56.097 E35.05892
G1 X158.177 Y55.907 E35.08238
G1 X158.934 Y55.768 E35.12078
G1 X159.682 Y55.865 E35.15841
G1 X160.188 Y56.058 E35.18543
G1 X160.62 Y56.343 E35.21125
G1 X160.992 Y56.701 E35.237
G1 X161.249 Y57.074 E35.2596
G1 X161.477 Y57.584 E35.28747
G1 X161.593 Y58.198 E35.31865
G1 X161.573 Y58.762 E35.3468
G1 X161.402 Y59.383 E35.37894
G1 X161.019 Y60.008 E35.41551
G1 X160.635 Y60.396 E35.44274
G1 X160.221 Y60.668 E35.46746
G1 X159.719 Y60.871 E35.49447
G0 F4500 X159.833 Y61.164
G0 X209.208 Y61.221
G0 X209.736 Y60.865
G1 F3000 X209.175 Y60.968 E35.52293
G1 X208.529 Y60.936 E35.5552
G1 X207.829 Y60.703 E35.592
G1 X207.357 Y60.389 E35.62029
G1 X207.011 Y60.05 E35.64445
G1 X206.703 Y59.598 E35.67174
G1 X206.509 Y59.129 E35.69706
G1 X206.422 Y58.735 E35.71719
G1 X206.4 Y58.306 E35.73862
G1 X206.445 Y57.878 E35.76009
G1 X206.59 Y57.388 E35.78559
G1 X206.857 Y56.895 E35.81356
G1 X207.354 Y56.358 E35.85006
G1 X207.747 Y56.097 E35.8736
G1 X208.177 Y55.907 E35.89705
G1 X208.934 Y55.768 E35.93545
G1 X209.682 Y55.865 E35.97308
G1 X210.188 Y56.058 E36.0001
G1 X210.62 Y56.343 E36.02592
G1 X210.992 Y56.701 E36.05168
G1 X211.287 Y57.139 E36.07803
G1 X211.489 Y57.61 E36.10359
G1 X211.593 Y58.207 E36.13383
G1 X211.568 Y58.772 E36.16204
G1 X211.397 Y59.392 E36.19413
G1 X210.986 Y60.05 E36.23283
G1 X210.607 Y60.418 E36.25919
G1 X210.211 Y60.674 E36.28272
G1 X209.736 Y60.865 E36.30826
G0 F4500 X209.85 Y61.158
G0 X211.851 Y143.216
G0 X211.631 Y144.489
G0 X211.205 Y145.188
G0 X209.707 Y146.195
G0 X209.653 Y145.887
G1 F3000 X209.123 Y145.968 E36.33501
G1 X208.54 Y145.94 E36.36413
G1 X207.82 Y145.7 E36.40199
G1 X207.337 Y145.371 E36.43115
G1 X206.974 Y145.002 E36.45697
G1 X206.691 Y144.571 E36.48269
G1 X206.503 Y144.105 E36.50776
G1 X206.425 Y143.758 E36.52551
G1 X206.4 Y143.251 E36.55083
G1 X206.461 Y142.81 E36.57304
G1 X206.586 Y142.399 E36.59448
G1 X206.846 Y141.91 E36.62211
G1 X207.332 Y141.378 E36.65805
G1 X207.684 Y141.13 E36.67954
G1 X208.179 Y140.902 E36.70673
G1 X208.936 Y140.769 E36.74507
G1 X209.637 Y140.856 E36.78031
G1 X210.215 Y141.073 E36.81111
G1 X210.604 Y141.331 E36.8344
G1 X210.948 Y141.654 E36.85794
G1 X211.279 Y142.123 E36.88658
G1 X211.489 Y142.61 E36.91304
G1 X211.593 Y143.207 E36.94328
G1 X211.566 Y143.781 E36.97194
G1 X211.389 Y144.41 E37.00454
G1 X211.044 Y144.971 E37.0374
G1 X210.67 Y145.364 E37.06447
G1 X210.195 Y145.687 E37.09313
G1 X209.653 Y145.887 E37.12195
G0 F4500 X209.707 Y146.195
G0 X219.838 Y152.537
G0 X219.838 Y172.463
G0 X219.36 Y172.105
G1 F3000 X219.195 Y172.192 E37.13125
G1 X219 Y172.224 E37.14111
G1 X149 Y172.224 E40.63343
G1 X148.805 Y172.192 E40.64329
G1 X148.64 Y172.104 E40.65262
G1 X148.52 Y171.984 E40.66108
G1 X148.4 Y171.703 E40.67633
G1 X148.407 Y153.276 E41.59565
G1 X148.513 Y153.02 E41.60948
G1 X148.603 Y152.921 E41.61615
G1 X148.812 Y152.801 E41.62817
G1 X148.955 Y152.773 E41.63544
G1 X219.035 Y152.772 E45.13175
G1 X219.305 Y152.855 E45.14584
G1 X219.533 Y153.094 E45.16232
G1 X219.6 Y153.295 E45.17289
G1 X219.6 Y171.703 E46.09127
G1 X219.48 Y171.984 E46.10652
G1 X219.36 Y172.105 E46.11502
G0 F4500 X219.36 Y172.535
G0 X228.12 Y175.745
G0 X228.4 Y176.024
G1 F3000 X228.4 Y43.972 E52.70312
G1 X41.601 Y43.973 E62.02256
G1 X41.6 Y176.024 E68.61061
G1 X228.4 Y176.024 E77.9301
G0 F4500 X228.12 Y175.745
G0 X219.838 Y152.537
G0 X159.707 Y146.195
G0 X159.653 Y145.887
G1 F3000 X159.123 Y145.968 E77.95685
G1 X158.54 Y145.94 E77.98597
G1 X157.82 Y145.7 E78.02383
G1 X157.337 Y145.371 E78.05299
G1 X156.974 Y145.002 E78.07881
G1 X156.691 Y144.571 E78.10454
G1 X156.503 Y144.105 E78.1296
G1 X156.423 Y143.745 E78.148
G1 X156.4 Y143.248 E78.17283
G1 X156.445 Y142.877 E78.19147
G1 X156.599 Y142.364 E78.21819
G1 X156.854 Y141.904 E78.24443
G1 X157.372 Y141.343 E78.28253
G1 X157.711 Y141.115 E78.30291
G1 X158.186 Y140.9 E78.32892
G1 X158.92 Y140.771 E78.3661
G1 X159.68 Y140.861 E78.40428
G1 X160.178 Y141.053 E78.43091
G1 X160.641 Y141.361 E78.45865
G1 X160.995 Y141.705 E78.48328
G1 X161.293 Y142.151 E78.51004
G1 X161.482 Y142.598 E78.53425
G1 X161.593 Y143.203 E78.56494
G1 X161.569 Y143.761 E78.59281
G1 X161.389 Y144.409 E78.62636
G1 X161.044 Y144.971 E78.65926
G1 X160.67 Y145.364 E78.68633
G1 X160.195 Y145.687 E78.71498
G1 X159.653 Y145.887 E78.74381
G0 F4500 X159.707 Y146.195
G0 X104.84 Y153.412
G0 X104.726 Y153.12
G1 F3000 X104.213 Y153.213 E78.76982
G1 X103.541 Y153.192 E78.80336
G1 X102.824 Y152.944 E78.84121
G1 X102.396 Y152.669 E78.86659
G1 X102.049 Y152.339 E78.89048
G1 X101.717 Y151.873 E78.91903
G1 X101.509 Y151.38 E78.94572
G1 X101.426 Y151.015 E78.9644
G1 X101.4 Y150.49 E78.99062
G1 X101.442 Y150.146 E79.00791
G1 X101.595 Y149.618 E79.03534
G1 X101.857 Y149.148 E79.06218
G1 X102.325 Y148.637 E79.09675
G1 X102.736 Y148.354 E79.12165
G1 X103.219 Y148.143 E79.14794
G1 X103.93 Y148.018 E79.18396
G1 X104.695 Y148.112 E79.22241
G1 X105.222 Y148.329 E79.25085
G1 X105.599 Y148.575 E79.27331
G1 X105.989 Y148.946 E79.30016
G1 X106.278 Y149.369 E79.32572
G1 X106.478 Y149.838 E79.35116
G1 X106.591 Y150.436 E79.38152
G1 X106.574 Y151.011 E79.41022
G1 X106.397 Y151.632 E79.44243
G1 X106.012 Y152.269 E79.47957
G1 X105.639 Y152.64 E79.50581
G1 X105.216 Y152.923 E79.53121
G1 X104.726 Y153.12 E79.55755
G0 F4500 X104.84 Y153.412
G0 X103.803 Y153.452
G0 X56.736 Y146.689
G0 X56.682 Y146.381
G1 F3000 X56.188 Y146.471 E79.5826
G1 X55.532 Y146.438 E79.61537
G1 X54.807 Y146.187 E79.65365
G1 X54.382 Y145.91 E79.67896
G1 X54.01 Y145.549 E79.70482
G1 X53.691 Y145.071 E79.73349
G1 X53.503 Y144.605 E79.75856
G1 X53.429 Y144.28 E79.77519
G1 X53.4 Y143.776 E79.80038
G1 X53.461 Y143.31 E79.82382
G1 X53.599 Y142.866 E79.84702
G1 X53.857 Y142.4 E79.87359
G1 X54.357 Y141.856 E79.91046
G1 X54.703 Y141.62 E79.93135
G1 X55.252 Y141.388 E79.96109
G1 X55.951 Y141.272 E79.99644
G1 X56.679 Y141.361 E80.03303
G1 X57.178 Y141.553 E80.0597
G1 X57.587 Y141.819 E80.08404
G1 X57.995 Y142.205 E80.11206
G1 X58.298 Y142.661 E80.13938
G1 X58.488 Y143.107 E80.16357
G1 X58.594 Y143.708 E80.19401
G1 X58.573 Y144.265 E80.22182
G1 X58.398 Y144.895 E80.25444
G1 X58.012 Y145.523 E80.29122
G1 X57.6 Y145.923 E80.31987
G1 X57.168 Y146.195 E80.34534
G1 X56.682 Y146.381 E80.3713
G0 F4500 X56.6 Y145.989
;TYPE:WALL-OUTER
G1 F3000 X56.167 Y146.068 E80.39326
G1 X55.629 Y146.043 E80.42013
G1 X55.009 Y145.841 E80.45266
G1 X54.631 Y145.597 E80.4751
G1 X54.315 Y145.29 E80.49708
G1 X54.068 Y144.933 E80.51874
G1 X53.903 Y144.547 E80.53969
G1 X53.823 Y144.211 E80.55692
G1 X53.8 Y143.776 E80.57865
G1 X53.844 Y143.426 E80.59625
G1 X53.967 Y143.022 E80.61732
G1 X54.181 Y142.634 E80.63942
G1 X54.617 Y142.16 E80.67156
G1 X54.913 Y141.961 E80.68935
G1 X55.285 Y141.792 E80.70973
G1 X55.944 Y141.673 E80.74314
G1 X56.587 Y141.754 E80.77548
G1 X57.001 Y141.912 E80.79758
G1 X57.359 Y142.147 E80.81895
G1 X57.698 Y142.475 E80.84248
G1 X57.934 Y142.828 E80.86367
G1 X58.099 Y143.213 E80.88457
G1 X58.197 Y143.767 E80.91263
G1 X58.171 Y144.216 E80.93507
G1 X58.034 Y144.714 E80.96084
G1 X57.699 Y145.268 E80.99314
G1 X57.366 Y145.599 E81.01656
G1 X57.021 Y145.822 E81.03706
G1 X56.6 Y145.989 E81.05965
G0 F4500 X56.404 Y146.024
G0 X56.458 Y146.333
G0 X103.569 Y153.041
G0 X104.731 Y153.024
G0 X104.618 Y152.735
G1 F3000 X104.187 Y152.814 E81.08152
G1 X103.629 Y152.795 E81.10937
G1 X103.011 Y152.589 E81.14187
G1 X102.636 Y152.349 E81.16408
G1 X102.321 Y152.045 E81.18592
G1 X102.068 Y151.681 E81.20804
G1 X101.897 Y151.282 E81.2297
G1 X101.82 Y150.941 E81.24714
G1 X101.8 Y150.504 E81.26896
G1 X101.841 Y150.188 E81.28486
G1 X101.971 Y149.764 E81.30698
G1 X102.181 Y149.382 E81.32873
G1 X102.63 Y148.901 E81.36156
G1 X102.911 Y148.714 E81.3784
G1 X103.321 Y148.53 E81.40082
G1 X103.97 Y148.424 E81.43363
G1 X104.604 Y148.507 E81.46553
G1 X105.022 Y148.676 E81.48802
G1 X105.378 Y148.91 E81.50928
G1 X105.698 Y149.223 E81.53161
G1 X105.93 Y149.567 E81.55231
G1 X106.095 Y149.954 E81.5733
G1 X106.195 Y150.492 E81.6006
G1 X106.173 Y150.957 E81.62382
G1 X106.029 Y151.475 E81.65065
G1 X105.686 Y152.037 E81.68349
G1 X105.359 Y152.352 E81.70615
G1 X105.019 Y152.575 E81.72643
G1 X104.618 Y152.735 E81.74797
G0 F4500 X104.422 Y152.771
G0 X104.476 Y153.079
G0 X159.731 Y145.774
G0 X159.618 Y145.483
G1 F3000 X159.142 Y145.568 E81.7721
G1 X158.613 Y145.543 E81.79852
G1 X157.978 Y145.324 E81.83203
G1 X157.616 Y145.084 E81.8537
G1 X157.303 Y144.774 E81.87568
G1 X157.059 Y144.415 E81.89733
G1 X156.903 Y144.047 E81.91727
G1 X156.823 Y143.714 E81.93436
G1 X156.8 Y143.258 E81.95714
G1 X156.844 Y142.926 E81.97385
G1 X156.971 Y142.513 E81.9954
G1 X157.193 Y142.119 E82.01797
G1 X157.622 Y141.655 E82.04949
G1 X157.913 Y141.461 E82.06694
G1 X158.307 Y141.285 E82.08847
G1 X158.951 Y141.175 E82.12106
G1 X159.601 Y141.258 E82.15376
G1 X160.007 Y141.415 E82.17547
G1 X160.362 Y141.649 E82.19669
G1 X160.692 Y141.966 E82.21952
G1 X160.933 Y142.325 E82.24109
G1 X161.1 Y142.716 E82.2623
G1 X161.195 Y143.246 E82.28916
G1 X161.174 Y143.699 E82.31179
G1 X161.029 Y144.23 E82.33925
G1 X160.673 Y144.799 E82.37273
G1 X160.389 Y145.079 E82.39263
G1 X159.994 Y145.335 E82.41611
G1 X159.618 Y145.483 E82.43627
G0 F4500 X159.422 Y145.518
G0 X159.477 Y145.829
G0 X209.182 Y145.82
G0 X209.618 Y145.483
G1 F3000 X209.142 Y145.568 E82.4604
G1 X208.613 Y145.543 E82.48682
G1 X207.978 Y145.324 E82.52033
G1 X207.616 Y145.084 E82.542
G1 X207.303 Y144.774 E82.56398
G1 X207.059 Y144.415 E82.58563
G1 X206.903 Y144.047 E82.60557
G1 X206.821 Y143.704 E82.62317
G1 X206.8 Y143.267 E82.645
G1 X206.841 Y142.936 E82.66164
G1 X206.966 Y142.524 E82.68312
G1 X207.178 Y142.139 E82.70504
G1 X207.635 Y141.646 E82.73858
G1 X207.913 Y141.461 E82.75524
G1 X208.297 Y141.288 E82.77625
G1 X208.945 Y141.173 E82.80909
G1 X209.588 Y141.254 E82.84142
G1 X210.003 Y141.413 E82.86359
G1 X210.364 Y141.651 E82.88516
G1 X210.68 Y141.953 E82.90697
G1 X210.928 Y142.315 E82.92886
G1 X211.098 Y142.711 E82.95036
G1 X211.194 Y143.233 E82.97684
G1 X211.175 Y143.695 E82.99991
G1 X211.029 Y144.23 E83.02758
G1 X210.673 Y144.799 E83.06107
G1 X210.389 Y145.079 E83.08096
G1 X209.994 Y145.335 E83.10445
G1 X209.618 Y145.483 E83.12461
G0 F4500 X209.422 Y145.518
G0 X209.477 Y145.829
G0 X219.438 Y152.937
G0 X219.51 Y171.661
G0 X219.197 Y171.661
G1 F3000 X219.16 Y171.744 E83.12914
G1 X219.051 Y171.824 E83.13588
G1 X148.949 Y171.824 E86.63329
G1 X148.84 Y171.744 E86.64003
G1 X148.803 Y171.661 E86.64457
G1 X148.803 Y153.332 E87.559
G1 X148.84 Y153.25 E87.56349
G1 X148.972 Y153.173 E87.57112
G1 X219.062 Y153.173 E91.06792
G1 X219.162 Y153.253 E91.07431
G1 X219.198 Y153.339 E91.07896
G1 X219.197 Y171.661 E91.99305
G0 F4500 X219.16 Y171.744
G0 X219.072 Y171.808
G0 X219.072 Y172.135
G0 X228.52 Y176.145
G0 X228.8 Y176.424
G1 F3000 X228.8 Y43.572 E98.62106
G1 X41.201 Y43.573 E107.98042
G1 X41.2 Y176.424 E114.60838
G1 X228.8 Y176.424 E123.96778
G0 F4500 X228.8 Y176.224
G0 X228.52 Y176.145
G0 X209.713 Y60.781
G0 X209.599 Y60.489
G1 F3000 X209.169 Y60.568 E123.98959
G1 X208.604 Y60.539 E124.01782
G1 X207.978 Y60.324 E124.05084
G1 X207.634 Y60.1 E124.07132
G1 X207.305 Y59.778 E124.09429
G1 X207.063 Y59.424 E124.11568
G1 X206.899 Y59.037 E124.13665
G1 X206.82 Y58.696 E124.15411
G1 X206.8 Y58.263 E124.17574
G1 X206.841 Y57.937 E124.19213
G1 X206.964 Y57.529 E124.21339
G1 X207.176 Y57.142 E124.23541
G1 X207.616 Y56.66 E124.26797
G1 X207.913 Y56.461 E124.2858
G1 X208.296 Y56.289 E124.30675
G1 X208.945 Y56.173 E124.33964
G1 X209.585 Y56.253 E124.37182
G1 X210.004 Y56.414 E124.39421
G1 X210.37 Y56.655 E124.41607
G1 X210.686 Y56.959 E124.43795
G1 X210.931 Y57.321 E124.45976
G1 X211.098 Y57.711 E124.48092
G1 X211.194 Y58.233 E124.5074
G1 X211.174 Y58.703 E124.53087
G1 X211.024 Y59.237 E124.55855
G1 X210.684 Y59.788 E124.59085
G1 X210.379 Y60.088 E124.61219
