;FLAVOR:Marlin
;TIME:3808
;Filament used: 7.36527m
;Layer height: 0.2
;MINX:32.389
;MINY:35.197
;MINZ:0.36
;MAXX:142.283
;MAXY:137.808
;MAXZ:11.11
;TARGET_MACHINE.NAME:Unknown
;Generated with Cura_SteamEngine 5.10.0
M104 S200
M105
M109 S200
G28 ;Home
G1 Z15.0 F6000 ;Move the platform down 15mm
;Prime the extruder
G92 E0
G1 F200 E3
G92 E0
M82 ;absolute extrusion mode
G92 E0
G92 E0
G1 F1500 E-6.5
;LAYER_COUNT:49
;LAYER:-6
M107
G0 F7200 X40.8 Y42.767 Z0.36
;TYPE:SUPPORT-INTERFACE
G1 F1500 E0
G1 F3150 X41.678 Y41.975 E0.14158
G1 X42.427 Y41.393 E0.25516
G1 X43.322 Y40.794 E0.38411
G1 X44.403 Y40.189 E0.53243
G1 X45.35 Y39.748 E0.65752
G1 X46.002 Y39.491 E0.74143
G1 X55.294 Y36.111 E1.92534
G1 X56.5 Y35.722 E2.07707
G1 X57.56 Y35.473 E2.20745
G1 X58.519 Y35.31 E2.32392
G1 X59.664 Y35.212 E2.46152
G1 X60.728 Y35.197 E2.58893
G1 X61.63 Y35.243 E2.69707
G1 X62.629 Y35.36 E2.81751
G1 X63.806 Y35.594 E2.9612
G1 X64.85 Y35.886 E3.091
G1 X65.751 Y36.208 E3.20556
G1 X66.733 Y36.641 E3.33407
G1 X67.766 Y37.186 E3.47392
G1 X68.724 Y37.802 E3.61029
G1 X69.427 Y38.322 E3.71499
G1 X70.21 Y38.984 E3.83776
G1 X71.013 Y39.771 E3.97239
G1 X71.721 Y40.581 E4.1012
G1 X72.348 Y41.414 E4.22604
G1 X72.932 Y42.314 E4.3545
G1 X73.445 Y43.251 E4.48241
G1 X73.941 Y44.348 E4.62656
G1 X74.286 Y45.287 E4.74634
G1 X74.59 Y46.393 E4.88368
G1 X74.805 Y47.458 E5.01377
G1 X74.929 Y48.42 E5.12991
G1 X74.992 Y49.758 E5.2903
G1 X74.996 Y54.493 E5.85725
G1 X75.038 Y55.146 E5.9356
G1 X75.158 Y55.795 E6.01463
G1 X75.374 Y56.464 E6.0988
G1 X75.683 Y57.119 E6.18552
G1 X76.049 Y57.692 E6.26693
G1 X76.457 Y58.179 E6.343
G1 X76.977 Y58.659 E6.42773
G1 X77.533 Y59.062 E6.50996
G1 X78.136 Y59.386 E6.59192
G1 X78.746 Y59.627 E6.67045
G1 X79.673 Y59.835 E6.78421
G1 X80.244 Y59.918 E6.8533
G1 X81.742 Y60.249 E7.03699
G1 X82.938 Y60.589 E7.18587
G1 X83.59 Y60.724 E7.26559
G1 X84.283 Y60.784 E7.34888
G1 X84.979 Y60.755 E7.43229
G1 X85.616 Y60.649 E7.50961
G1 X86.299 Y60.438 E7.5952
G1 X86.635 Y60.313 E7.63813
G1 X87.982 Y59.859 E7.80833
G1 X89.593 Y59.412 E8.00851
G1 X90.771 Y59.129 E8.15357
G1 X91.698 Y58.978 E8.26603
G1 X92.89 Y58.872 E8.40932
G1 X93.778 Y58.857 E8.51566
G1 X94.291 Y58.88 E8.57715
G1 X94.989 Y58.872 E8.66073
G1 X95.661 Y58.781 E8.74193
G1 X96.292 Y58.615 E8.82005
G1 X96.968 Y58.34 E8.90744
G1 X97.526 Y58.024 E8.98422
G1 X98.097 Y57.605 E9.06902
G1 X98.597 Y57.121 E9.15234
G1 X99.033 Y56.573 E9.23619
G1 X99.378 Y56.004 E9.31587
G1 X99.65 Y55.408 E9.39431
G1 X99.852 Y54.739 E9.47799
G1 X99.971 Y54.081 E9.55805
G1 X100 Y53.517 E9.62567
G1 X100 Y49.8 E10.07073
G1 X100.04 Y48.798 E10.1908
G1 X100.153 Y47.737 E10.31856
G1 X100.34 Y46.689 E10.44603
G1 X100.597 Y45.673 E10.57151
G1 X100.939 Y44.653 E10.70033
G1 X101.383 Y43.59 E10.83826
G1 X101.908 Y42.579 E10.97467
G1 X102.485 Y41.652 E11.10541
G1 X103.112 Y40.787 E11.23333
G1 X103.79 Y39.985 E11.35907
G1 X104.403 Y39.348 E11.46492
G1 X105.282 Y38.555 E11.60667
G1 X106.031 Y37.973 E11.72025
G1 X106.926 Y37.374 E11.8492
G1 X108.008 Y36.768 E11.99769
G1 X108.787 Y36.4 E12.10085
G1 X109.89 Y35.971 E12.24255
G1 X110.985 Y35.648 E12.37925
G1 X111.886 Y35.446 E12.48981
G1 X112.918 Y35.29 E12.61478
G1 X113.981 Y35.204 E12.74248
G1 X115.031 Y35.201 E12.8682
G1 X116.103 Y35.271 E12.99683
G1 X117.162 Y35.419 E13.12487
G1 X118.281 Y35.66 E13.26192
G1 X119.731 Y36.119 E13.44403
G1 X129.043 Y39.509 E14.63061
G1 X130.071 Y39.933 E14.76375
G1 X130.858 Y40.321 E14.86882
G1 X131.785 Y40.863 E14.99739
G1 X132.65 Y41.455 E15.1229
G1 X133.484 Y42.113 E15.2501
G1 X134.278 Y42.845 E15.3794
G1 X135.017 Y43.635 E15.50893
G1 X135.73 Y44.523 E15.64529
G1 X136.29 Y45.336 E15.76349
G1 X136.82 Y46.236 E15.88855
G1 X137.307 Y47.209 E16.01884
G1 X137.668 Y48.103 E16.13428
G1 X138.027 Y49.177 E16.26987
G1 X138.288 Y50.218 E16.39837
G1 X138.471 Y51.316 E16.53166
G1 X138.568 Y52.355 E16.6566
G1 X138.6 Y53.208 E16.75881
G1 X138.6 Y55.177 E16.99457
G1 X138.642 Y55.84 E17.07412
G1 X138.766 Y56.477 E17.15182
G1 X138.943 Y57.027 E17.221
G1 X139.482 Y58.575 E17.41727
G1 X139.933 Y60.113 E17.60918
G1 X140.228 Y61.299 E17.75551
G1 X140.387 Y62.216 E17.86695
G1 X140.504 Y63.33 E18.00107
G1 X140.531 Y64.483 E18.13916
G1 X140.492 Y65.353 E18.24344
G1 X140.44 Y65.846 E18.30279
G1 X140.385 Y66.582 E18.39117
G1 X140.284 Y67.478 E18.49913
G1 X139.955 Y69.124 E18.70011
G1 X139.904 Y69.78 E18.7789
G1 X139.929 Y70.464 E18.86085
G1 X140.012 Y71.016 E18.92769
G1 X140.079 Y71.322 E18.9652
G1 X140.235 Y72.232 E19.07575
G1 X140.352 Y73.323 E19.20713
G1 X140.379 Y74.487 E19.34654
G1 X140.341 Y75.349 E19.44985
G1 X140.22 Y76.456 E19.58319
G1 X140.087 Y77.157 E19.66862
G1 X139.984 Y77.965 E19.76615
G1 X140.032 Y78.805 E19.8669
G1 X140.15 Y79.457 E19.94623
G1 X140.387 Y80.189 E20.03836
G1 X140.497 Y80.459 E20.07327
G1 X141.014 Y81.931 E20.26008
G1 X141.497 Y83.596 E20.46766
G1 X141.764 Y84.671 E20.60028
G1 X141.923 Y85.588 E20.71172
G1 X142.04 Y86.678 E20.84298
G1 X142.063 Y87.839 E20.98202
G1 X142.025 Y88.704 E21.0857
G1 X141.872 Y89.991 E21.24088
G1 X141.82 Y90.616 E21.31598
G1 X141.84 Y91.286 E21.39623
G1 X141.932 Y91.879 E21.46809
G1 X141.983 Y92.107 E21.49606
G1 X142.143 Y93.036 E21.60893
G1 X142.26 Y94.126 E21.7402
G1 X142.283 Y95.291 E21.87972
G1 X142.244 Y96.157 E21.98351
G1 X142.128 Y97.26 E22.11631
G1 X141.897 Y98.427 E22.25876
G1 X141.733 Y99.068 E22.33798
G1 X141.244 Y100.801 E22.55359
G1 X141.002 Y101.567 E22.64977
G1 X140.838 Y102.219 E22.73027
G1 X140.756 Y102.9 E22.8124
G1 X140.76 Y103.598 E22.89598
G1 X140.855 Y104.277 E22.97807
G1 X141.051 Y105.377 E23.11186
G1 X141.168 Y106.466 E23.243
G1 X141.191 Y107.627 E23.38204
G1 X141.152 Y108.493 E23.48584
G1 X141.032 Y109.619 E23.62142
G1 X140.805 Y110.759 E23.7606
G1 X140.641 Y111.4 E23.83983
G1 X140.192 Y113.013 E24.04031
G1 X139.847 Y114.091 E24.17583
G1 X139.411 Y115.159 E24.31395
G1 X139.141 Y115.702 E24.38657
G1 X138.884 Y116.328 E24.46759
G1 X138.705 Y117.007 E24.55167
G1 X138.602 Y117.732 E24.63935
G1 X138.6 Y123.199 E25.29395
G1 X138.552 Y124.346 E25.43141
G1 X138.452 Y125.277 E25.54352
G1 X138.229 Y126.452 E25.68673
G1 X138.004 Y127.322 E25.79432
G1 X137.641 Y128.413 E25.932
G1 X137.174 Y129.491 E26.07266
G1 X136.692 Y130.417 E26.19766
G1 X136.115 Y131.344 E26.3284
G1 X135.488 Y132.209 E26.45632
G1 X134.81 Y133.012 E26.58216
G1 X134.197 Y133.652 E26.68827
G1 X133.386 Y134.385 E26.81916
G1 X132.491 Y135.082 E26.95499
G1 X131.54 Y135.705 E27.09112
G1 X130.593 Y136.231 E27.22083
G1 X129.818 Y136.596 E27.3234
G1 X128.71 Y137.025 E27.46566
G1 X127.615 Y137.348 E27.60236
G1 X126.715 Y137.55 E27.7128
G1 X125.505 Y137.725 E27.85919
G1 X124.32 Y137.808 E28.00143
G1 X112.949 Y137.808 E29.36295
G1 X111.814 Y137.76 E29.49897
G1 X110.973 Y137.671 E29.60023
G1 X109.845 Y137.468 E29.73747
G1 X108.896 Y137.231 E29.85459
G1 X107.821 Y136.873 E29.99025
G1 X106.745 Y136.425 E30.12981
G1 X105.88 Y135.978 E30.24639
G1 X104.969 Y135.425 E30.374
G1 X103.954 Y134.699 E30.52342
G1 X103.155 Y134.025 E30.64858
G1 X102.595 Y133.497 E30.74074
G1 X89.191 Y120.092 E33.01056
G1 X88.709 Y119.667 E33.08751
G1 X88.142 Y119.277 E33.16991
G1 X87.514 Y118.957 E33.2543
G1 X86.868 Y118.728 E33.33637
G1 X86.203 Y118.583 E33.41786
G1 X85.519 Y118.52 E33.50011
G1 X84.844 Y118.544 E33.58098
G1 X84.19 Y118.651 E33.66033
G1 X83.504 Y118.852 E33.74592
G1 X82.887 Y119.126 E33.82676
G1 X82.304 Y119.478 E33.9083
G1 X81.596 Y120.064 E34.01834
G1 X68.106 Y133.548 E36.30214
G1 X67.339 Y134.264 E36.42777
G1 X66.43 Y134.981 E36.5664
G1 X65.618 Y135.537 E36.68423
G1 X64.631 Y136.111 E36.82094
G1 X63.816 Y136.51 E36.9296
G1 X62.838 Y136.908 E37.05602
G1 X61.88 Y137.223 E37.17677
G1 X60.801 Y137.492 E37.30992
G1 X59.694 Y137.683 E37.44443
G1 X58.67 Y137.78 E37.56759
G1 X57.797 Y137.808 E37.67217
G1 X50.993 Y137.808 E38.48686
G1 X49.858 Y137.76 E38.62288
G1 X49.017 Y137.671 E38.72414
G1 X47.889 Y137.468 E38.86137
G1 X46.94 Y137.231 E38.97849
G1 X45.865 Y136.873 E39.11416
G1 X44.789 Y136.425 E39.25372
G1 X43.924 Y135.978 E39.3703
G1 X43.013 Y135.425 E39.49791
G1 X41.998 Y134.699 E39.64733
G1 X41.193 Y134.022 E39.77327
G1 X40.552 Y133.401 E39.88013
G1 X39.827 Y132.606 E40.00896
G1 X39.122 Y131.699 E40.14651
G1 X38.499 Y130.749 E40.28254
G1 X37.977 Y129.802 E40.41202
G1 X37.585 Y128.963 E40.5229
G1 X37.156 Y127.835 E40.6674
G1 X36.856 Y126.827 E40.79333
G1 X36.654 Y125.918 E40.90482
G1 X36.498 Y124.88 E41.0305
G1 X36.467 Y124.536 E41.07186
G1 X36.371 Y123.852 E41.15456
G1 X36.201 Y123.211 E41.23397
G1 X35.933 Y122.562 E41.31804
G1 X35.531 Y121.877 E41.41314
G1 X35.198 Y121.396 E41.48319
G1 X34.609 Y120.401 E41.62164
G1 X34.13 Y119.428 E41.75149
G1 X33.776 Y118.557 E41.86407
G1 X33.47 Y117.64 E41.97982
G1 X32.958 Y115.894 E42.19768
G1 X32.728 Y114.983 E42.31018
G1 X32.517 Y113.801 E42.45395
G1 X32.412 Y112.7 E42.58638
G1 X32.389 Y111.637 E42.71369
G1 X32.428 Y110.755 E42.8194
G1 X32.548 Y109.644 E42.9532
G1 X32.743 Y108.639 E43.07578
G1 X32.959 Y107.774 E43.18253
G1 X33.228 Y106.862 E43.29638
G1 X33.375 Y106.208 E43.37664
G1 X33.441 Y105.483 E43.46381
G1 X33.419 Y104.816 E43.54372
G1 X33.294 Y104.03 E43.63901
G1 X33.192 Y102.925 E43.77189
G1 X33.169 Y101.861 E43.89931
G1 X33.208 Y100.975 E44.0055
G1 X33.317 Y99.96 E44.12774
G1 X33.382 Y99.586 E44.17319
G1 X33.462 Y98.949 E44.25006
G1 X33.464 Y98.238 E44.33519
G1 X33.367 Y97.488 E44.42574
G1 X33.052 Y96.247 E44.57905
G1 X32.861 Y95.171 E44.7099
G1 X32.748 Y94.139 E44.8342
G1 X32.709 Y92.994 E44.97138
G1 X32.752 Y92.019 E45.08824
G1 X32.872 Y90.912 E45.22156
G1 X33.067 Y89.904 E45.3445
G1 X33.274 Y89.086 E45.44553
G1 X33.351 Y88.825 E45.47811
G1 X33.513 Y88.1 E45.56706
G1 X33.573 Y87.413 E45.64963
G1 X33.548 Y86.757 E45.72824
G1 X33.44 Y85.608 E45.86642
G1 X33.417 Y84.541 E45.99421
G1 X33.456 Y83.659 E46.09992
G1 X33.576 Y82.544 E46.2342
G1 X33.761 Y81.571 E46.35279
G1 X33.848 Y80.92 E46.43143
G1 X33.843 Y80.188 E46.51908
G1 X33.749 Y79.505 E46.60163
G1 X33.545 Y78.346 E46.74254
G1 X33.44 Y77.248 E46.87461
G1 X33.417 Y76.181 E47.0024
G1 X33.456 Y75.299 E47.10811
G1 X33.576 Y74.192 E47.24143
G1 X33.771 Y73.184 E47.36436
G1 X34 Y72.292 E47.47463
G1 X34.131 Y71.644 E47.55379
G1 X34.188 Y70.961 E47.63585
G1 X34.137 Y69.22 E47.84441
G1 X34.176 Y68.339 E47.95
G1 X34.289 Y67.322 E48.07252
G1 X34.422 Y66.571 E48.16384
G1 X34.508 Y65.915 E48.24306
G1 X34.504 Y65.245 E48.32328
G1 X34.477 Y64.057 E48.46557
G1 X34.516 Y63.175 E48.57128
G1 X34.625 Y62.159 E48.69363
G1 X34.835 Y61.042 E48.82972
G1 X35.047 Y60.198 E48.93391
G1 X35.546 Y58.5 E49.14582
G1 X35.853 Y57.581 E49.26184
G1 X35.984 Y57.248 E49.30469
G1 X36.206 Y56.598 E49.38693
G1 X36.348 Y55.908 E49.47128
G1 X36.399 Y55.202 E49.55603
G1 X36.4 Y53.221 E49.79323
G1 X36.448 Y52.069 E49.93129
G1 X36.545 Y51.139 E50.04325
G1 X36.771 Y49.945 E50.18875
G1 X36.992 Y49.107 E50.29252
G1 X37.335 Y48.073 E50.42296
G1 X37.78 Y47.013 E50.56061
G1 X38.242 Y46.108 E50.68228
G1 X38.779 Y45.224 E50.80612
G1 X39.45 Y44.277 E50.94509
G1 X40.075 Y43.527 E51.06199
G1 X40.8 Y42.767 E51.18775
G0 F7200 X40.938 Y43.201
G1 F3150 X132.389 Y134.652 E66.67342
G0 F7200 X133.628 Y133.628
G1 F3150 X42.13 Y42.13 E82.16705
G0 F7200 X43.452 Y41.189
G1 F3150 X134.739 Y132.476 E97.62495
G0 F7200 X135.726 Y131.201
G1 F3150 X44.917 Y40.391 E113.00199
G0 F7200 X46.518 Y39.73
G1 F3150 X136.572 Y129.784 E128.2511
G0 F7200 X137.281 Y128.23
G1 F3150 X48.177 Y39.126 E143.33934
G0 F7200 X49.836 Y38.522
G1 F3150 X137.806 Y126.492 E158.23557
G0 F7200 X138.128 Y124.552
G1 F3150 X51.495 Y37.919 E172.90539
G0 F7200 X53.155 Y37.315
G1 F3150 X138.2 Y122.361 E187.30639
G0 F7200 X138.203 Y120.101
G1 F3150 X77.716 Y59.614 E197.54884
G0 F7200 X80.82 Y60.456
G1 F3150 X138.204 Y117.839 E207.26576
G0 F7200 X138.599 Y115.972
G1 F3150 X83.769 Y61.141 E216.55037
G0 F7200 X85.878 Y60.988
G1 F3150 X139.289 Y114.399 E225.59461
G0 F7200 X139.862 Y112.709
G1 F3150 X87.573 Y60.42 E234.44886
G0 F7200 X89.32 Y59.904
G1 F3150 X140.349 Y110.933 E243.08975
G0 F7200 X140.694 Y109.016
G1 F3150 X91.151 Y59.473 E251.47902
G0 F7200 X93.209 Y59.268
G1 F3150 X140.775 Y106.834 E259.53351
G0 F7200 X140.447 Y104.243
G1 F3150 X95.421 Y59.217 E267.15789
G0 F7200 X97.158 Y58.691
G1 F3150 X140.479 Y102.012 E274.49357
G0 F7200 X140.984 Y100.254
G1 F3150 X98.501 Y57.771 E281.68734
G0 F7200 X99.525 Y56.532
G1 F3150 X141.472 Y98.479 E288.79035
G0 F7200 X141.802 Y96.547
G1 F3150 X100.203 Y54.949 E295.83435
G0 F7200 X100.399 Y52.881
G1 F3150 X141.864 Y94.346 E302.85574
G0 F7200 X141.504 Y91.724
G1 F3150 X100.399 Y50.619 E309.81617
G0 F7200 X100.48 Y48.437
G1 F3150 X141.53 Y89.486 E316.7672
G0 F7200 X141.653 Y87.347
G1 F3150 X100.801 Y46.495 E323.68479
G0 F7200 X101.328 Y44.76
G1 F3150 X141.382 Y84.814 E330.46725
G0 F7200 X140.497 Y81.666
G1 F3150 X102.034 Y43.203 E336.98031
G0 F7200 X102.881 Y41.786
G1 F3150 X139.615 Y78.521 E343.20067
G0 F7200 X139.813 Y76.456
G1 F3150 X103.868 Y40.512 E349.28726
G0 F7200 X104.983 Y39.364
G1 F3150 X139.977 Y74.357 E355.21281
G0 F7200 X139.77 Y71.888
G1 F3150 X106.217 Y38.335 E360.89444
G0 F7200 X107.6 Y37.455
G1 F3150 X139.533 Y69.388 E366.30175
G0 F7200 X139.878 Y67.47
G1 F3150 X109.112 Y36.704 E371.51145
G0 F7200 X110.793 Y36.123
G1 F3150 X140.084 Y65.413 E376.47129
G0 F7200 X140.084 Y63.151
G1 F3150 X112.667 Y35.734 E381.1139
G0 F7200 X114.798 Y35.602
G1 F3150 X139.591 Y60.395 E385.31217
G0 F7200 X138.541 Y57.083
G1 F3150 X117.322 Y35.863 E388.90533
G0 F7200 X120.574 Y36.852
G1 F3150 X138.201 Y54.48 E391.89025
G0 F7200 X138.149 Y52.165
G1 F3150 X124.131 Y38.147 E394.26396
G0 F7200 X127.689 Y39.442
G1 F3150 X137.679 Y49.432 E395.95559
G0 F7200 X135.714 Y45.205
G1 F3150 X132.015 Y41.505 E396.58204
G0 F7200 X96.17 Y58.172
G0 X94.977 Y58.412
G0 X84.917 Y60.299
G0 X84.294 Y60.325
G0 X83.072 Y60.146
G0 X78.892 Y59.188
G0 X77.795 Y58.683
G0 X77.262 Y58.299
G0 X76.803 Y57.871
G0 X76.088 Y56.897
G0 X75.805 Y56.301
G0 X75.633 Y55.775
G0 X74.343 Y47.19
G1 F3150 X62.993 Y35.84 E398.50397
G0 F7200 X60.491 Y35.601
G1 F3150 X74.589 Y49.699 E400.89122
G0 F7200 X74.594 Y51.967
G1 F3150 X58.369 Y35.741 E403.63874
G0 F7200 X56.506 Y36.141
G1 F3150 X74.596 Y54.232 E406.70205
G0 F7200 X75.256 Y57.154
G1 F3150 X54.814 Y36.712 E410.16356
G0 F7200 X66.305 Y36.889
G1 F3150 X73.287 Y43.871 E411.34584
G0 F7200 X39.871 Y44.396
G1 F3150 X131.014 Y135.54 E426.77944
G0 F7200 X129.502 Y136.29
G1 F3150 X38.94 Y45.729 E442.11449
G0 F7200 X38.139 Y47.19
G1 F3150 X127.819 Y136.87 E457.30027
G0 F7200 X125.943 Y137.257
G1 F3150 X37.508 Y48.821 E472.27531
G0 F7200 X37.048 Y50.625
G1 F3150 X123.831 Y137.408 E486.97054
G0 F7200 X121.569 Y137.408
G1 F3150 X36.823 Y52.662 E501.32083
G0 F7200 X36.799 Y54.9
G1 F3150 X119.306 Y137.408 E515.29207
G0 F7200 X117.043 Y137.408
G1 F3150 X36.526 Y56.89 E528.92633
G0 F7200 X35.944 Y58.572
G1 F3150 X114.78 Y137.408 E542.27587
G0 F7200 X112.498 Y137.388
G1 F3150 X35.429 Y60.319 E555.32619
G0 F7200 X35.027 Y62.18
G1 F3150 X109.923 Y137.075 E568.00847
G0 F7200 X106.359 Y135.775
G1 F3150 X34.882 Y64.298 E580.11188
G0 F7200 X34.832 Y66.51
G1 F3150 X86.576 Y118.254 E588.87384
G0 F7200 X84.289 Y118.23
G1 F3150 X34.568 Y68.509 E597.29325
G0 F7200 X34.582 Y70.786
G1 F3150 X82.618 Y118.822 E605.42733
G0 F7200 X81.314 Y119.78
G1 F3150 X34.293 Y72.759 E613.38953
G0 F7200 X33.928 Y74.657
G1 F3150 X80.182 Y120.912 E621.22194
G0 F7200 X79.051 Y122.043
G1 F3150 X33.831 Y76.823 E628.87918
G0 F7200 X34.135 Y79.39
G1 F3150 X77.919 Y123.174 E636.29325
G0 F7200 X76.788 Y124.305
G1 F3150 X34.15 Y81.667 E643.51327
G0 F7200 X33.86 Y83.64
G1 F3150 X75.655 Y125.436 E650.59063
G0 F7200 X74.524 Y126.567
G1 F3150 X33.87 Y85.913 E657.47469
G0 F7200 X33.898 Y88.204
G1 F3150 X73.393 Y127.699 E664.1625
G0 F7200 X72.261 Y128.829
G1 F3150 X33.452 Y90.02 E670.73414
G0 F7200 X33.158 Y91.989
G1 F3150 X71.129 Y129.961 E677.16396
G0 F7200 X69.997 Y131.091
G1 F3150 X33.163 Y94.257 E683.40118
G0 F7200 X33.659 Y97.016
G1 F3150 X68.866 Y132.223 E689.36288
G0 F7200 X67.731 Y133.35
G1 F3150 X33.805 Y99.424 E695.10767
G0 F7200 X33.585 Y101.468
G1 F3150 X66.519 Y134.401 E700.6844
G0 F7200 X65.183 Y135.328
G1 F3150 X33.676 Y103.821 E706.01957
