;FLAVOR:Marlin
;TIME:5626
;Filament used: 11.2025m
;Layer height: 0.3
;MINX:55.3
;MINY:32.675
;MINZ:0.3
;MAXX:214.7
;MAXY:187.325
;MAXZ:3
;TARGET_MACHINE.NAME:Unknown
;Generated with Cura_SteamEngine 5.10.0
M104 S210
M105
M109 S210
G28 ;Home
G1 Z15.0 F6000 ;Move the platform down 15mm
;Prime the extruder
G92 E0
G1 F200 E3
G92 E0
M82 ;absolute extrusion mode
G92 E0
G92 E0
G1 F1500 E-6.5
;LAYER_COUNT:10
;LAYER:0
M107
G0 F4500 X55.683 Y34.384 Z0.3
;TYPE:SKIRT
G1 F1500 E0
G1 F3000 X55.954 Y33.957 E0.02523
G1 X56.289 Y33.579 E0.05043
G1 X56.68 Y33.258 E0.07567
G1 X57.117 Y33.003 E0.10091
G1 X57.588 Y32.819 E0.12614
G1 X58.082 Y32.713 E0.15135
G1 X58.527 Y32.676 E0.17362
G1 X210.839 Y32.675 E7.7725
G1 X211.537 Y32.685 E7.80733
G1 X212.04 Y32.732 E7.83253
G1 X212.53 Y32.858 E7.85777
G1 X212.994 Y33.06 E7.88302
G1 X213.42 Y33.332 E7.90824
G1 X213.798 Y33.667 E7.93343
G1 X214.118 Y34.058 E7.95864
G1 X214.373 Y34.495 E7.98388
G1 X214.556 Y34.966 E8.00909
G1 X214.663 Y35.46 E8.03431
G1 X214.699 Y36.115 E8.06704
G1 X214.7 Y183.429 E15.41656
G1 X214.691 Y184.156 E15.45284
G1 X214.645 Y184.659 E15.47804
G1 X214.52 Y185.149 E15.50327
G1 X214.319 Y185.613 E15.52849
G1 X214.048 Y186.04 E15.55372
G1 X213.713 Y186.419 E15.57896
G1 X213.323 Y186.74 E15.60416
G1 X212.887 Y186.996 E15.62939
G1 X212.416 Y187.179 E15.6546
G1 X211.922 Y187.287 E15.67982
G1 X211.26 Y187.324 E15.7129
G1 X59.166 Y187.325 E23.3009
G1 X58.468 Y187.316 E23.33573
G1 X57.964 Y187.269 E23.36098
G1 X57.474 Y187.144 E23.38621
G1 X57.01 Y186.943 E23.41144
G1 X56.584 Y186.672 E23.43663
G1 X56.205 Y186.337 E23.46186
G1 X55.884 Y185.946 E23.4871
G1 X55.629 Y185.51 E23.5123
G1 X55.445 Y185.039 E23.53753
G1 X55.338 Y184.545 E23.56275
G1 X55.301 Y184.092 E23.58542
G1 X55.3 Y36.506 E30.94852
G1 X55.309 Y35.841 E30.9817
G1 X55.356 Y35.337 E31.00695
G1 X55.482 Y34.848 E31.03215
G1 X55.683 Y34.384 E31.05737
G1 F1500 E24.55737
;MESH:test_plate_arduino_mega2.stl
G0 F4500 X57.835 Y36.299
G0 X58.924 Y36.299
G0 X63.062 Y79.813
G0 X74.618 Y84.693
G0 X75.374 Y85.296
G0 X75.843 Y86.152
G0 X75.924 Y87.245
G0 X75.46 Y88.322
G0 X74.378 Y89.647
G0 X74.264 Y89.355
;TYPE:WALL-INNER
G1 F1500 E31.05737
G1 F3000 X73.698 Y89.472 E31.08621
G1 X73.026 Y89.436 E31.11978
G1 X72.307 Y89.187 E31.15774
G1 X71.882 Y88.91 E31.18305
G1 X71.51 Y88.549 E31.20891
G1 X71.191 Y88.071 E31.23758
G1 X71.003 Y87.605 E31.26265
G1 X70.929 Y87.28 E31.27928
G1 X70.9 Y86.776 E31.30447
G1 X70.961 Y86.31 E31.32792
G1 X71.077 Y85.926 E31.34793
G1 X71.347 Y85.406 E31.37716
G1 X71.858 Y84.849 E31.41487
G1 X72.247 Y84.598 E31.43797
G1 X72.752 Y84.388 E31.46526
G1 X73.417 Y84.272 E31.49893
G1 X74.188 Y84.361 E31.53765
G1 X74.744 Y84.591 E31.56767
G1 X75.16 Y84.878 E31.59289
G1 X75.529 Y85.25 E31.61903
G1 X75.804 Y85.675 E31.64428
G1 X75.984 Y86.106 E31.66759
G1 X76.095 Y86.725 E31.69896
G1 X76.07 Y87.258 E31.72558
G1 X75.897 Y87.884 E31.75798
G1 X75.502 Y88.53 E31.79576
G1 X75.122 Y88.906 E31.82243
G1 X74.72 Y89.168 E31.84637
G1 X74.264 Y89.355 E31.87096
G0 F4500 X74.378 Y89.647
G0 X121.708 Y88.471
G0 X122.229 Y88.119
G1 F3000 X121.696 Y88.215 E31.89798
G1 X121.047 Y88.187 E31.93039
G1 X120.338 Y87.955 E31.9676
G1 X119.882 Y87.658 E31.99475
G1 X119.509 Y87.296 E32.02069
G1 X119.25 Y86.926 E32.04322
G1 X119.016 Y86.404 E32.07176
G1 X118.926 Y86.012 E32.09182
G1 X118.9 Y85.534 E32.11571
G1 X118.94 Y85.161 E32.13442
G1 X119.077 Y84.678 E32.15947
G1 X119.349 Y84.151 E32.18906
G1 X119.857 Y83.602 E32.22637
G1 X120.242 Y83.352 E32.24928
G1 X120.752 Y83.137 E32.27689
G1 X121.417 Y83.02 E32.31058
G1 X122.19 Y83.109 E32.34939
G1 X122.74 Y83.341 E32.37918
G1 X123.16 Y83.626 E32.4045
G1 X123.529 Y83.998 E32.43064
G1 X123.805 Y84.425 E32.45601
G1 X123.999 Y84.922 E32.48262
G1 X124.096 Y85.55 E32.51433
G1 X124.068 Y86.02 E32.53782
G1 X123.9 Y86.635 E32.56962
G1 X123.491 Y87.296 E32.6084
G1 X123.145 Y87.635 E32.63257
G1 X122.705 Y87.929 E32.65897
G1 X122.229 Y88.119 E32.68454
G0 F4500 X122.343 Y88.41
G0 X134.335 Y80.285
G0 X134.335 Y79.871
G1 F3000 X134.032 Y79.972 E32.70047
G1 X63.421 Y79.972 E36.22327
G1 X63.14 Y79.852 E36.23851
G1 X63.019 Y79.732 E36.24702
G1 X62.932 Y79.567 E36.25632
G1 X62.9 Y79.372 E36.26618
G1 X62.9 Y40.76 E38.19254
G1 X62.984 Y40.564 E38.20318
G1 X63.192 Y40.356 E38.21786
G1 X63.5 Y40.272 E38.23378
G1 X134 Y40.272 E41.75104
G1 X134.195 Y40.304 E41.7609
G1 X134.36 Y40.392 E41.77023
G1 X134.48 Y40.512 E41.7787
G1 X134.6 Y40.793 E41.79394
G1 X134.6 Y79.444 E43.72225
G1 X134.521 Y79.671 E43.73424
G1 X134.335 Y79.871 E43.74787
G0 F4500 X134.335 Y80.285
G0 X142.207 Y58.695
G0 X142.153 Y58.387
G1 F3000 X141.698 Y58.467 E43.77091
G1 X141.046 Y58.435 E43.80348
G1 X140.323 Y58.202 E43.84138
G1 X139.837 Y57.871 E43.87071
G1 X139.474 Y57.502 E43.89654
G1 X139.191 Y57.071 E43.92226
G1 X139.003 Y56.605 E43.94733
G1 X138.929 Y56.28 E43.96396
G1 X138.9 Y55.776 E43.98915
G1 X138.961 Y55.31 E44.01259
G1 X139.077 Y54.926 E44.03261
G1 X139.349 Y54.403 E44.06202
G1 X139.855 Y53.851 E44.09938
G1 X140.247 Y53.597 E44.12268
G1 X140.682 Y53.405 E44.1464
G1 X141.425 Y53.27 E44.18408
G1 X142.158 Y53.36 E44.22092
G1 X142.668 Y53.549 E44.24806
G1 X143.12 Y53.843 E44.27496
G1 X143.478 Y54.185 E44.29966
G1 X143.784 Y54.633 E44.32673
G1 X143.982 Y55.098 E44.35194
G1 X144.095 Y55.722 E44.38358
G1 X144.07 Y56.259 E44.4104
G1 X143.889 Y56.91 E44.44411
G1 X143.502 Y57.531 E44.48061
G1 X143.122 Y57.906 E44.50725
G1 X142.64 Y58.207 E44.5356
G1 X142.153 Y58.387 E44.5615
G0 F4500 X142.207 Y58.695
G0 X191.708 Y58.721
G0 X192.231 Y58.367
G1 F3000 X191.697 Y58.467 E44.58861
G1 X191.046 Y58.435 E44.62113
G1 X190.398 Y58.226 E44.65509
G1 X189.883 Y57.911 E44.68521
G1 X189.51 Y57.549 E44.71115
G1 X189.217 Y57.125 E44.73686
G1 X189.016 Y56.653 E44.76245
G1 X188.925 Y56.257 E44.78272
G1 X188.901 Y55.73 E44.80904
G1 X188.961 Y55.31 E44.83021
G1 X189.092 Y54.882 E44.85254
G1 X189.374 Y54.378 E44.88135
G1 X189.872 Y53.843 E44.91782
G1 X190.201 Y53.621 E44.93762
G1 X190.702 Y53.399 E44.96496
G1 X191.446 Y53.27 E45.00263
G1 X192.176 Y53.36 E45.03933
G1 X192.707 Y53.569 E45.0678
G1 X193.12 Y53.843 E45.09252
G1 X193.478 Y54.185 E45.11722
G1 X193.779 Y54.623 E45.14374
G1 X193.989 Y55.11 E45.1702
G1 X194.093 Y55.707 E45.20043
G1 X194.068 Y56.272 E45.22865
G1 X193.897 Y56.892 E45.26073
G1 X193.486 Y57.55 E45.29944
G1 X193.107 Y57.918 E45.32579
G1 X192.715 Y58.171 E45.34907
G1 X192.231 Y58.367 E45.37512
G0 F4500 X192.345 Y58.66
G0 X184.838 Y136.713
G0 X184.329 Y136.375
G1 F3000 X184.039 Y136.471 E45.39036
G1 X148.959 Y136.471 E47.14051
G1 X148.7 Y136.393 E47.15401
G1 X148.59 Y136.311 E47.16085
G1 X148.449 Y136.112 E47.17302
G1 X148.4 Y135.956 E47.18118
G1 X148.403 Y60.808 E50.93033
G1 X148.43 Y60.682 E50.93675
G1 X148.553 Y60.47 E50.94898
G1 X148.683 Y60.362 E50.95741
G1 X148.925 Y60.276 E50.97023
G1 X184.076 Y60.276 E52.72392
G1 X184.269 Y60.335 E52.73399
G1 X184.45 Y60.474 E52.74537
G1 X184.536 Y60.6 E52.75298
G1 X184.597 Y60.81 E52.76389
G1 X184.601 Y135.98 E56.51414
G1 X184.513 Y136.185 E56.52527
G1 X184.329 Y136.375 E56.53846
G0 F4500 X184.329 Y136.785
G0 X189.319 Y142.714
G0 X190.217 Y143.427
G0 X190.995 Y143.688
G0 X192.207 Y143.695
G0 X192.153 Y143.387
G1 F3000 X191.623 Y143.468 E56.56521
G1 X191.04 Y143.44 E56.59433
G1 X190.32 Y143.2 E56.6322
G1 X189.837 Y142.871 E56.66135
G1 X189.474 Y142.502 E56.68718
G1 X189.191 Y142.071 E56.7129
G1 X189.007 Y141.621 E56.73716
G1 X188.92 Y141.206 E56.75831
G1 X188.904 Y140.702 E56.78347
G1 X188.948 Y140.362 E56.80057
G1 X189.098 Y139.868 E56.82633
G1 X189.374 Y139.378 E56.85439
G1 X189.858 Y138.855 E56.88994
G1 X190.247 Y138.597 E56.91323
G1 X190.682 Y138.405 E56.93695
G1 X191.425 Y138.27 E56.97462
G1 X192.163 Y138.361 E57.01172
G1 X192.678 Y138.553 E57.03914
G1 X193.104 Y138.831 E57.06452
G1 X193.448 Y139.154 E57.08806
G1 X193.779 Y139.623 E57.1167
G1 X193.989 Y140.11 E57.14316
G1 X194.093 Y140.707 E57.17339
G1 X194.066 Y141.281 E57.20206
G1 X193.889 Y141.91 E57.23466
G1 X193.544 Y142.471 E57.26752
G1 X193.17 Y142.864 E57.29459
G1 X192.695 Y143.187 E57.32324
G1 X192.153 Y143.387 E57.35207
G0 F4500 X192.207 Y143.695
G0 X202.338 Y150.037
G0 X202.338 Y179.963
G0 X201.86 Y179.605
G1 F3000 X201.695 Y179.692 E57.36137
G1 X201.5 Y179.724 E57.37123
G1 X131.5 Y179.724 E60.86354
G1 X131.305 Y179.692 E60.8734
G1 X131.14 Y179.604 E60.88273
G1 X131.02 Y179.484 E60.8912
G1 X130.9 Y179.203 E60.90644
G1 X130.902 Y150.817 E62.32263
G1 X130.958 Y150.612 E62.33323
G1 X131.071 Y150.451 E62.34304
G1 X131.312 Y150.301 E62.3572
G1 X131.455 Y150.273 E62.36447
G1 X201.535 Y150.272 E65.86078
G1 X201.805 Y150.355 E65.87487
G1 X202.033 Y150.594 E65.89135
G1 X202.1 Y150.795 E65.90192
G1 X202.1 Y179.203 E67.3192
G1 X201.98 Y179.484 E67.33445
G1 X201.86 Y179.605 E67.34295
G0 F4500 X201.86 Y180.035
G0 X210.62 Y183.245
G0 X210.9 Y183.524
G1 F3000 X210.9 Y36.472 E74.6794
G1 X59.1 Y36.472 E82.25274
G1 X59.1 Y183.524 E89.58919
G1 X210.9 Y183.524 E97.16252
G0 F4500 X210.62 Y183.245
G0 X202.338 Y150.037
G0 X142.207 Y143.695
G0 X142.153 Y143.387
G1 F3000 X141.623 Y143.468 E97.18927
G1 X141.04 Y143.44 E97.21839
G1 X140.32 Y143.2 E97.25625
G1 X139.837 Y142.871 E97.28541
G1 X139.474 Y142.502 E97.31123
G1 X139.191 Y142.071 E97.33696
G1 X139.003 Y141.605 E97.36203
G1 X138.923 Y141.245 E97.38043
G1 X138.9 Y140.748 E97.40525
G1 X138.945 Y140.376 E97.42394
G1 X139.087 Y139.896 E97.44892
G1 X139.379 Y139.372 E97.47884
G1 X139.846 Y138.865 E97.51323
G1 X140.187 Y138.629 E97.53392
G1 X140.71 Y138.397 E97.56247
G1 X141.421 Y138.271 E97.59849
G1 X142.178 Y138.364 E97.63654
G1 X142.744 Y138.591 E97.66697
G1 X143.16 Y138.878 E97.69218
G1 X143.49 Y139.199 E97.71515
G1 X143.779 Y139.624 E97.74079
G1 X143.999 Y140.17 E97.77016
G1 X144.096 Y140.735 E97.79876
G1 X144.055 Y141.328 E97.82841
G1 X143.889 Y141.91 E97.85861
G1 X143.544 Y142.471 E97.89147
G1 X143.17 Y142.864 E97.91853
G1 X142.695 Y143.187 E97.94719
G1 X142.153 Y143.387 E97.97601
G0 F4500 X142.207 Y143.695
G0 X114.91 Y157.786
G0 X114.436 Y157.786
G1 F3000 X114.218 Y157.932 E97.9891
G1 X114.082 Y157.967 E97.99611
G1 X79.959 Y157.971 E99.69851
G1 X79.7 Y157.893 E99.71201
G1 X79.59 Y157.811 E99.71885
G1 X79.449 Y157.612 E99.73102
G1 X79.4 Y157.456 E99.73918
G1 X79.4 Y91.801 E103.01472
G1 X79.509 Y91.527 E103.02943
G1 X79.637 Y91.393 E103.03868
G1 X79.933 Y91.275 E103.05457
G1 X114.043 Y91.273 E104.75633
G1 X114.231 Y91.317 E104.76596
G1 X114.427 Y91.449 E104.77775
G1 X114.531 Y91.591 E104.78653
G1 X114.598 Y91.815 E104.7982
G1 X114.598 Y157.431 E108.07179
G1 X114.568 Y157.569 E108.07884
G1 X114.436 Y157.786 E108.09151
G0 F4500 X114.91 Y157.786
G0 X118.997 Y169.496
G0 X119.727 Y170.36
G0 X120.995 Y170.938
G0 X122.344 Y170.91
G0 X122.231 Y170.619
G1 F3000 X121.692 Y170.715 E108.11882
G1 X121.021 Y170.687 E108.15233
G1 X120.324 Y170.444 E108.18915
G1 X119.88 Y170.157 E108.21553
G1 X119.474 Y169.75 E108.24421
G1 X119.208 Y169.356 E108.26793
G1 X119.011 Y168.888 E108.29326
G1 X118.923 Y168.493 E108.31345
G1 X118.904 Y167.949 E108.34061
G1 X118.948 Y167.613 E108.35751
G1 X119.097 Y167.122 E108.38311
G1 X119.354 Y166.652 E108.40984
G1 X119.868 Y166.098 E108.44754
G1 X120.2 Y165.873 E108.46755
G1 X120.679 Y165.654 E108.49383
G1 X121.435 Y165.516 E108.53217
G1 X122.181 Y165.613 E108.5697
G1 X122.686 Y165.809 E108.59672
G1 X123.16 Y166.126 E108.62517
G1 X123.529 Y166.498 E108.65131
G1 X123.805 Y166.925 E108.67668
G1 X123.999 Y167.422 E108.7033
G1 X124.096 Y168.05 E108.735
G1 X124.068 Y168.524 E108.75869
G1 X123.901 Y169.138 E108.79043
G1 X123.501 Y169.784 E108.82834
G1 X123.167 Y170.115 E108.8518
G1 X122.751 Y170.402 E108.87702
G1 X122.231 Y170.619 E108.90513
G0 F4500 X122.344 Y170.91
G0 X121.506 Y170.961
G0 X73.264 Y165.184
G0 X73.21 Y164.873
G1 F3000 X72.683 Y164.971 E108.93187
G1 X72.028 Y164.937 E108.96459
G1 X71.307 Y164.687 E109.00266
G1 X70.882 Y164.41 E109.02797
G1 X70.51 Y164.049 E109.05384
G1 X70.191 Y163.571 E109.08251
G1 X70.003 Y163.105 E109.10758
G1 X69.929 Y162.78 E109.1242
G1 X69.9 Y162.276 E109.14939
G1 X69.961 Y161.81 E109.17284
G1 X70.099 Y161.366 E109.19603
G1 X70.357 Y160.9 E109.22261
G1 X70.857 Y160.356 E109.25947
G1 X71.203 Y160.12 E109.28037
G1 X71.71 Y159.897 E109.308
G1 X72.421 Y159.771 E109.34402
G1 X73.178 Y159.864 E109.38207
G1 X73.744 Y160.091 E109.4125
G1 X74.16 Y160.378 E109.43771
G1 X74.49 Y160.699 E109.46068
G1 X74.779 Y161.124 E109.48632
G1 X74.999 Y161.67 E109.51569
G1 X75.096 Y162.235 E109.54429
G1 X75.055 Y162.828 E109.57395
G1 X74.896 Y163.394 E109.60328
G1 X74.523 Y164.003 E109.63891
G1 X74.109 Y164.417 E109.66812
G1 X73.713 Y164.673 E109.69164
G1 X73.21 Y164.873 E109.71865
G0 F4500 X73.1 Y164.489
;TYPE:WALL-OUTER
G1 F3000 X72.674 Y164.567 E109.74025
G1 X72.124 Y164.543 E109.76772
G1 X71.509 Y164.341 E109.80001
G1 X71.131 Y164.097 E109.82246
G1 X70.815 Y163.79 E109.84444
G1 X70.568 Y163.433 E109.8661
G1 X70.403 Y163.047 E109.88704
G1 X70.323 Y162.711 E109.90427
G1 X70.3 Y162.276 E109.92601
G1 X70.344 Y161.926 E109.94361
G1 X70.467 Y161.522 E109.96467
G1 X70.681 Y161.134 E109.98678
G1 X71.117 Y160.66 E110.01891
G1 X71.398 Y160.469 E110.03586
G1 X71.807 Y160.285 E110.05824
G1 X72.435 Y160.176 E110.09004
G1 X73.084 Y160.253 E110.12264
G1 X73.523 Y160.425 E110.14617
G1 X73.869 Y160.655 E110.16689
G1 X74.185 Y160.958 E110.18874
G1 X74.428 Y161.316 E110.21032
G1 X74.6 Y161.719 E110.23218
G1 X74.696 Y162.257 E110.25945
G1 X74.674 Y162.702 E110.28168
G1 X74.531 Y163.222 E110.30858
G1 X74.196 Y163.772 E110.34071
G1 X73.869 Y164.097 E110.36371
G1 X73.494 Y164.335 E110.38587
G1 X73.1 Y164.489 E110.40698
G0 F4500 X72.904 Y164.525
G0 X72.958 Y164.833
G0 X114.438 Y157.813
G0 X114.2 Y157.392
G1 F3000 X114.155 Y157.5 E110.41281
G1 X114.028 Y157.571 E110.42007
G1 X79.936 Y157.57 E112.12093
G1 X79.803 Y157.412 E112.13123
G1 X79.802 Y91.839 E115.40268
G1 X79.879 Y91.712 E115.41009
G1 X79.977 Y91.673 E115.41535
G1 X114.047 Y91.672 E117.11511
G1 X114.143 Y91.731 E117.12074
G1 X114.2 Y91.853 E117.12745
G1 X114.2 Y157.392 E120.39721
G0 F4500 X114.155 Y157.5
G0 X114.083 Y157.54
G0 X114.083 Y157.885
G0 X119.35 Y169.303
G0 X119.977 Y170.046
G0 X121.069 Y170.541
G0 X122.22 Y170.528
G0 X122.107 Y170.239
G1 F3000 X121.687 Y170.314 E120.41849
G1 X121.117 Y170.294 E120.44695
G1 X120.523 Y170.094 E120.47822
G1 X120.13 Y169.845 E120.50143
G1 X119.803 Y169.522 E120.52436
G1 X119.572 Y169.187 E120.54466
G1 X119.399 Y168.788 E120.56636
G1 X119.321 Y168.447 E120.58381
G1 X119.301 Y167.999 E120.60618
G1 X119.344 Y167.678 E120.62234
G1 X119.476 Y167.256 E120.6444
G1 X119.68 Y166.884 E120.66557
G1 X120.121 Y166.408 E120.69794
G1 X120.397 Y166.221 E120.71457
G1 X120.797 Y166.036 E120.73656
G1 X121.465 Y165.924 E120.77035
G1 X122.085 Y166.001 E120.80152
G1 X122.504 Y166.165 E120.82397
G1 X122.883 Y166.415 E120.84662
G1 X123.171 Y166.691 E120.86652
G1 X123.437 Y167.081 E120.89007
G1 X123.593 Y167.449 E120.91001
G1 X123.693 Y167.984 E120.93717
G1 X123.674 Y168.455 E120.96069
G1 X123.529 Y168.977 E120.98771
G1 X123.189 Y169.534 E121.02027
G1 X122.859 Y169.852 E121.04314
G1 X122.531 Y170.068 E121.06273
G1 X122.107 Y170.239 E121.08554
G0 F4500 X121.911 Y170.274
G0 X121.965 Y170.581
G0 X123.034 Y170.039
G0 X131.066 Y158.318
G0 X131.062 Y150.437
G0 X142.231 Y143.274
G0 X142.118 Y142.983
G1 F3000 X141.642 Y143.068 E121.10966
G1 X141.113 Y143.043 E121.13608
G1 X140.478 Y142.824 E121.16959
G1 X140.116 Y142.584 E121.19126
G1 X139.803 Y142.274 E121.21324
G1 X139.559 Y141.915 E121.2349
G1 X139.403 Y141.547 E121.25484
G1 X139.323 Y141.214 E121.27192
G1 X139.3 Y140.758 E121.2947
G1 X139.341 Y140.437 E121.31085
G1 X139.467 Y140.022 E121.33249
G1 X139.681 Y139.634 E121.35459
G1 X140.107 Y139.169 E121.38605
G1 X140.402 Y138.967 E121.40389
G1 X140.794 Y138.789 E121.42537
G1 X141.435 Y138.676 E121.45784
G1 X142.084 Y138.753 E121.49045
G1 X142.523 Y138.925 E121.51397
G1 X142.869 Y139.155 E121.5347
G1 X143.185 Y139.458 E121.55654
G1 X143.428 Y139.816 E121.57813
G1 X143.6 Y140.219 E121.59999
G1 X143.696 Y140.757 E121.62725
G1 X143.674 Y141.202 E121.64948
G1 X143.528 Y141.727 E121.67667
G1 X143.173 Y142.299 E121.71025
