;FLAVOR:Marlin
;TIME:8091
;Filament used: 13.09m
;Layer height: 0.3
;MINX:68.046
;MINY:48.55
;MINZ:0.3
;MAXX:188.7
;MAXY:167.9
;MAXZ:68.1
;TARGET_MACHINE.NAME:Unknown
;Generated with Cura_SteamEngine 5.10.0
M104 S205
M105
M109 S205
G28 ;Home
G1 Z15.0 F6000 ;Move the platform down 15mm
;Prime the extruder
G92 E0
G1 F200 E3
G92 E0
M82 ;absolute extrusion mode
G92 E0
G92 E0
G1 F1500 E-6.5
;LAYER_COUNT:227
;LAYER:0
M107
G0 F3600 X81.689 Y50.25 Z0.3
;TYPE:SKIRT
G1 F1500 E0
G1 F2400 X81.962 Y49.825 E0.02394
G1 X82.298 Y49.447 E0.04791
G1 X82.69 Y49.128 E0.07186
G1 X83.127 Y48.874 E0.09582
G1 X83.599 Y48.692 E0.1198
G1 X84.093 Y48.586 E0.14374
G1 X84.74 Y48.551 E0.17445
G1 X184.839 Y48.55 E4.91871
G1 X185.537 Y48.56 E4.9518
G1 X186.04 Y48.607 E4.97574
G1 X186.53 Y48.733 E4.99972
G1 X186.994 Y48.935 E5.02371
G1 X187.42 Y49.207 E5.04766
G1 X187.798 Y49.542 E5.0716
G1 X188.118 Y49.933 E5.09555
G1 X188.373 Y50.37 E5.11953
G1 X188.556 Y50.841 E5.14348
G1 X188.663 Y51.335 E5.16744
G1 X188.699 Y51.99 E5.19853
G1 X188.7 Y151.804 E9.92928
G1 X188.691 Y152.531 E9.96374
G1 X188.645 Y153.034 E9.98768
G1 X188.52 Y153.524 E10.01165
G1 X188.319 Y153.988 E10.03561
G1 X188.048 Y154.415 E10.05958
G1 X187.713 Y154.794 E10.08356
G1 X187.323 Y155.115 E10.1075
G1 X186.887 Y155.371 E10.13146
G1 X186.416 Y155.554 E10.15541
G1 X185.922 Y155.662 E10.17938
G1 X185.28 Y155.699 E10.20985
G1 X85.158 Y155.701 E14.95521
G1 X84.455 Y155.69 E14.98853
G1 X83.952 Y155.642 E15.01248
G1 X83.462 Y155.515 E15.03647
G1 X82.999 Y155.313 E15.06041
G1 X82.573 Y155.041 E15.08437
G1 X82.195 Y154.705 E15.10834
G1 X81.884 Y154.326 E15.13157
G1 X80.465 Y152.3 E15.24881
G1 X78.832 Y150.095 E15.37885
G1 X77.133 Y147.931 E15.50925
G1 X75.394 Y145.842 E15.63808
G1 X73.596 Y143.803 E15.76692
G1 X71.718 Y141.789 E15.89744
G1 X69.722 Y139.75 E16.03267
G1 X69.398 Y139.362 E16.05663
G1 X69.14 Y138.927 E16.0806
G1 X68.956 Y138.469 E16.104
G1 X68.779 Y137.902 E16.13215
G1 X68.363 Y136.479 E16.20242
G1 X68.159 Y135.741 E16.23871
G1 X68.063 Y135.244 E16.2627
G1 X68.046 Y134.739 E16.28665
G1 X68.159 Y134.033 E16.32053
G1 X69.205 Y130.257 E16.50624
G1 X69.851 Y127.632 E16.63436
G1 X70.432 Y124.944 E16.76471
G1 X70.935 Y122.252 E16.8945
G1 X71.361 Y119.552 E17.02405
G1 X71.711 Y116.832 E17.15403
G1 X71.983 Y114.121 E17.28317
G1 X72.179 Y111.377 E17.41355
G1 X72.297 Y108.659 E17.5425
G1 X72.339 Y105.887 E17.67389
G1 X72.327 Y104.255 E17.75124
G1 X72.36 Y103.387 E17.79241
G1 X72.42 Y102.493 E17.83488
G1 X72.52 Y101.928 E17.86208
G1 X72.778 Y100.905 E17.91208
G1 X73.109 Y99.729 E17.96998
G1 X73.498 Y98.79 E18.01816
G1 X73.972 Y97.687 E18.07506
G1 X74.989 Y95.121 E18.20588
G1 X75.929 Y92.537 E18.3362
G1 X76.79 Y89.943 E18.46574
G1 X77.573 Y87.34 E18.59457
G1 X78.292 Y84.685 E18.72494
G1 X78.939 Y81.985 E18.85653
G1 X79.493 Y79.355 E18.98392
G1 X79.987 Y76.625 E19.11541
G1 X80.394 Y73.957 E19.24332
G1 X80.73 Y71.231 E19.3735
G1 X80.988 Y68.493 E19.50384
G1 X81.168 Y65.775 E19.63295
G1 X81.273 Y63.025 E19.76338
G1 X81.3 Y60.702 E19.87349
G1 X81.3 Y52.371 E20.26834
G1 X81.311 Y51.706 E20.29986
G1 X81.36 Y51.203 E20.32382
G1 X81.487 Y50.713 E20.34781
G1 X81.689 Y50.25 E20.37175
G1 F1500 E13.87175
G0 F3600 X77.509 Y100.666
G1 F1500 E20.37175
G1 F2400 X79.238 Y100.144 E20.45735
G1 X80.967 Y100.666 E20.54295
G1 X82.228 Y102.108 E20.63374
G1 X82.716 Y103.917 E20.72255
G1 X82.702 Y103.968 E20.72505
G1 X82.703 Y104.079 E20.73031
G1 X82.75 Y104.239 E20.73822
G1 X82.261 Y105.99 E20.82438
G1 X80.992 Y107.259 E20.90944
G1 X79.239 Y107.749 E20.99571
G1 X77.556 Y107.257 E21.07882
G1 X76.217 Y105.918 E21.16857
G1 X75.726 Y104.237 E21.25157
G1 X75.773 Y104.076 E21.25952
G1 X75.773 Y103.963 E21.26487
G1 X75.76 Y103.917 E21.26714
G1 X76.248 Y102.108 E21.35594
G1 X77.509 Y100.666 E21.44673
G0 F3600 X77.734 Y101.016
G1 F2400 X79.238 Y100.562 E21.52119
G1 X80.742 Y101.016 E21.59565
G1 X81.865 Y102.301 E21.67654
G1 X82.309 Y103.944 E21.7572
G1 X82.297 Y104.077 E21.76353
G1 X82.32 Y104.193 E21.76913
G1 X82.334 Y104.242 E21.77155
G1 X81.904 Y105.781 E21.84729
G1 X80.783 Y106.902 E21.92242
G1 X79.242 Y107.333 E21.99826
G1 X77.767 Y106.902 E22.07109
G1 X76.572 Y105.707 E22.15119
G1 X76.142 Y104.236 E22.22383
G1 X76.156 Y104.189 E22.22615
G1 X76.179 Y103.972 E22.2365
G1 X76.171 Y103.928 E22.23862
G1 X76.611 Y102.301 E22.3185
G1 X77.734 Y101.016 E22.39938
G0 F3600 X77.959 Y101.366
G1 F2400 X79.238 Y100.979 E22.46272
G1 X80.517 Y101.366 E22.52605
G1 X81.503 Y102.495 E22.59709
G1 X81.903 Y103.972 E22.66962
G1 X81.895 Y104.031 E22.67244
G1 X81.924 Y104.224 E22.68169
G1 X81.548 Y105.571 E22.74797
G1 X80.573 Y106.546 E22.81332
G1 X79.245 Y106.917 E22.87868
G1 X77.978 Y106.547 E22.94123
G1 X76.928 Y105.497 E23.01161
G1 X76.553 Y104.215 E23.07492
G1 X76.581 Y104.023 E23.08412
G1 X76.574 Y103.971 E23.0866
G1 X76.973 Y102.495 E23.15907
G1 X77.959 Y101.366 E23.23011
G1 F1500 E16.73011
G0 F3600 X76.707 Y129.616
G1 F1500 E23.23011
G1 F2400 X79.338 Y130.354 E23.35963
G1 X81.237 Y132.359 E23.49051
G1 X81.975 Y134.886 E23.61528
G1 X81.239 Y137.517 E23.74477
G1 X79.339 Y139.417 E23.87212
G1 X76.708 Y140.153 E24.00161
G1 X74.183 Y139.415 E24.12629
G1 X72.177 Y137.409 E24.26075
G1 X71.439 Y134.885 E24.38538
G1 X72.177 Y132.359 E24.51011
G1 X74.076 Y130.354 E24.64099
G1 X76.707 Y129.616 E24.7705
G0 F3600 X76.707 Y130.031
G1 F2400 X79.123 Y130.708 E24.88942
G1 X80.881 Y132.565 E25.01062
G1 X81.559 Y134.889 E25.12536
G1 X80.882 Y137.308 E25.24442
G1 X79.13 Y139.06 E25.36185
G1 X76.711 Y139.737 E25.4809
G1 X74.394 Y139.06 E25.59531
G1 X72.532 Y137.198 E25.72012
G1 X71.856 Y134.885 E25.83433
G1 X72.533 Y132.565 E25.94887
G1 X74.291 Y130.708 E26.07007
G1 X76.707 Y130.031 E26.18899
G0 F3600 X76.707 Y130.447
G1 F2400 X78.909 Y131.064 E26.29737
G1 X80.523 Y132.769 E26.40865
G1 X81.143 Y134.892 E26.51347
G1 X80.526 Y137.098 E26.62204
G1 X78.92 Y138.704 E26.72969
G1 X76.714 Y139.321 E26.83825
G1 X74.605 Y138.705 E26.94239
G1 X72.888 Y136.988 E27.05747
G1 X72.273 Y134.884 E27.16137
G1 X72.891 Y132.769 E27.2658
G1 X74.505 Y131.064 E27.37708
G1 X76.707 Y130.447 E27.48546
G1 F1500 E20.98546
G0 F3600 X165.685 Y136.86
G1 F1500 E27.48546
G1 F2400 X166.272 Y134.707 E27.59123
G1 X167.865 Y133.022 E27.70113
G1 X170.111 Y132.436 E27.81114
G1 X172.383 Y133.114 E27.92352
G1 X172.468 Y133.204 E27.92939
G1 X172.562 Y133.26 E27.93457
G1 X172.586 Y133.266 E27.93574
G1 X174.196 Y134.967 E28.04675
G1 X174.821 Y137.109 E28.15251
G1 X174.197 Y139.338 E28.26221
G1 X172.588 Y140.947 E28.37006
G1 X170.358 Y141.571 E28.47981
G1 X168.219 Y140.946 E28.58543
G1 X166.489 Y139.216 E28.70139
G1 X166.366 Y139.054 E28.71103
G1 X165.685 Y136.86 E28.81991
G0 F3600 X166.102 Y136.853
G1 F2400 X166.632 Y134.909 E28.91541
G1 X168.077 Y133.38 E29.01512
G1 X170.104 Y132.851 E29.11441
G1 X172.165 Y133.466 E29.21635
G1 X172.177 Y133.479 E29.21719
G1 X172.353 Y133.608 E29.22753
G1 X172.361 Y133.611 E29.22793
G1 X173.839 Y135.173 E29.32985
G1 X174.405 Y137.112 E29.42559
G1 X173.84 Y139.129 E29.52487
G1 X172.379 Y140.59 E29.62279
G1 X170.361 Y141.155 E29.72212
G1 X168.43 Y140.591 E29.81746
G1 X166.791 Y138.952 E29.92732
G1 X166.727 Y138.868 E29.93232
G1 X166.102 Y136.853 E30.03231
G0 F3600 X166.518 Y136.846
G1 F2400 X166.991 Y135.112 E30.1175
G1 X168.29 Y133.738 E30.20712
G1 X170.098 Y133.266 E30.29568
G1 X171.979 Y133.828 E30.38873
G1 X172.107 Y133.93 E30.39649
G1 X172.116 Y133.934 E30.39695
G1 X173.482 Y135.377 E30.49113
G1 X173.989 Y137.114 E30.57689
G1 X173.483 Y138.92 E30.66578
G1 X172.17 Y140.233 E30.75379
G1 X170.364 Y140.739 E30.84268
G1 X168.641 Y140.236 E30.92775
G1 X167.089 Y138.684 E31.03178
G1 X166.518 Y136.846 E31.123
G0 F3600 X166.933 Y136.836
;TYPE:SUPPORT
G1 F2400 X167.348 Y135.313 E31.19782
G1 X168.499 Y134.096 E31.27721
G1 X170.088 Y133.68 E31.35506
G1 X171.727 Y134.169 E31.43612
G1 X171.943 Y134.337 E31.44909
G1 X173.125 Y135.583 E31.53049
G1 X173.571 Y137.117 E31.60621
G1 X173.125 Y138.707 E31.68448
G1 X171.955 Y139.877 E31.7629
G1 X170.366 Y140.32 E31.84108
G1 X168.854 Y139.878 E31.91574
G1 X167.437 Y138.465 E32.01059
G1 X166.933 Y136.836 E32.09141
G1 F1500 E25.59141
G0 F3600 X80.724 Y134.894
G1 F1500 E32.09141
G1 F2400 X80.169 Y136.887 E32.18946
G1 X78.707 Y138.345 E32.28732
G1 X76.718 Y138.903 E32.38523
G1 X74.818 Y138.35 E32.47902
G1 X73.242 Y136.774 E32.58465
G1 X72.689 Y134.883 E32.67803
G1 X73.247 Y132.975 E32.77225
G1 X74.72 Y131.414 E32.87398
G1 X76.705 Y130.86 E32.97165
G1 X78.688 Y131.414 E33.06924
G1 X80.165 Y132.975 E33.17109
G1 X80.724 Y134.894 E33.26582
G1 F1500 E26.76582
G0 F3600 X80 Y133.033
G1 F1500 E33.26582
G1 F2400 X80 Y136.83 E33.44578
G1 F1500 E26.94578
G0 F3600 X79.246 Y106.5
G1 F1500 E33.44578
G1 F2400 X78.19 Y106.19 E33.49795
G1 X77.282 Y105.282 E33.55881
G1 X76.976 Y104.234 E33.61055
G1 X77.028 Y104.028 E33.62062
G1 X77.004 Y103.903 E33.62665
G1 X77.333 Y102.689 E33.68627
G1 X78.185 Y101.715 E33.7476
G1 X79.237 Y101.397 E33.79969
G1 X80.291 Y101.715 E33.85187
G1 X81.143 Y102.689 E33.9132
G1 X81.471 Y103.908 E33.97303
G1 X81.444 Y104.035 E33.97918
G1 X81.499 Y104.246 E33.98952
G1 X81.189 Y105.359 E34.04428
G1 X80.359 Y106.189 E34.09991
G1 X79.246 Y106.5 E34.15468
G0 F3600 X80 Y106.124
G1 F2400 X80 Y101.795 E34.35986
G1 F1500 E27.85986
;MESH:electronics_box_front.stl
G0 F3600 X83.835 Y101.795
G0 X84.93 Y101.795
G0 X93.339 Y125.017
G0 X93.448 Y125.861
G0 X93.26 Y126.702
G0 X91.853 Y128.532
G0 X91.799 Y128.223
;TYPE:WALL-INNER
G1 F1500 E34.35986
G1 F2400 X91.089 Y128.347 E34.39402
G1 X90.613 Y128.319 E34.41662
G1 X90.043 Y128.173 E34.44451
G1 X89.385 Y127.796 E34.48045
G1 X88.974 Y127.378 E34.50823
G1 X88.691 Y126.947 E34.53267
G1 X88.535 Y126.579 E34.55161
G1 X88.428 Y126.156 E34.57229
G1 X88.4 Y125.648 E34.59641
G1 X88.44 Y125.285 E34.61372
G1 X88.577 Y124.802 E34.63751
G1 X88.849 Y124.275 E34.66562
G1 X89.362 Y123.72 E34.70144
G1 X89.86 Y123.415 E34.72912
G1 X90.311 Y123.24 E34.75205
G1 X90.822 Y123.156 E34.77659
G1 X91.443 Y123.179 E34.80604
G1 X91.966 Y123.334 E34.8319
G1 X92.603 Y123.702 E34.86676
G1 X93.029 Y124.126 E34.89525
G1 X93.304 Y124.551 E34.91924
G1 X93.46 Y124.915 E34.93801
G1 X93.561 Y125.313 E34.95748
G1 X93.596 Y125.817 E34.98142
G1 X93.556 Y126.211 E35.00019
G1 X93.403 Y126.75 E35.02675
G1 X93.074 Y127.316 E35.05777
G1 X92.701 Y127.716 E35.0837
G1 X92.289 Y128.009 E35.10766
G1 X91.799 Y128.223 E35.133
G0 F3600 X91.853 Y128.532
G0 X92.888 Y127.889
G0 X93.629 Y126.862
G0 X93.85 Y125.875
G0 X93.721 Y124.893
G0 X91.869 Y63.529
G0 X91.815 Y63.219
G1 F2400 X91.077 Y63.348 E35.16851
G1 X90.613 Y63.319 E35.19054
G1 X90.043 Y63.173 E35.21843
G1 X89.385 Y62.796 E35.25437
G1 X88.974 Y62.378 E35.28216
G1 X88.691 Y61.947 E35.30659
G1 X88.535 Y61.579 E35.32554
G1 X88.428 Y61.156 E35.34622
G1 X88.4 Y60.648 E35.37033
G1 X88.44 Y60.285 E35.38764
G1 X88.597 Y59.732 E35.41489
G1 X88.994 Y59.081 E35.45103
G1 X89.42 Y58.684 E35.47862
G1 X89.804 Y58.438 E35.50024
G1 X90.349 Y58.232 E35.52785
G1 X90.873 Y58.156 E35.55295
G1 X91.459 Y58.184 E35.58075
G1 X92.114 Y58.402 E35.61347
G1 X92.581 Y58.691 E35.6395
G1 X93.062 Y59.163 E35.67144
G1 X93.343 Y59.628 E35.69719
G1 X93.566 Y60.331 E35.73215
G1 X93.596 Y60.818 E35.75527
G1 X93.556 Y61.211 E35.774
G1 X93.419 Y61.694 E35.79779
G1 X93.117 Y62.251 E35.82782
G1 X92.725 Y62.695 E35.85589
G1 X92.337 Y62.98 E35.87871
G1 X91.815 Y63.219 E35.90592
G0 F3600 X91.869 Y63.529
G0 X179.099 Y63.603
G0 X179.769 Y63.231
G1 F2400 X179.131 Y63.343 E35.93662
G1 X178.556 Y63.312 E35.96391
G1 X177.993 Y63.144 E35.99176
G1 X177.393 Y62.794 E36.02468
G1 X177.049 Y62.467 E36.04718
G1 X176.714 Y62.005 E36.07422
G1 X176.503 Y61.481 E36.101
G1 X176.42 Y61.082 E36.12031
G1 X176.404 Y60.573 E36.14445
G1 X176.445 Y60.254 E36.15969
G1 X176.602 Y59.733 E36.18548
G1 X176.993 Y59.091 E36.22111
G1 X177.329 Y58.757 E36.24356
G1 X177.752 Y58.469 E36.26782
G1 X178.23 Y58.266 E36.29243
G1 X178.799 Y58.152 E36.31994
G1 X179.459 Y58.184 E36.35125
G1 X180.114 Y58.402 E36.38397
G1 X180.581 Y58.691 E36.41
G1 X181.009 Y59.111 E36.43842
G1 X181.344 Y59.616 E36.46715
G1 X181.549 Y60.262 E36.49927
G1 X181.596 Y60.848 E36.52713
G1 X181.552 Y61.24 E36.54583
G1 X181.365 Y61.819 E36.57466
G1 X181.038 Y62.359 E36.60458
G1 X180.677 Y62.734 E36.62926
G1 X180.251 Y63.028 E36.65379
G1 X179.769 Y63.231 E36.67858
G0 F3600 X179.822 Y63.537
G0 X176.76 Y120.502
G0 X176.295 Y120.502
G1 F2400 X176.124 Y120.634 E36.68881
G1 X175.877 Y120.7 E36.70093
G1 X94.086 Y120.693 E40.57747
G1 X93.94 Y120.66 E40.58457
G1 X93.745 Y120.541 E40.59539
G1 X93.636 Y120.41 E40.60347
G1 X93.553 Y120.181 E40.61502
G1 X93.55 Y66.343 E43.1667
G1 X93.642 Y66.077 E43.18005
G1 X93.737 Y65.962 E43.18711
G1 X93.928 Y65.841 E43.19783
G1 X94.089 Y65.802 E43.20568
G1 X175.91 Y65.803 E47.08365
G1 X176.056 Y65.836 E47.09074
G1 X176.255 Y65.958 E47.1018
G1 X176.363 Y66.09 E47.10989
G1 X176.446 Y66.345 E47.1226
G1 X176.448 Y120.169 E49.67362
G1 X176.295 Y120.502 E49.69099
G0 F3600 X176.76 Y120.502
G0 X180.759 Y123.501
G0 X181.503 Y124.379
G0 X181.821 Y125.329
G0 X179.26 Y145.498
G0 X178.798 Y145.498
G1 F2400 X178.606 Y145.643 E49.70239
G1 X178.442 Y145.7 E49.71062
G1 X133.897 Y145.7 E51.82186
G1 X133.733 Y145.644 E51.83008
G1 X133.478 Y145.417 E51.84626
G1 X133.392 Y145.171 E51.85861
G1 X133.391 Y128.336 E52.65652
G1 X133.508 Y128.039 E52.67165
G1 X133.657 Y127.899 E52.68134
G1 X133.896 Y127.8 E52.6936
G1 X177.41 Y127.801 E54.75597
G1 X177.049 Y127.467 E54.77928
G1 X176.714 Y127.005 E54.80633
G1 X176.503 Y126.481 E54.8331
G1 X176.42 Y126.082 E54.85242
G1 X176.404 Y125.573 E54.87656
G1 X176.457 Y125.199 E54.89446
G1 X176.625 Y124.688 E54.91995
G1 X176.903 Y124.216 E54.94592
G1 X177.36 Y123.729 E54.97757
G1 X177.808 Y123.438 E55.00289
G1 X178.349 Y123.232 E55.03033
G1 X178.868 Y123.156 E55.05519
G1 X179.375 Y123.176 E55.07923
G1 X179.962 Y123.327 E55.10796
G1 X180.606 Y123.698 E55.14319
G1 X180.951 Y124.033 E55.16598
G1 X181.249 Y124.45 E55.19027
G1 X181.46 Y124.915 E55.21447
G1 X181.576 Y125.418 E55.23894
G1 X181.596 Y125.848 E55.25934
G1 X181.552 Y126.24 E55.27804
G1 X181.365 Y126.819 E55.30687
G1 X181.038 Y127.359 E55.33679
G1 X180.677 Y127.734 E55.36147
G1 X180.327 Y127.987 E55.38193
G1 X179.821 Y128.222 E55.40838
G1 X179.157 Y128.339 E55.44033
G1 X178.948 Y128.341 E55.45024
G1 X178.948 Y145.216 E56.25004
G1 X178.798 Y145.498 E56.26518
G0 F3600 X179.26 Y145.498
G0 X184.62 Y151.02
G0 X184.9 Y151.3
G1 F2400 X184.9 Y52.348 E60.95508
G1 X85.1 Y52.348 E65.68517
G1 X85.1 Y151.3 E70.37507
G1 X184.9 Y151.3 E75.10516
G0 F3600 X185.3 Y151.7
;TYPE:WALL-OUTER
G1 F2400 X185.3 Y51.948 E79.83297
G1 X84.7 Y51.948 E84.60098
G1 X84.7 Y151.7 E89.32879
G1 X185.3 Y151.7 E94.0968
G0 F3600 X185.3 Y151.5
G0 X185.02 Y151.42
G0 X178.86 Y145.135
G0 X178.546 Y145.135
G1 F2400 X178.47 Y145.26 E94.10373
G1 X178.383 Y145.298 E94.10823
G1 X133.944 Y145.296 E96.21445
G1 X133.839 Y145.235 E96.22021
G1 X133.789 Y145.124 E96.22598
G1 X133.792 Y128.356 E97.02071
G1 X133.85 Y128.255 E97.02623
G1 X133.948 Y128.203 E97.03149
G1 F2412.1 X145.047 Y128.203 E97.5549
G1 F2430.4 X156.146 Y128.204 E98.07437
G1 F2455.2 X167.245 Y128.204 E98.58858
G1 F2474.2 X178.344 Y128.204 E99.09884
G1 F2500 X178.483 Y128.264 E99.10573
G1 F2461.5 X178.548 Y128.4 E99.1127
G1 F2400 X178.546 Y145.135 E99.90586
G0 F3600 X178.47 Y145.26
G0 X178.421 Y145.281
G0 X178.421 Y145.61
G0 X179.851 Y128.11
G0 X179.723 Y127.827
G1 F2400 X179.059 Y127.95 E99.93787
G1 F2461.5 X178.642 Y127.91 E99.95723
G1 F2480.6 X178.174 Y127.782 E99.97948
G1 F2424.2 X177.616 Y127.46 E100.0097
G1 F2400 X177.303 Y127.15 E100.03058
G1 X177.059 Y126.791 E100.05116
G1 X176.903 Y126.422 E100.07014
G1 X176.825 Y126.098 E100.08594
G1 X176.801 Y125.623 E100.10848
G1 X176.844 Y125.302 E100.12383
G1 X176.976 Y124.88 E100.14479
G1 X177.197 Y124.488 E100.16612
G1 X177.618 Y124.035 E100.19543
G1 X177.975 Y123.803 E100.21561
G1 X178.417 Y123.626 E100.23817
G1 X178.809 Y123.558 E100.25703
G1 X179.4 Y123.583 E100.28506
G1 X179.832 Y123.714 E100.30646
G1 X180.38 Y124.036 E100.33658
G1 X180.698 Y124.351 E100.3578
G1 X180.918 Y124.675 E100.37636
G1 X181.092 Y125.073 E100.39695
