;FLAVOR:Marlin
;TIME:11611
;Filament used: 23.1683m
;Layer height: 0.3
;MINX:57.05
;MINY:41.3
;MINZ:0.3
;MAXX:212.95
;MAXY:148.7
;MAXZ:95.1
;TARGET_MACHINE.NAME:Unknown
;Generated with Cura_SteamEngine 5.10.0
M104 S205
M105
M109 S205
G28 ;Home
G1 Z15.0 F6000 ;Move the platform down 15mm
;Prime the extruder
G92 E0
G1 F200 E3
G92 E0
M82 ;absolute extrusion mode
G92 E0
G92 E0
G1 F1500 E-6.5
;LAYER_COUNT:317
;LAYER:0
M107
G0 F3600 X57.704 Y42.582 Z0.3
;TYPE:SKIRT
G1 F1500 E0
G1 F2400 X58.039 Y42.204 E0.02394
G1 X58.43 Y41.883 E0.04792
G1 X58.867 Y41.628 E0.0719
G1 X59.338 Y41.444 E0.09586
G1 X59.832 Y41.338 E0.11981
G1 X60.277 Y41.301 E0.14097
G1 X209.089 Y41.3 E7.19402
G1 X209.787 Y41.31 E7.22711
G1 X210.29 Y41.357 E7.25105
G1 X210.78 Y41.483 E7.27503
G1 X211.244 Y41.685 E7.29901
G1 X211.67 Y41.957 E7.32297
G1 X212.048 Y42.292 E7.34691
G1 X212.368 Y42.683 E7.37086
G1 X212.623 Y43.12 E7.39484
G1 X212.806 Y43.591 E7.41878
G1 X212.913 Y44.085 E7.44274
G1 X212.949 Y44.74 E7.47383
G1 X212.95 Y144.804 E12.21643
G1 X212.941 Y145.531 E12.25089
G1 X212.895 Y146.034 E12.27483
G1 X212.77 Y146.524 E12.2988
G1 X212.569 Y146.988 E12.32277
G1 X212.298 Y147.415 E12.34674
G1 X211.963 Y147.794 E12.37071
G1 X211.573 Y148.115 E12.39465
G1 X211.137 Y148.371 E12.41862
G1 X210.666 Y148.554 E12.44256
G1 X210.172 Y148.662 E12.46653
G1 X209.51 Y148.699 E12.49796
G1 X60.916 Y148.7 E19.54067
G1 X60.218 Y148.691 E19.57376
G1 X59.714 Y148.644 E19.59775
G1 X59.224 Y148.519 E19.62171
G1 X58.76 Y148.318 E19.64568
G1 X58.334 Y148.047 E19.66961
G1 X57.955 Y147.712 E19.69359
G1 X57.634 Y147.321 E19.71756
G1 X57.379 Y146.885 E19.7415
G1 X57.195 Y146.414 E19.76547
G1 X57.088 Y145.92 E19.78942
G1 X57.051 Y145.467 E19.81097
G1 X57.05 Y45.131 E24.56646
G1 X57.059 Y44.466 E24.59798
G1 X57.106 Y43.962 E24.62197
G1 X57.232 Y43.473 E24.64591
G1 X57.433 Y43.009 E24.66987
G1 X57.704 Y42.582 E24.69384
G1 F1500 E18.19384
;MESH:electronics_box_top.stl
G0 F3600 X59.585 Y44.924
G0 X60.674 Y44.924
G0 X208.87 Y144.62
G0 X209.148 Y144.9
;TYPE:WALL-INNER
G1 F1500 E24.69384
G1 F2400 X209.148 Y45.1 E29.42393
G1 X60.848 Y45.1 E36.45271
G1 X60.848 Y144.9 E41.1828
G1 X209.148 Y144.9 E48.21158
G0 F3600 X209.548 Y145.3
;TYPE:WALL-OUTER
G1 F2400 X209.548 Y44.7 E52.97959
G1 X60.448 Y44.7 E60.04629
G1 X60.448 Y145.3 E64.8143
G1 X209.548 Y145.3 E71.88099
G0 F3600 X209.548 Y145.1
G0 X208.768 Y144.52
;TYPE:SKIN
G1 F2400 X61.228 Y144.52 E78.87375
G1 X61.228 Y45.48 E83.56782
G1 X208.768 Y45.48 E90.56058
G1 X208.768 Y144.52 E95.25465
G0 F3600 X208.032 Y45.68
G1 F2400 X208.568 Y46.216 E95.29058
G0 F3600 X208.568 Y46.781
G1 F2400 X207.466 Y45.68 E95.36441
G0 F3600 X206.9 Y45.68
G1 F2400 X208.568 Y47.347 E95.47618
G0 F3600 X208.568 Y47.913
G1 F2400 X206.334 Y45.68 E95.62589
G0 F3600 X205.769 Y45.68
G1 F2400 X208.568 Y48.479 E95.8135
G0 F3600 X208.568 Y49.044
G1 F2400 X205.203 Y45.68 E96.03901
G0 F3600 X204.637 Y45.68
G1 F2400 X208.568 Y49.61 E96.30246
G0 F3600 X208.568 Y50.176
G1 F2400 X204.072 Y45.68 E96.60382
G0 F3600 X203.506 Y45.68
G1 F2400 X208.568 Y50.741 E96.94308
G0 F3600 X208.568 Y51.307
G1 F2400 X202.94 Y45.68 E97.32028
G0 F3600 X202.375 Y45.68
G1 F2400 X208.568 Y51.873 E97.73538
G0 F3600 X208.568 Y52.438
G1 F2400 X201.809 Y45.68 E98.18839
G0 F3600 X201.243 Y45.68
G1 F2400 X208.568 Y53.004 E98.67933
G0 F3600 X208.568 Y53.57
G1 F2400 X200.678 Y45.68 E99.20818
G0 F3600 X200.112 Y45.68
G1 F2400 X208.568 Y54.135 E99.77493
G0 F3600 X208.568 Y54.701
G1 F2400 X199.546 Y45.68 E100.37962
G0 F3600 X198.981 Y45.68
G1 F2400 X208.568 Y55.267 E101.02221
G0 F3600 X208.568 Y55.832
G1 F2400 X198.415 Y45.68 E101.70271
G0 F3600 X197.849 Y45.68
G1 F2400 X208.568 Y56.398 E102.42115
G0 F3600 X208.568 Y56.964
G1 F2400 X197.283 Y45.68 E103.17752
G0 F3600 X196.718 Y45.68
G1 F2400 X208.568 Y57.53 E103.9718
G0 F3600 X208.568 Y58.095
G1 F2400 X196.152 Y45.68 E104.80398
G0 F3600 X195.586 Y45.68
G1 F2400 X208.568 Y58.661 E105.6741
G0 F3600 X208.568 Y59.227
G1 F2400 X195.021 Y45.68 E106.58212
G0 F3600 X194.455 Y45.68
G1 F2400 X208.568 Y59.792 E107.52805
G0 F3600 X208.568 Y60.358
G1 F2400 X193.889 Y45.68 E108.51191
G0 F3600 X193.324 Y45.68
G1 F2400 X208.568 Y60.924 E109.53368
G0 F3600 X208.568 Y61.489
G1 F2400 X192.758 Y45.68 E110.59336
G0 F3600 X192.192 Y45.68
G1 F2400 X208.568 Y62.055 E111.69097
G0 F3600 X208.568 Y62.621
G1 F2400 X191.627 Y45.68 E112.82648
G0 F3600 X191.061 Y45.68
G1 F2400 X208.568 Y63.186 E113.9999
G0 F3600 X208.568 Y63.752
G1 F2400 X190.495 Y45.68 E115.21126
G0 F3600 X189.93 Y45.68
G1 F2400 X208.568 Y64.318 E116.46052
G0 F3600 X208.568 Y64.883
G1 F2400 X189.364 Y45.68 E117.74768
G0 F3600 X188.798 Y45.68
G1 F2400 X208.568 Y65.449 E119.07279
G0 F3600 X208.568 Y66.015
G1 F2400 X188.233 Y45.68 E120.43579
G0 F3600 X187.667 Y45.68
G1 F2400 X208.568 Y66.58 E121.83671
G0 F3600 X208.568 Y67.146
G1 F2400 X187.101 Y45.68 E123.27555
G0 F3600 X186.535 Y45.68
G1 F2400 X208.568 Y67.712 E124.75234
G0 F3600 X208.568 Y68.278
G1 F2400 X185.97 Y45.68 E126.26703
G0 F3600 X185.404 Y45.68
G1 F2400 X208.568 Y68.843 E127.81963
G0 F3600 X208.568 Y69.409
G1 F2400 X184.838 Y45.68 E129.41016
G0 F3600 X184.273 Y45.68
G1 F2400 X208.568 Y69.975 E131.03859
G0 F3600 X208.568 Y70.54
G1 F2400 X183.707 Y45.68 E132.70493
G0 F3600 X183.141 Y45.68
G1 F2400 X208.568 Y71.106 E134.40921
G0 F3600 X208.568 Y71.672
G1 F2400 X182.576 Y45.68 E136.15139
G0 F3600 X182.01 Y45.68
G1 F2400 X208.568 Y72.237 E137.93148
G0 F3600 X208.568 Y72.803
G1 F2400 X181.444 Y45.68 E139.7495
G0 F3600 X180.879 Y45.68
G1 F2400 X208.568 Y73.369 E141.60543
G0 F3600 X208.568 Y73.934
G1 F2400 X180.313 Y45.68 E143.49926
G0 F3600 X179.747 Y45.68
G1 F2400 X208.568 Y74.5 E145.43103
G0 F3600 X208.568 Y75.066
G1 F2400 X179.182 Y45.68 E147.40071
G0 F3600 X178.616 Y45.68
G1 F2400 X208.568 Y75.631 E149.40829
G0 F3600 X208.568 Y76.197
G1 F2400 X178.05 Y45.68 E151.4538
G0 F3600 X177.485 Y45.68
G1 F2400 X208.568 Y76.763 E153.53722
G0 F3600 X208.568 Y77.328
G1 F2400 X176.919 Y45.68 E155.65855
G0 F3600 X176.353 Y45.68
G1 F2400 X208.568 Y77.894 E157.81781
G0 F3600 X208.568 Y78.46
G1 F2400 X175.787 Y45.68 E160.01501
G0 F3600 X175.222 Y45.68
G1 F2400 X208.568 Y79.026 E162.25011
G0 F3600 X208.568 Y79.591
G1 F2400 X174.656 Y45.68 E164.52312
G0 F3600 X174.09 Y45.68
G1 F2400 X208.568 Y80.157 E166.83406
G0 F3600 X208.568 Y80.723
G1 F2400 X173.525 Y45.68 E169.18291
G0 F3600 X172.959 Y45.68
G1 F2400 X208.568 Y81.288 E171.56967
G0 F3600 X208.568 Y81.854
G1 F2400 X172.393 Y45.68 E173.99436
G0 F3600 X171.828 Y45.68
G1 F2400 X208.568 Y82.42 E176.45695
G0 F3600 X208.568 Y82.985
G1 F2400 X171.262 Y45.68 E178.95745
G0 F3600 X170.696 Y45.68
G1 F2400 X208.568 Y83.551 E181.49589
G0 F3600 X208.568 Y84.117
G1 F2400 X170.131 Y45.68 E184.07223
G0 F3600 X169.565 Y45.68
G1 F2400 X208.568 Y84.682 E186.68647
G0 F3600 X208.568 Y85.248
G1 F2400 X168.999 Y45.68 E189.33866
G0 F3600 X168.434 Y45.68
G1 F2400 X208.568 Y85.814 E192.02874
G0 F3600 X208.568 Y86.379
G1 F2400 X167.868 Y45.68 E194.75674
G0 F3600 X167.302 Y45.68
G1 F2400 X208.568 Y86.945 E197.52266
G0 F3600 X208.568 Y87.511
G1 F2400 X166.736 Y45.68 E200.32653
G0 F3600 X166.171 Y45.68
G1 F2400 X208.568 Y88.077 E203.1683
G0 F3600 X208.568 Y88.642
G1 F2400 X165.605 Y45.68 E206.04798
G0 F3600 X165.039 Y45.68
G1 F2400 X208.568 Y89.208 E208.96559
G0 F3600 X208.568 Y89.774
G1 F2400 X164.474 Y45.68 E211.9211
G0 F3600 X163.908 Y45.68
G1 F2400 X208.568 Y90.339 E214.91452
G0 F3600 X208.568 Y90.905
G1 F2400 X163.342 Y45.68 E217.94588
G0 F3600 X162.777 Y45.68
G1 F2400 X208.568 Y91.471 E221.01514
G0 F3600 X208.568 Y92.036
G1 F2400 X162.211 Y45.68 E224.12231
G0 F3600 X161.645 Y45.68
G1 F2400 X208.568 Y92.602 E227.26742
G0 F3600 X208.568 Y93.168
G1 F2400 X161.08 Y45.68 E230.45042
G0 F3600 X160.514 Y45.68
G1 F2400 X208.568 Y93.733 E233.67134
G0 F3600 X208.568 Y94.299
G1 F2400 X159.948 Y45.68 E236.93019
G0 F3600 X159.383 Y45.68
G1 F2400 X208.568 Y94.865 E240.22694
G0 F3600 X208.568 Y95.43
G1 F2400 X158.817 Y45.68 E243.5616
G0 F3600 X158.251 Y45.68
G1 F2400 X208.568 Y95.996 E246.93419
G0 F3600 X208.568 Y96.562
G1 F2400 X157.686 Y45.68 E250.34469
G0 F3600 X157.12 Y45.68
G1 F2400 X208.568 Y97.127 E253.7931
G0 F3600 X208.568 Y97.693
G1 F2400 X156.554 Y45.68 E257.27944
G0 F3600 X155.988 Y45.68
G1 F2400 X208.568 Y98.259 E260.80372
G0 F3600 X208.568 Y98.825
G1 F2400 X155.423 Y45.68 E264.3659
G0 F3600 X154.857 Y45.68
G1 F2400 X208.568 Y99.39 E267.96599
G0 F3600 X208.568 Y99.956
G1 F2400 X154.291 Y45.68 E271.60401
G0 F3600 X153.726 Y45.68
G1 F2400 X208.568 Y100.522 E275.27994
G0 F3600 X208.568 Y101.087
G1 F2400 X153.16 Y45.68 E278.99378
G0 F3600 X152.594 Y45.68
G1 F2400 X208.568 Y101.653 E282.74555
G0 F3600 X208.568 Y102.219
G1 F2400 X152.029 Y45.68 E286.53522
G0 F3600 X151.463 Y45.68
G1 F2400 X208.568 Y102.784 E290.3628
G0 F3600 X208.568 Y103.35
G1 F2400 X150.897 Y45.68 E294.22832
G0 F3600 X150.332 Y45.68
G1 F2400 X208.568 Y103.916 E298.13174
G0 F3600 X208.568 Y104.481
G1 F2400 X149.766 Y45.68 E302.07307
G0 F3600 X149.2 Y45.68
G1 F2400 X208.568 Y105.047 E306.05233
G0 F3600 X208.568 Y105.613
G1 F2400 X148.635 Y45.68 E310.0695
G0 F3600 X148.069 Y45.68
G1 F2400 X208.568 Y106.178 E314.12457
G0 F3600 X208.568 Y106.744
G1 F2400 X147.503 Y45.68 E318.21758
G0 F3600 X146.937 Y45.68
G1 F2400 X208.568 Y107.31 E322.34852
G0 F3600 X208.568 Y107.876
G1 F2400 X146.372 Y45.68 E326.51737
G0 F3600 X145.806 Y45.68
G1 F2400 X208.568 Y108.441 E330.72413
G0 F3600 X208.568 Y109.007
G1 F2400 X145.24 Y45.68 E334.96882
G0 F3600 X144.675 Y45.68
G1 F2400 X208.568 Y109.573 E339.25142
G0 F3600 X208.568 Y110.138
G1 F2400 X144.109 Y45.68 E343.57192
G0 F3600 X143.543 Y45.68
G1 F2400 X208.568 Y110.704 E347.93036
G0 F3600 X208.568 Y111.27
G1 F2400 X142.978 Y45.68 E352.3267
G0 F3600 X142.412 Y45.68
G1 F2400 X208.568 Y111.835 E356.76094
G0 F3600 X208.568 Y112.401
G1 F2400 X141.846 Y45.68 E361.23313
G0 F3600 X141.281 Y45.68
G1 F2400 X208.568 Y112.967 E365.74322
G0 F3600 X208.568 Y113.532
G1 F2400 X140.715 Y45.68 E370.29121
G0 F3600 X140.149 Y45.68
G1 F2400 X208.568 Y114.098 E374.87714
G0 F3600 X208.568 Y114.664
G1 F2400 X139.584 Y45.68 E379.50097
G0 F3600 X139.018 Y45.68
G1 F2400 X208.568 Y115.229 E384.16271
G0 F3600 X208.568 Y115.795
G1 F2400 X138.452 Y45.68 E388.86239
G0 F3600 X137.887 Y45.68
G1 F2400 X208.568 Y116.361 E393.59997
G0 F3600 X208.568 Y116.926
G1 F2400 X137.321 Y45.68 E398.37545
G0 F3600 X136.755 Y45.68
G1 F2400 X208.568 Y117.492 E403.18887
G0 F3600 X208.568 Y118.058
G1 F2400 X136.189 Y45.68 E408.04023
G0 F3600 X135.624 Y45.68
G1 F2400 X208.568 Y118.624 E412.9295
G0 F3600 X208.568 Y119.189
G1 F2400 X135.058 Y45.68 E417.85666
G0 F3600 X134.492 Y45.68
G1 F2400 X208.568 Y119.755 E422.82177
G0 F3600 X208.568 Y120.321
G1 F2400 X133.927 Y45.68 E427.82478
G0 F3600 X133.361 Y45.68
G1 F2400 X208.568 Y120.886 E432.86569
G0 F3600 X208.568 Y121.452
G1 F2400 X132.795 Y45.68 E437.94454
G0 F3600 X132.23 Y45.68
G1 F2400 X208.568 Y122.018 E443.0613
G0 F3600 X208.568 Y122.583
G1 F2400 X131.664 Y45.68 E448.21596
G0 F3600 X131.098 Y45.68
G1 F2400 X208.568 Y123.149 E453.40855
G0 F3600 X208.568 Y123.715
G1 F2400 X130.533 Y45.68 E458.63906
G0 F3600 X129.967 Y45.68
G1 F2400 X208.568 Y124.28 E463.90746
G0 F3600 X208.568 Y124.846
G1 F2400 X129.401 Y45.68 E469.2138
G0 F3600 X128.836 Y45.68
G1 F2400 X208.568 Y125.412 E474.55805
G0 F3600 X208.568 Y125.977
G1 F2400 X128.27 Y45.68 E479.9402
G0 F3600 X127.704 Y45.68
G1 F2400 X208.568 Y126.543 E485.36029
G0 F3600 X208.568 Y127.109
G1 F2400 X127.139 Y45.68 E490.81828
G0 F3600 X126.573 Y45.68
G1 F2400 X208.568 Y127.674 E496.31418
G0 F3600 X208.568 Y128.24
G1 F2400 X126.007 Y45.68 E501.84802
G0 F3600 X125.441 Y45.68
G1 F2400 X208.568 Y128.806 E507.41979
G0 F3600 X208.568 Y129.372
G1 F2400 X124.876 Y45.68 E513.02947
G0 F3600 X124.31 Y45.68
G1 F2400 X208.568 Y129.937 E518.67705
G0 F3600 X208.568 Y130.503
G1 F2400 X123.744 Y45.68 E524.36256
G0 F3600 X123.179 Y45.68
G1 F2400 X208.568 Y131.069 E530.08599
G0 F3600 X208.568 Y131.634
G1 F2400 X122.613 Y45.68 E535.84731
G0 F3600 X122.047 Y45.68
G1 F2400 X208.568 Y132.2 E541.64658
G0 F3600 X208.568 Y132.766
G1 F2400 X121.482 Y45.68 E547.48375
G0 F3600 X120.916 Y45.68
G1 F2400 X208.568 Y133.331 E553.35882
G0 F3600 X208.568 Y133.897
G1 F2400 X120.35 Y45.68 E559.27183
G0 F3600 X119.785 Y45.68
G1 F2400 X208.568 Y134.463 E565.22274
G0 F3600 X208.568 Y135.028
G1 F2400 X119.219 Y45.68 E571.21156
G0 F3600 X118.653 Y45.68
G1 F2400 X208.568 Y135.594 E577.23832
G0 F3600 X208.568 Y136.16
G1 F2400 X118.088 Y45.68 E583.30298
G0 F3600 X117.522 Y45.68
G1 F2400 X208.568 Y136.725 E589.40554
G0 F3600 X208.568 Y137.291
G1 F2400 X116.956 Y45.68 E595.54604
G0 F3600 X116.39 Y45.68
G1 F2400 X208.568 Y137.857 E601.72448
G0 F3600 X208.568 Y138.423
G1 F2400 X115.825 Y45.68 E607.94083
G0 F3600 X115.259 Y45.68
G1 F2400 X208.568 Y138.988 E614.19507
G0 F3600 X208.568 Y139.554
G1 F2400 X114.693 Y45.68 E620.48726
G0 F3600 X114.128 Y45.68
G1 F2400 X208.568 Y140.12 E626.81735
G0 F3600 X208.568 Y140.685
G1 F2400 X113.562 Y45.68 E633.18534
G0 F3600 X112.996 Y45.68
G1 F2400 X208.568 Y141.251 E639.59127
G0 F3600 X208.568 Y141.817
G1 F2400 X112.431 Y45.68 E646.03511
G0 F3600 X111.865 Y45.68
G1 F2400 X208.568 Y142.382 E652.51685
G0 F3600 X208.568 Y142.948
G1 F2400 X111.299 Y45.68 E659.03652
G0 F3600 X110.734 Y45.68
G1 F2400 X208.568 Y143.514 E665.59411
G0 F3600 X208.568 Y144.079
G1 F2400 X110.168 Y45.68 E672.18959
G0 F3600 X109.602 Y45.68
G1 F2400 X208.242 Y144.32 E678.8012
G0 F3600 X207.677 Y144.32
G1 F2400 X109.037 Y45.68 E685.4128
G0 F3600 X108.471 Y45.68
G1 F2400 X207.111 Y144.32 E692.02441
G0 F3600 X206.545 Y144.32
G1 F2400 X107.905 Y45.68 E698.63601
G0 F3600 X107.34 Y45.68
G1 F2400 X205.979 Y144.32 E705.24759
G0 F3600 X205.414 Y144.32
G1 F2400 X106.774 Y45.68 E711.85919
G0 F3600 X106.208 Y45.68
G1 F2400 X204.848 Y144.32 E718.4708
G0 F3600 X204.282 Y144.32
G1 F2400 X105.642 Y45.68 E725.0824
G0 F3600 X105.077 Y45.68
G1 F2400 X203.717 Y144.32 E731.69401
G0 F3600 X203.151 Y144.32
G1 F2400 X104.511 Y45.68 E738.30561
G0 F3600 X103.945 Y45.68
G1 F2400 X202.585 Y144.32 E744.91722
G0 F3600 X202.02 Y144.32
G1 F2400 X103.38 Y45.68 E751.52882
G0 F3600 X102.814 Y45.68
G1 F2400 X201.454 Y144.32 E758.14043
G0 F3600 X200.888 Y144.32
G1 F2400 X102.248 Y45.68 E764.75204
G0 F3600 X101.683 Y45.68
G1 F2400 X200.323 Y144.32 E771.36364
G0 F3600 X199.757 Y144.32
G1 F2400 X101.117 Y45.68 E777.97525
G0 F3600 X100.551 Y45.68
G1 F2400 X199.191 Y144.32 E784.58685
G0 F3600 X198.626 Y144.32
G1 F2400 X99.986 Y45.68 E791.19846
G0 F3600 X99.42 Y45.68
G1 F2400 X198.06 Y144.32 E797.81006
G0 F3600 X197.494 Y144.32
G1 F2400 X98.854 Y45.68 E804.42167
G0 F3600 X98.289 Y45.68
G1 F2400 X196.929 Y144.32 E811.03327
G0 F3600 X196.363 Y144.32
G1 F2400 X97.723 Y45.68 E817.64488
G0 F3600 X97.157 Y45.68
G1 F2400 X195.797 Y144.32 E824.25648
G0 F3600 X195.231 Y144.32
G1 F2400 X96.591 Y45.68 E830.86809
G0 F3600 X96.026 Y45.68
G1 F2400 X194.666 Y144.32 E837.4797
G0 F3600 X194.1 Y144.32
G1 F2400 X95.46 Y45.68 E844.0913
G0 F3600 X94.894 Y45.68
G1 F2400 X193.534 Y144.32 E850.70291
G0 F3600 X192.969 Y144.32
G1 F2400 X94.329 Y45.68 E857.31451
G0 F3600 X93.763 Y45.68
G1 F2400 X192.403 Y144.32 E863.92612
G0 F3600 X191.837 Y144.32
G1 F2400 X93.197 Y45.68 E870.53772
G0 F3600 X92.632 Y45.68
G1 F2400 X191.272 Y144.32 E877.14933
G0 F3600 X190.706 Y144.32
G1 F2400 X92.066 Y45.68 E883.76093
G0 F3600 X91.5 Y45.68
G1 F2400 X190.14 Y144.32 E890.37254
G0 F3600 X189.575 Y144.32
G1 F2400 X90.935 Y45.68 E896.98415
G0 F3600 X90.369 Y45.68
G1 F2400 X189.009 Y144.32 E903.59575
G0 F3600 X188.443 Y144.32
G1 F2400 X89.803 Y45.68 E910.20736
G0 F3600 X89.238 Y45.68
G1 F2400 X187.878 Y144.32 E916.81896
G0 F3600 X187.312 Y144.32
G1 F2400 X88.672 Y45.68 E923.43057
G0 F3600 X88.106 Y45.68
G1 F2400 X186.746 Y144.32 E930.04217
G0 F3600 X186.181 Y144.32
G1 F2400 X87.541 Y45.68 E936.65378
G0 F3600 X86.975 Y45.68
G1 F2400 X185.615 Y144.32 E943.26538
G0 F3600 X185.049 Y144.32
G1 F2400 X86.409 Y45.68 E949.87699
G0 F3600 X85.843 Y45.68
G1 F2400 X184.483 Y144.32 E956.4886
G0 F3600 X183.918 Y144.32
G1 F2400 X85.278 Y45.68 E963.1002
