;FLAVOR:Marlin
;TIME:3010
;Filament used: 6.11944m
;Layer height: 0.3
;MINX:89.3
;MINY:66.3
;MINZ:0.3
;MAXX:180.7
;MAXY:153.7
;MAXZ:6
;TARGET_MACHINE.NAME:Unknown
;Generated with Cura_SteamEngine 5.10.0
M104 S205
M105
M109 S205
G28 ;Home
G1 Z15.0 F6000 ;Move the platform down 15mm
;Prime the extruder
G92 E0
G1 F200 E3
G92 E0
M82 ;absolute extrusion mode
G92 E0
G92 E0
G1 F1500 E-6.5
;LAYER_COUNT:20
;LAYER:0
M107
G0 F3600 X89.954 Y67.584 Z0.3
;TYPE:SKIRT
G1 F1500 E0
G1 F2400 X90.289 Y67.205 E0.02524
G1 X90.68 Y66.885 E0.05044
G1 X91.116 Y66.629 E0.07567
G1 X91.587 Y66.446 E0.10088
G1 X92.081 Y66.339 E0.12609
G1 X92.739 Y66.302 E0.15897
G1 X176.838 Y66.3 E4.35469
G1 X177.536 Y66.31 E4.38952
G1 X178.039 Y66.357 E4.41472
G1 X178.529 Y66.483 E4.43996
G1 X178.993 Y66.685 E4.46521
G1 X179.419 Y66.957 E4.49043
G1 X179.797 Y67.292 E4.51563
G1 X180.117 Y67.683 E4.54083
G1 X180.372 Y68.12 E4.56607
G1 X180.555 Y68.591 E4.59128
G1 X180.662 Y69.085 E4.6165
G1 X180.698 Y69.739 E4.64918
G1 X180.7 Y149.806 E8.64374
G1 X180.69 Y150.534 E8.68006
G1 X180.643 Y151.037 E8.70527
G1 X180.517 Y151.527 E8.73051
G1 X180.316 Y151.991 E8.75573
G1 X180.045 Y152.417 E8.78092
G1 X179.709 Y152.796 E8.80619
G1 X179.318 Y153.116 E8.8314
G1 X178.882 Y153.371 E8.8566
G1 X178.411 Y153.555 E8.88183
G1 X177.916 Y153.661 E8.90708
G1 X177.283 Y153.698 E8.93872
G1 X93.162 Y153.7 E13.13553
G1 X92.464 Y153.69 E13.17036
G1 X91.961 Y153.643 E13.19556
G1 X91.471 Y153.517 E13.2208
G1 X91.007 Y153.315 E13.24605
G1 X90.581 Y153.043 E13.27127
G1 X90.203 Y152.708 E13.29647
G1 X89.883 Y152.317 E13.32167
G1 X89.628 Y151.88 E13.34692
G1 X89.445 Y151.409 E13.37213
G1 X89.338 Y150.915 E13.39734
G1 X89.301 Y150.444 E13.42091
G1 X89.3 Y70.146 E17.427
G1 X89.309 Y69.468 E17.46083
G1 X89.356 Y68.964 E17.48608
G1 X89.481 Y68.474 E17.51131
G1 X89.682 Y68.01 E17.53654
G1 X89.954 Y67.584 E17.56175
G1 F1500 E11.06175
;MESH:electronics_box_back_panel.stl
G0 F3600 X92.434 Y70.523
G0 X93.523 Y70.523
G0 X139.062 Y89.938
G0 X160.113 Y90.41
G0 X160.113 Y90.291
;TYPE:WALL-INNER
G1 F1500 E17.56175
G1 F2400 X159.975 Y90.381 E17.56997
G1 X159.589 Y90.497 E17.59008
G1 X139.407 Y90.5 E18.59696
G1 X139.115 Y90.424 E18.61202
G1 X138.9 Y90.301 E18.62437
G1 X138.669 Y90.058 E18.6411
G1 X138.576 Y89.885 E18.6509
G1 X138.502 Y89.569 E18.66709
G1 X138.506 Y84.382 E18.92587
G1 X138.576 Y84.115 E18.93964
G1 X138.757 Y83.829 E18.95653
G1 X139.076 Y83.594 E18.9763
G1 X139.389 Y83.506 E18.99252
G1 X145.632 Y83.5 E19.30398
G1 X145.788 Y83.018 E19.32926
G1 X146.175 Y82.257 E19.37185
G1 X146.687 Y81.65 E19.41147
G1 X147.083 Y81.315 E19.43735
G1 X147.659 Y80.944 E19.47153
G1 X148.403 Y80.645 E19.51153
G1 X149.192 Y80.506 E19.5515
G1 X149.999 Y80.522 E19.59177
G1 X150.949 Y80.769 E19.64074
G1 X151.663 Y81.135 E19.68077
G1 X152.279 Y81.614 E19.7197
G1 X152.808 Y82.238 E19.76052
G1 X153.19 Y82.945 E19.80061
G1 X153.359 Y83.5 E19.82955
G1 X159.609 Y83.505 E20.14137
G1 X160.009 Y83.638 E20.1624
G1 X160.33 Y83.941 E20.18442
G1 X160.438 Y84.151 E20.1962
G1 X160.498 Y84.423 E20.2101
G1 X160.496 Y89.595 E20.46813
G1 X160.351 Y90.027 E20.49086
G1 X160.113 Y90.291 E20.5086
G0 F3600 X159.844 Y89.993
G1 F2400 X159.554 Y90.098 E20.52398
G1 X139.42 Y90.095 E21.52847
G1 X139.201 Y90.021 E21.54
G1 X139.04 Y89.886 E21.55049
G1 X138.901 Y89.634 E21.56485
G1 X138.9 Y84.465 E21.82273
G1 X139.019 Y84.139 E21.84004
G1 X139.19 Y83.985 E21.85152
G1 X139.433 Y83.903 E21.86432
G1 X145.93 Y83.9 E22.18845
G1 X146.145 Y83.199 E22.22504
G1 X146.512 Y82.478 E22.2654
G1 X146.972 Y81.93 E22.30109
G1 X147.302 Y81.65 E22.32268
G1 X147.843 Y81.299 E22.35486
G1 X148.512 Y81.032 E22.39079
G1 X149.228 Y80.906 E22.42707
G1 X149.976 Y80.928 E22.4644
G1 X150.807 Y81.139 E22.50717
G1 X151.446 Y81.471 E22.5431
G1 X152.012 Y81.914 E22.57896
G1 X152.475 Y82.465 E22.61486
G1 X152.817 Y83.095 E22.65063
G1 X153.064 Y83.9 E22.69264
G1 X159.566 Y83.903 E23.01702
G1 X159.751 Y83.954 E23.0266
G1 X159.92 Y84.07 E23.03682
G1 X160.063 Y84.29 E23.04991
G1 X160.099 Y84.454 E23.05829
G1 X160.098 Y89.626 E23.31632
G1 X159.982 Y89.859 E23.32931
G1 X159.844 Y89.993 E23.33891
G0 F3600 X159.844 Y90.41
G0 X160.605 Y106.893
G0 X160.502 Y107.729
G0 X159.834 Y108.853
G0 X156.367 Y112.837
G0 X156.18 Y112.734
G1 F2400 X155.998 Y112.868 E23.35018
G1 X155.569 Y112.998 E23.37255
G1 X114.413 Y112.997 E25.42583
G1 X114.115 Y112.925 E25.44112
G1 X113.948 Y112.837 E25.45054
G1 X113.727 Y112.64 E25.46531
G1 X113.551 Y112.33 E25.48309
G1 X113.492 Y112.073 E25.49625
G1 X113.593 Y109.222 E25.63858
G1 X113.267 Y109.432 E25.65792
G1 X112.871 Y109.602 E25.67942
G1 X112.32 Y109.728 E25.70762
G1 X112.037 Y109.74 E25.72175
G1 X111.253 Y109.663 E25.76106
G1 X110.428 Y109.267 E25.80671
G1 X109.9 Y108.787 E25.84231
G1 X109.453 Y108.069 E25.88451
G1 X109.248 Y107.17 E25.93051
G1 X109.28 Y106.586 E25.95969
G1 X109.462 Y105.917 E25.99428
G1 X109.787 Y105.364 E26.02628
G1 X110.094 Y105.01 E26.04966
G1 X110.634 Y104.601 E26.08345
G1 X111.271 Y104.346 E26.11768
G1 X111.952 Y104.26 E26.15193
G1 X112.561 Y104.315 E26.18244
G1 X112.903 Y104.41 E26.20015
G1 X113.45 Y104.674 E26.23045
G1 X113.747 Y104.887 E26.24868
G1 X113.868 Y101.456 E26.41996
G1 X113.904 Y101.231 E26.43133
G1 X114.071 Y100.894 E26.45009
G1 X114.243 Y100.718 E26.46237
G1 X114.525 Y100.56 E26.4785
G1 X114.756 Y100.501 E26.49039
G1 X155.232 Y100.5 E28.50975
G1 X155.669 Y100.656 E28.5329
G1 X155.841 Y100.793 E28.54387
G1 X156.053 Y101.109 E28.56285
G1 X156.124 Y101.367 E28.5762
G1 X156.252 Y104.89 E28.75208
G1 X156.729 Y104.563 E28.78093
G1 X157.125 Y104.395 E28.8024
G1 X157.688 Y104.27 E28.83117
G1 X157.952 Y104.26 E28.84435
G1 X158.729 Y104.334 E28.88329
G1 X159.488 Y104.693 E28.92518
G1 X159.984 Y105.097 E28.95709
G1 X160.366 Y105.59 E28.98821
G1 X160.67 Y106.31 E29.0272
G1 X160.744 Y106.939 E29.0588
G1 X160.649 Y107.757 E29.09988
G1 X160.38 Y108.369 E29.13323
G1 X159.923 Y108.972 E29.17098
G1 X159.357 Y109.39 E29.20608
G1 X158.788 Y109.632 E29.23693
G1 X158.31 Y109.729 E29.26127
G1 X158.037 Y109.74 E29.2749
G1 X157.429 Y109.68 E29.30538
G1 X157.096 Y109.587 E29.32263
G1 X156.405 Y109.257 E29.36083
G1 X156.505 Y112.13 E29.50425
G1 X156.393 Y112.452 E29.52126
G1 X156.18 Y112.734 E29.53889
G0 F3600 X155.766 Y112.539
G1 F2400 X155.542 Y112.599 E29.55046
G1 X114.446 Y112.598 E31.60075
G1 X114.197 Y112.521 E31.61375
G1 X114.01 Y112.353 E31.62629
G1 X113.894 Y112.042 E31.64285
G1 X114.03 Y108.168 E31.83625
G1 X113.651 Y108.677 E31.86791
G1 X113.111 Y109.064 E31.90105
G1 X112.59 Y109.271 E31.92902
G1 X112.077 Y109.342 E31.95486
G1 X111.38 Y109.273 E31.9898
G1 X110.645 Y108.927 E32.03033
G1 X110.185 Y108.491 E32.06195
G1 X109.827 Y107.915 E32.09579
G1 X109.657 Y107.174 E32.13372
G1 X109.677 Y106.64 E32.16038
G1 X109.84 Y106.069 E32.19
G1 X110.112 Y105.598 E32.21714
G1 X110.348 Y105.327 E32.23507
G1 X110.824 Y104.957 E32.26514
G1 X111.334 Y104.744 E32.29272
G1 X111.829 Y104.65 E32.31785
G1 X112.524 Y104.713 E32.35267
G1 X112.729 Y104.771 E32.3633
G1 X113.355 Y105.073 E32.39797
G1 X113.755 Y105.441 E32.42509
G1 X113.967 Y105.721 E32.44261
G1 X114.107 Y106.003 E32.45832
G1 X114.271 Y101.394 E32.68841
G1 X114.346 Y101.202 E32.69869
G1 X114.548 Y100.991 E32.71327
G1 X114.837 Y100.9 E32.72838
G1 X155.219 Y100.906 E34.74305
G1 X155.455 Y100.993 E34.7556
G1 X155.591 Y101.112 E34.76461
G1 X155.727 Y101.42 E34.78141
G1 X155.889 Y105.982 E35.00915
G1 X156.079 Y105.649 E35.02828
G1 X156.32 Y105.355 E35.04725
G1 X156.815 Y104.959 E35.07887
G1 X157.412 Y104.724 E35.11088
G1 X157.915 Y104.658 E35.13619
G1 X158.636 Y104.726 E35.17232
G1 X159.332 Y105.065 E35.21095
G1 X159.701 Y105.379 E35.23512
G1 X160.019 Y105.802 E35.26152
G1 X160.262 Y106.37 E35.29234
G1 X160.349 Y106.904 E35.31934
G1 X160.258 Y107.658 E35.35723
G1 X160.043 Y108.155 E35.38424
G1 X159.645 Y108.68 E35.41711
G1 X159.165 Y109.039 E35.44701
G1 X158.665 Y109.252 E35.47413
G1 X158.077 Y109.342 E35.50381
G1 X157.468 Y109.282 E35.53434
G1 X157.269 Y109.226 E35.54465
G1 X156.725 Y108.966 E35.57473
G1 X156.256 Y108.569 E35.60539
G1 X155.966 Y108.141 E35.63118
G1 X156.099 Y112.046 E35.82611
G1 X155.987 Y112.352 E35.84237
G1 X155.766 Y112.539 E35.85681
G0 F3600 X155.766 Y112.91
G0 X160.605 Y137.393
G0 X160.502 Y138.229
G0 X159.834 Y139.353
G0 X156.367 Y143.337
G0 X155.895 Y143.419
G1 F2400 X155.641 Y143.5 E35.87011
G1 X114.339 Y143.5 E37.93068
G1 X113.932 Y143.327 E37.95274
G1 X113.792 Y143.211 E37.96181
G1 X113.602 Y142.949 E37.97796
G1 X113.49 Y142.628 E37.99492
G1 X113.593 Y139.722 E38.13999
G1 X113.267 Y139.932 E38.15934
G1 X112.871 Y140.102 E38.18084
G1 X112.32 Y140.228 E38.20904
G1 X112.037 Y140.24 E38.22317
G1 X111.255 Y140.163 E38.26237
G1 X110.407 Y139.758 E38.30926
G1 X109.864 Y139.238 E38.34677
G1 X109.454 Y138.572 E38.38579
G1 X109.252 Y137.705 E38.4302
G1 X109.28 Y137.086 E38.46111
G1 X109.462 Y136.417 E38.4957
G1 X109.787 Y135.864 E38.5277
G1 X110.094 Y135.51 E38.55108
G1 X110.634 Y135.101 E38.58488
G1 X111.271 Y134.846 E38.61911
G1 X111.952 Y134.76 E38.65335
G1 X112.561 Y134.815 E38.68386
G1 X112.903 Y134.91 E38.70157
G1 X113.45 Y135.174 E38.73187
G1 X113.747 Y135.387 E38.7501
G1 X113.868 Y131.956 E38.92138
G1 X113.955 Y131.59 E38.94015
G1 X114.074 Y131.39 E38.95176
G1 X114.245 Y131.216 E38.96393
G1 X114.453 Y131.089 E38.97609
G1 X114.762 Y131.005 E38.99207
G1 X155.28 Y131 E41.01352
G1 X155.607 Y131.119 E41.03088
G1 X155.754 Y131.216 E41.03967
G1 X156.009 Y131.517 E41.05935
G1 X156.127 Y131.836 E41.07632
G1 X156.252 Y135.39 E41.25374
G1 X156.729 Y135.063 E41.28259
G1 X157.125 Y134.895 E41.30405
G1 X157.688 Y134.77 E41.33282
G1 X157.952 Y134.76 E41.346
G1 X158.729 Y134.834 E41.38494
G1 X159.562 Y135.228 E41.43092
G1 X159.984 Y135.597 E41.45888
G1 X160.366 Y136.09 E41.49
G1 X160.67 Y136.811 E41.52904
G1 X160.744 Y137.45 E41.56113
G1 X160.649 Y138.265 E41.60207
G1 X160.399 Y138.849 E41.63376
G1 X159.937 Y139.461 E41.67201
G1 X159.353 Y139.897 E41.70837
G1 X158.788 Y140.132 E41.7389
G1 X158.31 Y140.229 E41.76324
G1 X158.037 Y140.24 E41.77687
G1 X157.429 Y140.18 E41.80735
G1 X157.096 Y140.087 E41.8246
G1 X156.405 Y139.757 E41.8628
G1 X156.505 Y142.63 E42.00622
G1 X156.394 Y142.95 E42.02312
G1 X156.204 Y143.211 E42.03923
G1 X155.895 Y143.419 E42.05781
G0 F3600 X155.923 Y142.927
G1 F2400 X155.737 Y143.052 E42.06899
G1 X155.584 Y143.1 E42.07699
G1 X114.411 Y143.1 E44.13112
G1 X114.157 Y142.996 E44.14481
G1 X114.007 Y142.85 E44.15526
G1 X113.899 Y142.566 E44.17042
G1 X114.03 Y138.668 E44.365
G1 X113.651 Y139.177 E44.39666
G1 X113.111 Y139.564 E44.4298
G1 X112.59 Y139.771 E44.45777
G1 X112.077 Y139.842 E44.48361
G1 X111.381 Y139.773 E44.5185
G1 X110.642 Y139.428 E44.55919
G1 X110.199 Y139.009 E44.58961
G1 X109.828 Y138.419 E44.62438
G1 X109.66 Y137.696 E44.66142
G1 X109.677 Y137.14 E44.68917
G1 X109.84 Y136.569 E44.71879
G1 X110.112 Y136.098 E44.74593
G1 X110.348 Y135.827 E44.76386
G1 X110.824 Y135.457 E44.79393
G1 X111.334 Y135.244 E44.82151
G1 X111.829 Y135.15 E44.84665
G1 X112.524 Y135.213 E44.88146
G1 X112.729 Y135.271 E44.89209
G1 X113.355 Y135.573 E44.92677
G1 X113.755 Y135.941 E44.95388
G1 X113.967 Y136.221 E44.9714
G1 X114.107 Y136.503 E44.98711
G1 X114.271 Y131.894 E45.2172
G1 X114.346 Y131.702 E45.22749
G1 X114.52 Y131.51 E45.24041
G1 X114.845 Y131.4 E45.25753
G1 X155.155 Y131.4 E47.2686
G1 X155.341 Y131.437 E47.27807
G1 X155.583 Y131.603 E47.29271
G1 X155.727 Y131.92 E47.31008
G1 X155.889 Y136.482 E47.53782
G1 X156.079 Y136.149 E47.55695
G1 X156.32 Y135.855 E47.57591
G1 X156.815 Y135.459 E47.60754
G1 X157.412 Y135.224 E47.63955
G1 X157.915 Y135.158 E47.66486
G1 X158.635 Y135.226 E47.70094
G1 X159.314 Y135.554 E47.73856
G1 X159.701 Y135.879 E47.76377
G1 X160.019 Y136.302 E47.79017
G1 X160.262 Y136.87 E47.821
G1 X160.348 Y137.401 E47.84783
G1 X160.254 Y138.155 E47.88574
G1 X160.053 Y138.646 E47.91221
G1 X159.635 Y139.187 E47.94632
G1 X159.18 Y139.53 E47.97475
G1 X158.665 Y139.752 E48.00273
G1 X158.077 Y139.842 E48.0324
G1 X157.468 Y139.782 E48.06293
G1 X157.269 Y139.726 E48.07325
G1 X156.725 Y139.466 E48.10333
G1 X156.256 Y139.069 E48.13398
G1 X155.966 Y138.641 E48.15978
G1 X156.099 Y142.546 E48.35471
G1 X156.037 Y142.77 E48.36631
G1 X155.923 Y142.927 E48.37599
G0 F3600 X155.923 Y143.41
G0 X174.738 Y148.497
G1 F2171.9 X173.928 Y148.469 E48.42067
G1 F2285.7 X173.272 Y148.23 E48.45724
G1 F2400 X172.76 Y147.937 E48.48667
G1 X172.265 Y147.497 E48.51971
G1 X171.921 Y147.029 E48.54869
G1 X171.667 Y146.483 E48.57873
G1 X171.546 Y146.027 E48.60227
G1 X171.501 Y145.45 E48.63115
G1 X171.55 Y144.907 E48.65835
G1 X171.733 Y144.332 E48.68845
G1 X172.078 Y143.72 E48.7235
G1 X172.503 Y143.255 E48.75493
G1 X172.985 Y142.908 E48.78456
G1 X173.553 Y142.642 E48.81585
G1 X174.407 Y142.491 E48.85912
G1 X175.109 Y142.564 E48.89433
G1 X175.497 Y142.672 E48.91442
G1 X175.9 Y142.868 E48.93678
G1 X175.9 Y77.147 E52.21562
G1 X175.414 Y77.354 E52.24197
G1 X174.732 Y77.497 E52.27673
G1 X173.982 Y77.461 E52.3142
G1 X173.371 Y77.279 E52.346
G1 X172.625 Y76.854 E52.38884
G1 X172.178 Y76.399 E52.42066
G1 X171.867 Y75.942 E52.44824
G1 X171.638 Y75.407 E52.47727
G1 X171.521 Y74.85 E52.50567
G1 X171.501 Y74.45 E52.52565
G1 X171.543 Y73.985 E52.54894
G1 X171.723 Y73.334 E52.58264
G1 X172.102 Y72.681 E52.6203
G1 X172.588 Y72.19 E52.65477
G1 X173.081 Y71.858 E52.68442
G1 F2232.6 X173.676 Y71.589 E52.71945
G1 F2152.5 X174.369 Y71.496 E52.75834
G1 F2222.2 X175.017 Y71.527 E52.7933
G1 F2069 X175.533 Y71.633 E52.82378
G1 F1935.5 X175.852 Y71.785 E52.84564
G1 F2016.8 X175.852 Y71.163 E52.88257
G1 F2171.9 X174.642 Y71.091 E52.94939
G1 F2162.2 X173.636 Y71.131 E53.00515
G1 F2201.8 X173.312 Y71.105 E53.02282
G1 F2347.2 X154.128 Y71.103 E54.00145
G1 F2364.5 X134.944 Y71.101 E54.9729
G1 F2376.2 X115.76 Y71.099 E55.93957
G1 F2394 X96.576 Y71.097 E56.89905
G1 F2291.2 X96.172 Y71.116 E56.92019
G1 F2285.7 X95.444 Y71.098 E56.95834
G1 F2138.1 X94.145 Y71.145 E57.03113
G1 F1935.5 X94.144 Y71.776 E57.07017
G1 F2021.1 X94.512 Y71.61 E57.09408
G1 F2176.9 X95.378 Y71.494 E57.14214
G1 F2217.1 X96.114 Y71.546 E57.18199
G1 F2291.2 X96.728 Y71.77 E57.21615
G1 F2400 X97.36 Y72.135 E57.25256
G1 X97.86 Y72.65 E57.28837
G1 X98.173 Y73.145 E57.31759
G1 X98.329 Y73.513 E57.33753
G1 X98.45 Y73.969 E57.36107
G1 X98.495 Y74.546 E57.38994
G1 X98.446 Y75.09 E57.41719
G1 X98.263 Y75.668 E57.44744
G1 X97.951 Y76.23 E57.47951
G1 X97.443 Y76.784 E57.51701
G1 X96.957 Y77.118 E57.54643
G1 X96.414 Y77.354 E57.57597
G1 X95.733 Y77.497 E57.61068
G1 X95.104 Y77.468 E57.6421
G1 X94.497 Y77.324 E57.67322
G1 X94.096 Y77.128 E57.69549
G1 X94.096 Y142.851 E60.97442
G1 X94.681 Y142.619 E61.00582
G1 X95.407 Y142.491 E61.0426
G1 X96.109 Y142.564 E61.07781
G1 X96.627 Y142.718 E61.10477
G1 X97.348 Y143.127 E61.14613
G1 X97.796 Y143.565 E61.17738
G1 X98.112 Y144.023 E61.20514
G1 X98.355 Y144.58 E61.23546
G1 X98.45 Y144.969 E61.25544
G1 X98.495 Y145.546 E61.28431
G1 X98.453 Y146.011 E61.30761
G1 X98.302 Y146.562 E61.33611
G1 X97.983 Y147.192 E61.37134
G1 X97.396 Y147.84 E61.41496
G1 X96.786 Y148.206 E61.45045
G1 X96.414 Y148.354 E61.47043
G1 F2358.7 X95.761 Y148.498 E61.50437
G1 F2285.7 X94.974 Y148.47 E61.54563
G1 F2077.9 X94.465 Y148.364 E61.57558
G1 F1931.6 X94.144 Y148.211 E61.59763
G1 X94.145 Y148.851 E61.6373
G1 F2051.3 X94.817 Y148.881 E61.67657
G1 F2274.9 X95.652 Y148.898 E61.72052
G1 F2382.1 X134.535 Y148.899 E63.67495
G1 F2394 X173.418 Y148.9 E65.61968
G1 F2285.7 X173.817 Y148.881 E65.64061
G1 F2274.9 X174.652 Y148.898 E65.68457
G1 F2123.9 X175.851 Y148.851 E65.75221
G1 F1923.8 X175.851 Y148.228 E65.79099
G1 F1951.2 X175.429 Y148.393 E65.81879
G1 F2069 X174.738 Y148.497 E65.85923
G0 F3600 X175.148 Y148.015
G1 F2400 X174.623 Y148.092 E65.88571
G1 X174.123 Y148.068 E65.91068
G1 X173.539 Y147.922 E65.94071
G1 X172.885 Y147.548 E65.9783
G1 X172.474 Y147.126 E66.00769
G1 X172.191 Y146.695 E66.03341
G1 X172.003 Y146.229 E66.05848
G1 X171.92 Y145.83 E66.07881
G1 X171.9 Y145.43 E66.0988
G1 X171.94 Y145.034 E66.11865
G1 X172.101 Y144.48 E66.14744
G1 X172.422 Y143.933 E66.17908
G1 X172.755 Y143.572 E66.20358
G1 X173.189 Y143.252 E66.23048
