;FLAVOR:Marlin
;TIME:9577
;Filament used: 18.7534m
;Layer height: 0.3
;MINX:57.299
;MINY:59.549
;MINZ:0.3
;MAXX:212.701
;MAXY:160.451
;MAXZ:101.1
;TARGET_MACHINE.NAME:Unknown
;Generated with Cura_SteamEngine 5.10.0
M104 S205
M105
M109 S205
G28 ;Home
G1 Z15.0 F6000 ;Move the platform down 15mm
;Prime the extruder
G92 E0
G1 F200 E3
G92 E0
M82 ;absolute extrusion mode
G92 E0
G92 E0
G1 F1500 E-6.5
;LAYER_COUNT:337
;LAYER:0
M107
G0 F3600 X58.288 Y60.453 Z0.3
;TYPE:SKIRT
G1 F1500 E0
G1 F2400 X58.679 Y60.132 E0.02398
G1 X59.116 Y59.877 E0.04796
G1 X59.587 Y59.693 E0.07192
G1 X60.081 Y59.587 E0.09587
G1 X60.526 Y59.55 E0.11703
G1 X208.84 Y59.549 E7.14648
G1 X209.538 Y59.559 E7.17956
G1 X210.041 Y59.606 E7.20351
G1 X210.531 Y59.732 E7.22749
G1 X210.995 Y59.934 E7.25147
G1 X211.421 Y60.206 E7.27543
G1 X211.799 Y60.541 E7.29937
G1 X212.119 Y60.932 E7.32331
G1 X212.374 Y61.369 E7.34729
G1 X212.557 Y61.84 E7.37124
G1 X212.664 Y62.334 E7.3952
G1 X212.7 Y62.989 E7.42629
G1 X212.701 Y156.555 E11.86092
G1 X212.692 Y157.282 E11.89537
G1 X212.646 Y157.785 E11.91931
G1 X212.521 Y158.275 E11.94328
G1 X212.32 Y158.739 E11.96725
G1 X212.049 Y159.166 E11.99122
G1 X211.714 Y159.545 E12.01519
G1 X211.324 Y159.866 E12.03913
G1 X210.888 Y160.122 E12.0631
G1 X210.417 Y160.305 E12.08705
G1 X209.923 Y160.413 E12.11101
G1 X209.261 Y160.45 E12.14244
G1 X61.165 Y160.451 E19.16155
G1 X60.467 Y160.442 E19.19463
G1 X59.963 Y160.395 E19.21862
G1 X59.473 Y160.27 E19.24259
G1 X59.009 Y160.069 E19.26656
G1 X58.583 Y159.798 E19.29049
G1 X58.204 Y159.463 E19.31446
G1 X57.883 Y159.072 E19.33844
G1 X57.628 Y158.636 E19.36238
G1 X57.444 Y158.165 E19.38635
G1 X57.337 Y157.671 E19.4103
G1 X57.3 Y157.218 E19.43184
G1 X57.299 Y63.38 E23.87936
G1 X57.308 Y62.715 E23.91088
G1 X57.355 Y62.211 E23.93487
G1 X57.481 Y61.722 E23.95881
G1 X57.682 Y61.258 E23.98277
G1 X57.953 Y60.831 E24.00674
G1 X58.288 Y60.453 E24.03068
G1 F1500 E17.53068
;MESH:electronics_box_top.stl
G0 F3600 X61.523 Y62.684
G0 X69.338 Y84.06
;TYPE:WALL-INNER
G1 F1500 E24.03068
G1 F1531.1 X69.4 Y84.06 E24.03529
G1 F1536 X88.151 Y84.06 E25.42391
G1 F1533.5 X106.902 Y84.061 E26.81475
G1 F1528.7 X125.653 Y84.061 E28.21003
G1 F1526.2 X144.404 Y84.061 E29.60754
G1 F1523.8 X163.155 Y84.061 E31.00727
G1 F1519 X181.906 Y84.062 E32.41144
G1 F1516.6 X200.657 Y84.062 E33.81784
G0 F3600 X201.038 Y91.913
G0 X200.6 Y92.186
G1 F1526.2 X167.784 Y92.186 E36.2636
G1 F1523.8 X134.968 Y92.186 E38.71326
G1 F1519 X102.152 Y92.186 E41.17069
G1 F1516.6 X69.336 Y92.186 E43.63201
G0 F3600 X68.963 Y100.037
G0 X69.338 Y100.31
G1 F1516.6 X88.09 Y100.31 E45.03848
G1 F1519 X106.842 Y100.311 E46.44273
G1 F1523.8 X125.594 Y100.311 E47.84253
G1 F1526.2 X144.346 Y100.311 E49.24011
G1 F1528.7 X163.098 Y100.311 E50.63547
G1 F1533.5 X181.85 Y100.312 E52.02639
G1 F1536 X200.602 Y100.312 E53.41508
G0 F3600 X201.038 Y108.163
G0 X200.66 Y108.436
G1 F1523.8 X69.338 Y108.436 E63.21804
G0 F3600 X68.963 Y116.287
G0 X69.338 Y116.56
G1 F1526.2 X102.154 Y116.56 E65.6638
G1 F1528.7 X134.97 Y116.56 E68.10568
G1 F1533.5 X167.786 Y116.56 E70.53978
G1 F1536 X200.602 Y116.56 E72.97
G0 F3600 X201.038 Y124.413
G0 X200.6 Y124.686
G1 F1526.2 X167.784 Y124.686 E75.41577
G1 F1523.8 X134.968 Y124.686 E77.86542
G1 F1519 X102.152 Y124.686 E80.32285
G1 F1516.6 X69.336 Y124.686 E82.78418
G0 F3600 X68.963 Y132.537
G0 X69.338 Y132.81
G1 F1516.6 X88.09 Y132.81 E84.19064
G1 F1519 X106.842 Y132.811 E85.59489
G1 F1523.8 X125.594 Y132.811 E86.99469
G1 F1526.2 X144.346 Y132.811 E88.39228
G1 F1528.7 X163.098 Y132.811 E89.78764
G1 F1533.5 X181.85 Y132.812 E91.17855
G1 F1536 X200.602 Y132.812 E92.56725
G0 F3600 X201.038 Y140.663
G0 X200.6 Y140.936
G1 F1536 X167.784 Y140.936 E94.99746
G1 F1533.5 X134.968 Y140.936 E97.43156
G1 F1528.7 X102.152 Y140.936 E99.87344
G1 F1526.2 X69.336 Y140.936 E102.31921
G0 F3600 X68.963 Y148.787
G0 X208.021 Y155.771
G0 X208.3 Y156.048
G1 F2400 X208.3 Y63.948 E106.68435
G1 X61.697 Y63.949 E113.6327
G1 X61.696 Y156.048 E117.9978
G1 X208.3 Y156.048 E124.9462
G0 F3600 X208.021 Y155.771
G0 X201.51 Y148.773
G0 X201.025 Y148.773
G1 F2400 X200.839 Y148.899 E124.95684
G1 X200.685 Y148.948 E124.9645
G1 X69.313 Y148.948 E131.19097
G1 X69.161 Y148.899 E131.19854
G1 X68.975 Y148.773 E131.20919
G1 X68.849 Y148.587 E131.21984
G1 X68.8 Y148.433 E131.2275
G1 X68.8 Y141.569 E131.55282
G1 X68.867 Y141.371 E131.56273
G1 X68.983 Y141.216 E131.5719
G1 F1864.1 X69.338 Y140.936 E131.59949
G1 X68.983 Y140.656 E131.62708
G1 F2400 X68.867 Y140.501 E131.63626
G1 X68.8 Y140.303 E131.64617
G1 X68.8 Y133.445 E131.9712
G1 X68.867 Y133.247 E131.98111
G1 X68.984 Y133.091 E131.99035
G1 F1856.9 X69.338 Y132.81 E132.01804
G1 X68.984 Y132.529 E132.04573
G1 F2400 X68.867 Y132.373 E132.05497
G1 X68.8 Y132.175 E132.06488
G1 X68.8 Y125.321 E132.38973
G1 X68.867 Y125.123 E132.39963
G1 X68.984 Y124.967 E132.40888
G1 F1856.9 X69.338 Y124.686 E132.43656
G1 X68.984 Y124.405 E132.46425
G1 F2400 X68.867 Y124.249 E132.47349
G1 X68.8 Y124.051 E132.4834
G1 X68.8 Y117.193 E132.80844
G1 X68.867 Y116.995 E132.81835
G1 X68.983 Y116.84 E132.82752
G1 F1864.1 X69.338 Y116.56 E132.85511
G1 X68.983 Y116.28 E132.8827
G1 F2400 X68.867 Y116.125 E132.89188
G1 X68.8 Y115.927 E132.90179
G1 X68.8 Y109.069 E133.22683
G1 X68.867 Y108.871 E133.23673
G1 X68.983 Y108.716 E133.24591
G1 F1864.1 X69.338 Y108.436 E133.2735
G1 X68.983 Y108.156 E133.30109
G1 F2400 X68.867 Y108.001 E133.31026
G1 X68.8 Y107.803 E133.32017
G1 X68.8 Y100.945 E133.64521
G1 X68.867 Y100.747 E133.65512
G1 X68.984 Y100.591 E133.66436
G1 F1856.9 X69.338 Y100.31 E133.69205
G1 X68.984 Y100.029 E133.71974
G1 F2400 X68.867 Y99.873 E133.72898
G1 X68.8 Y99.675 E133.73888
G1 X68.8 Y92.821 E134.06373
G1 X68.867 Y92.623 E134.07364
G1 X68.984 Y92.467 E134.08288
G1 F1856.9 X69.338 Y92.186 E134.11057
G1 X68.984 Y91.905 E134.13826
G1 F2400 X68.867 Y91.749 E134.1475
G1 X68.8 Y91.551 E134.15741
G1 X68.8 Y84.693 E134.48245
G1 X68.867 Y84.495 E134.49235
G1 X68.983 Y84.34 E134.50153
G1 F1864.1 X69.338 Y84.06 E134.52912
G1 X68.983 Y83.78 E134.55671
G1 F2400 X68.867 Y83.625 E134.56589
G1 X68.8 Y83.427 E134.57579
G1 X68.8 Y76.566 E134.90097
G1 X68.896 Y76.321 E134.91345
G1 X69.035 Y76.171 E134.92314
G1 X69.329 Y76.052 E134.93817
G1 X200.667 Y76.052 E141.16303
G1 X200.961 Y76.171 E141.17806
G1 X201.1 Y76.321 E141.18775
G1 X201.196 Y76.557 E141.19983
G1 X201.2 Y83.426 E141.52539
G1 X201.132 Y83.627 E141.53545
G1 X201.015 Y83.782 E141.54465
G1 F1856.9 X200.66 Y84.062 E141.57235
G1 X201.014 Y84.345 E141.60011
G1 F2400 X201.129 Y84.5 E141.60926
G1 X201.196 Y84.699 E141.61921
G1 X201.2 Y91.551 E141.94397
G1 X201.133 Y91.749 E141.95387
G1 X201.016 Y91.905 E141.96311
G1 F1867.7 X200.6 Y92.186 E141.99369
G1 X201.016 Y92.467 E142.02426
G1 F2400 X201.133 Y92.623 E142.03351
G1 X201.2 Y92.821 E142.04341
G1 X201.2 Y99.679 E142.36845
G1 X201.133 Y99.877 E142.37836
G1 X201.017 Y100.032 E142.38753
G1 F1875 X200.6 Y100.312 E142.41801
G1 X201.017 Y100.592 E142.44848
G1 F2400 X201.133 Y100.747 E142.45765
G1 X201.2 Y100.945 E142.46756
G1 X201.2 Y107.815 E142.79317
G1 X201.132 Y108.002 E142.8026
G1 X201.016 Y108.157 E142.81178
G1 F1864.1 X200.66 Y108.436 E142.83938
G1 X201.015 Y108.717 E142.867
G1 F2400 X201.13 Y108.873 E142.87619
G1 X201.196 Y109.071 E142.88608
G1 X201.2 Y115.927 E143.21103
G1 X201.133 Y116.125 E143.22093
G1 X201.017 Y116.28 E143.23011
G1 F1875 X200.6 Y116.56 E143.26058
G1 X201.017 Y116.84 E143.29105
G1 F2400 X201.133 Y116.995 E143.30023
G1 X201.2 Y117.193 E143.31014
G1 X201.2 Y124.051 E143.63518
G1 X201.133 Y124.249 E143.64508
G1 X201.016 Y124.405 E143.65433
G1 F1867.7 X200.6 Y124.686 E143.6849
G1 X201.016 Y124.967 E143.71547
G1 F2400 X201.133 Y125.123 E143.72472
G1 X201.2 Y125.321 E143.73462
G1 X201.2 Y132.179 E144.05966
G1 X201.133 Y132.377 E144.06957
G1 X201.017 Y132.532 E144.07875
G1 F1875 X200.6 Y132.812 E144.10922
G1 X201.017 Y133.092 E144.13969
G1 F2400 X201.133 Y133.247 E144.14886
G1 X201.2 Y133.445 E144.15877
G1 X201.2 Y140.303 E144.48381
G1 X201.133 Y140.501 E144.49372
G1 X201.017 Y140.656 E144.50289
G1 F1875 X200.6 Y140.936 E144.53337
G1 X201.017 Y141.216 E144.56384
G1 F2400 X201.133 Y141.371 E144.57301
G1 X201.2 Y141.569 E144.58292
G1 X201.2 Y148.426 E144.90791
G1 X201.151 Y148.587 E144.91589
G1 X201.025 Y148.773 E144.92654
G0 F3600 X200.798 Y148.383
;TYPE:WALL-OUTER
G1 F2400 X200.742 Y148.49 E144.93226
G1 X200.635 Y148.545 E144.93796
G1 X69.358 Y148.544 E151.15993
G1 X69.258 Y148.49 E151.16531
G1 X69.203 Y148.383 E151.17102
G1 X69.202 Y141.613 E151.49189
G1 X69.261 Y141.504 E151.49776
G1 X69.382 Y141.448 E151.50408
G1 X200.6 Y141.448 E157.72325
G1 X200.739 Y141.504 E157.73035
G1 X200.798 Y141.613 E157.73622
G1 X200.798 Y148.383 E158.05709
G0 F3600 X200.742 Y148.49
G0 X200.672 Y148.526
G0 X200.671 Y148.859
G0 X201.11 Y140.259
G0 X200.798 Y140.259
G1 F2400 X200.739 Y140.368 E158.06297
G1 X200.6 Y140.424 E158.07007
G1 X69.382 Y140.424 E164.28924
G1 X69.261 Y140.368 E164.29556
G1 X69.202 Y140.259 E164.30143
G1 X69.202 Y133.489 E164.6223
G1 X69.261 Y133.379 E164.62822
G1 X69.382 Y133.324 E164.63452
G1 X200.6 Y133.324 E170.85368
G1 X200.739 Y133.38 E170.86079
G1 X200.798 Y133.489 E170.86666
G1 X200.798 Y140.259 E171.18753
G0 F3600 X200.739 Y140.368
G0 X200.669 Y140.396
G0 X200.669 Y140.735
G0 X201.11 Y132.135
G0 X200.798 Y132.135
G1 F2400 X200.739 Y132.244 E171.1934
G1 X200.6 Y132.3 E171.20051
G1 X69.382 Y132.296 E177.41967
G1 X69.261 Y132.241 E177.42597
G1 X69.202 Y132.131 E177.43189
G1 X69.202 Y125.365 E177.75257
G1 X69.261 Y125.255 E177.75849
G1 X69.382 Y125.2 E177.76478
G1 X200.6 Y125.2 E183.98395
G1 X200.739 Y125.255 E183.99104
G1 X200.798 Y125.365 E183.99695
G1 X200.798 Y132.135 E184.31782
G0 F3600 X200.739 Y132.244
G0 X200.669 Y132.272
G0 X200.668 Y132.609
G0 X201.11 Y124.007
G0 X200.798 Y124.007
G1 F2400 X200.739 Y124.117 E184.32374
G1 X200.6 Y124.172 E184.33082
G1 X69.382 Y124.172 E190.54999
G1 X69.261 Y124.117 E190.55629
G1 X69.202 Y124.007 E190.56221
G1 X69.202 Y117.237 E190.88308
G1 X69.261 Y117.128 E190.88895
G1 X69.382 Y117.072 E190.89527
G1 X200.6 Y117.072 E197.11444
G1 X200.739 Y117.128 E197.12154
G1 X200.798 Y117.237 E197.12741
G1 X200.798 Y124.007 E197.44828
G0 F3600 X200.739 Y124.117
G0 X200.67 Y124.144
G0 X200.669 Y124.484
G0 X201.11 Y115.883
G0 X200.798 Y115.883
G1 F2400 X200.739 Y115.992 E197.45416
G1 X200.6 Y116.048 E197.46126
G1 X69.382 Y116.048 E203.68043
G1 X69.261 Y115.992 E203.68675
G1 X69.202 Y115.883 E203.69262
G1 X69.202 Y109.113 E204.01349
G1 X69.261 Y109.004 E204.01937
G1 X69.382 Y108.948 E204.02568
G1 X200.614 Y108.948 E210.24552
G1 X200.736 Y109.004 E210.25188
G1 X200.794 Y109.114 E210.25777
G1 X200.798 Y115.883 E210.57859
G0 F3600 X200.739 Y115.992
G0 X200.669 Y116.02
G0 X200.668 Y116.359
G0 X201.11 Y107.775
G0 X200.794 Y107.775
G1 F2400 X200.739 Y107.869 E210.58376
G1 X200.617 Y107.924 E210.5901
G1 X69.382 Y107.924 E216.81007
G1 X69.261 Y107.868 E216.81639
G1 X69.202 Y107.759 E216.82227
G1 X69.202 Y100.989 E217.14313
G1 X69.261 Y100.879 E217.14905
G1 X69.382 Y100.824 E217.15535
G1 X200.6 Y100.824 E223.37452
G1 X200.739 Y100.88 E223.38162
G1 X200.798 Y100.989 E223.3875
G1 X200.794 Y107.775 E223.70912
G0 F3600 X200.739 Y107.869
G0 X200.657 Y107.906
G0 X200.657 Y108.235
G0 X201.11 Y99.635
G0 X200.798 Y99.635
G1 F2400 X200.739 Y99.744 E223.715
G1 X200.6 Y99.8 E223.7221
G1 X69.382 Y99.796 E229.94127
G1 X69.261 Y99.741 E229.94757
G1 X69.202 Y99.631 E229.95348
G1 X69.202 Y92.865 E230.27416
G1 X69.261 Y92.755 E230.28008
G1 X69.382 Y92.7 E230.28638
G1 X200.6 Y92.7 E236.50555
G1 X200.739 Y92.755 E236.51263
G1 X200.798 Y92.865 E236.51855
G1 X200.798 Y99.635 E236.83942
G0 F3600 X200.739 Y99.744
G0 X200.669 Y99.772
G0 X200.668 Y100.109
G0 X201.11 Y91.507
G0 X200.798 Y91.507
G1 F2400 X200.739 Y91.617 E236.84533
G1 X200.6 Y91.672 E236.85242
G1 X69.382 Y91.672 E243.07158
G1 X69.261 Y91.617 E243.07788
G1 X69.202 Y91.507 E243.0838
G1 X69.202 Y84.737 E243.40467
G1 X69.261 Y84.628 E243.41054
G1 X69.382 Y84.572 E243.41686
G1 X200.614 Y84.576 E249.63669
G1 X200.736 Y84.632 E249.64306
G1 X200.794 Y84.742 E249.64895
G1 X200.798 Y91.507 E249.96958
G0 F3600 X200.739 Y91.617
G0 X200.67 Y91.644
G0 X200.669 Y91.984
G0 X201.11 Y83.347
G0 X200.8 Y83.347
G1 F2400 X200.739 Y83.493 E249.97708
G1 X200.617 Y83.548 E249.98342
G1 X69.382 Y83.548 E256.2034
G1 X69.261 Y83.492 E256.20972
G1 X69.202 Y83.383 E256.21559
G1 X69.203 Y76.608 E256.5367
G1 X69.253 Y76.511 E256.54187
G1 X69.376 Y76.449 E256.5484
G1 X200.62 Y76.449 E262.7688
G1 X200.743 Y76.511 E262.77533
G1 X200.793 Y76.608 E262.7805
G1 X200.8 Y83.347 E263.0999
G0 F3600 X200.739 Y83.493
G0 X200.701 Y83.51
G0 X200.7 Y83.859
G0 X208.421 Y156.171
G0 X208.7 Y156.448
G1 F2400 X208.7 Y63.548 E267.50296
G1 X61.297 Y63.549 E274.48923
G1 X61.296 Y156.448 E278.89224
G1 X208.7 Y156.448 E285.87855
G0 F3600 X208.7 Y156.248
G0 X208.421 Y156.171
G0 X201.158 Y149.259
G0 X201.159 Y149.153
;TYPE:SKIN
G1 F2400 X201.406 Y148.901 E285.89528
G1 X201.578 Y148.495 E285.91618
G1 X201.577 Y141.508 E286.24733
G1 X201.482 Y141.222 E286.26161
G1 X201.263 Y140.936 E286.27869
G1 X201.474 Y140.665 E286.29496
G1 X201.575 Y140.371 E286.3097
G1 X201.577 Y133.384 E286.64085
G1 X201.482 Y133.098 E286.65513
G1 X201.263 Y132.812 E286.67221
G1 X201.474 Y132.541 E286.68849
G1 X201.575 Y132.247 E286.70322
G1 X201.577 Y125.259 E287.03442
G1 X201.469 Y124.953 E287.0498
G1 X201.257 Y124.684 E287.06603
G1 X201.469 Y124.419 E287.08212
G1 X201.575 Y124.119 E287.0972
G1 X201.577 Y117.132 E287.42835
G1 X201.482 Y116.846 E287.44264
G1 X201.263 Y116.56 E287.45971
G1 X201.474 Y116.289 E287.47599
G1 X201.575 Y115.995 E287.49072
G1 X201.571 Y109.002 E287.82216
G1 X201.47 Y108.707 E287.83694
G1 X201.261 Y108.436 E287.85316
G1 X201.473 Y108.171 E287.86924
G1 X201.575 Y107.871 E287.88426
G1 X201.577 Y100.884 E288.21541
G1 X201.482 Y100.598 E288.2297
G1 X201.263 Y100.312 E288.24677
G1 X201.474 Y100.041 E288.26305
G1 X201.575 Y99.747 E288.27778
G1 X201.577 Y92.759 E288.60898
G1 X201.469 Y92.453 E288.62436
G1 X201.257 Y92.184 E288.6406
G1 X201.469 Y91.919 E288.65668
G1 X201.575 Y91.619 E288.67176
G1 X201.573 Y84.637 E289.00268
G1 X201.469 Y84.329 E289.01808
G1 X201.26 Y84.064 E289.03408
G1 X201.517 Y83.69 E289.05559
G1 X201.578 Y83.373 E289.07089
G1 X201.573 Y76.492 E289.39702
G1 X201.417 Y76.111 E289.41653
G1 X201.19 Y75.865 E289.4324
G1 X200.939 Y75.728 E289.44595
G1 X200.713 Y75.673 E289.45697
G1 X69.279 Y75.673 E295.68638
G1 X69.057 Y75.728 E295.69722
G1 X68.802 Y75.865 E295.71094
G1 X68.574 Y76.118 E295.72708
G1 X68.423 Y76.506 E295.74681
G1 X68.425 Y83.494 E296.07801
G1 X68.514 Y83.767 E296.09162
G1 X68.735 Y84.06 E296.10902
G1 X68.522 Y84.329 E296.12528
G1 X68.425 Y84.622 E296.13991
G1 X68.42 Y91.572 E296.46931
G1 X68.518 Y91.894 E296.48526
G1 X68.737 Y92.184 E296.50248
G1 X68.526 Y92.455 E296.51876
G1 X68.425 Y92.749 E296.5335
G1 X68.42 Y99.696 E296.86275
G1 X68.518 Y100.018 E296.87871
G1 X68.737 Y100.308 E296.89593
G1 X68.526 Y100.579 E296.91221
G1 X68.425 Y100.873 E296.92694
G1 X68.425 Y107.87 E297.25857
G1 X68.514 Y108.143 E297.27218
G1 X68.735 Y108.436 E297.28957
G1 X68.522 Y108.705 E297.30584
G1 X68.425 Y108.998 E297.32046
G1 X68.425 Y115.994 E297.65204
G1 X68.514 Y116.267 E297.66565
G1 X68.735 Y116.56 E297.68305
G1 X68.522 Y116.829 E297.69931
G1 X68.425 Y117.122 E297.71394
G1 X68.42 Y124.072 E298.04334
G1 X68.518 Y124.394 E298.05929
G1 X68.737 Y124.684 E298.07651
G1 X68.526 Y124.955 E298.09279
G1 X68.425 Y125.249 E298.10753
G1 X68.42 Y132.196 E298.43678
G1 X68.518 Y132.518 E298.45274
G1 X68.737 Y132.808 E298.46996
G1 X68.526 Y133.079 E298.48624
G1 X68.425 Y133.373 E298.50097
G1 X68.425 Y140.37 E298.8326
G1 X68.514 Y140.643 E298.84621
G1 X68.735 Y140.936 E298.8636
G1 X68.522 Y141.205 E298.87987
G1 X68.425 Y141.498 E298.89449
G1 X68.423 Y148.491 E299.22593
G1 X68.488 Y148.714 E299.23694
G1 X68.706 Y149.038 E299.25545
G1 X69.027 Y149.255 E299.27381
G1 X69.288 Y149.328 E299.28666
G1 X200.755 Y149.325 E305.51763
G1 X201.159 Y149.153 E305.53844
G0 F3600 X201.158 Y149.259
G0 X207.92 Y155.668
G1 F2400 X62.076 Y155.668 E312.45082
