;FLAVOR:Marlin
;TIME:1187
;Filament used: 1.54872m
;Layer height: 0.3
;MINX:98.95
;MINY:73.9
;MINZ:0.3
;MAXX:153.569
;MAXY:128.569
;MAXZ:7.5
;TARGET_MACHINE.NAME:Unknown
;Generated with Cura_SteamEngine 5.10.0
M104 S205
M105
M109 S205
G28 ;Home
G1 Z15.0 F6000 ;Move the platform down 15mm
;Prime the extruder
G92 E0
G1 F200 E3
G92 E0
M82 ;absolute extrusion mode
G92 E0
G92 E0
G1 F1500 E-6.5
;LAYER_COUNT:25
;LAYER:0
M107
G0 F3600 X100.14 Y95.354 Z0.3
;TYPE:SKIRT
G1 F1500 E0
G1 F2400 X101.205 Y94.542 E0.06347
G1 X103.358 Y92.852 E0.1932
G1 X105.434 Y91.125 E0.32119
G1 X107.501 Y89.303 E0.45178
G1 X109.506 Y87.434 E0.58169
G1 X111.409 Y85.558 E0.70835
G1 X113.35 Y83.53 E0.84139
G1 X115.129 Y81.564 E0.96706
G1 X116.929 Y79.457 E1.0984
G1 X118.615 Y77.37 E1.22556
G1 X120.176 Y75.325 E1.3475
G1 X120.58 Y74.881 E1.37595
G1 X121.025 Y74.526 E1.40293
G1 X121.519 Y74.247 E1.42982
G1 X121.992 Y74.066 E1.45382
G1 X122.607 Y73.937 E1.4836
G1 X123.255 Y73.902 E1.51436
G1 X146.315 Y73.9 E2.60731
G1 X147.013 Y73.91 E2.64039
G1 X147.61 Y73.97 E2.66883
G1 X148.16 Y74.116 E2.6958
G1 X148.624 Y74.318 E2.71978
G1 X149.105 Y74.62 E2.7467
G1 X149.578 Y75.039 E2.77665
G1 X149.933 Y75.481 E2.80352
G1 X150.216 Y75.975 E2.8305
G1 X150.419 Y76.516 E2.85789
G1 X150.548 Y77.201 E2.89093
G1 X150.593 Y77.73 E2.91609
G1 X150.869 Y80.471 E3.04666
G1 X151.223 Y83.209 E3.17751
G1 X151.649 Y85.906 E3.30692
G1 X152.148 Y88.565 E3.43514
G1 X152.726 Y91.234 E3.56458
G1 X153.46 Y94.208 E3.70976
G1 X153.567 Y95.007 E3.74797
G1 X153.569 Y124.28 E5.13538
G1 X153.559 Y125.008 E5.16989
G1 X153.499 Y125.606 E5.19837
G1 X153.353 Y126.155 E5.2253
G1 X153.122 Y126.675 E5.25227
G1 X152.813 Y127.151 E5.27916
G1 X152.431 Y127.575 E5.30621
G1 X152.04 Y127.895 E5.33016
G1 X151.497 Y128.213 E5.35998
G1 X151.026 Y128.397 E5.38395
G1 X150.408 Y128.529 E5.4139
G1 X149.738 Y128.567 E5.44571
G1 X120.686 Y128.569 E6.82265
G1 X119.942 Y128.556 E6.85791
G1 X119.187 Y128.457 E6.89401
G1 X118.197 Y128.215 E6.94231
G1 X117.401 Y128.008 E6.98129
G1 X114.713 Y127.39 E7.11201
G1 X112.009 Y126.848 E7.24272
G1 X109.365 Y126.396 E7.36985
G1 X106.679 Y126.014 E7.49844
G1 X103.926 Y125.702 E7.62975
G1 X102.173 Y125.537 E7.71321
G1 X101.613 Y125.432 E7.74021
G1 X101.078 Y125.239 E7.76717
G1 X100.58 Y124.965 E7.79411
G1 X100.131 Y124.616 E7.82106
G1 X99.743 Y124.2 E7.84802
G1 X99.426 Y123.729 E7.87493
G1 X99.186 Y123.213 E7.9019
G1 X99.043 Y122.728 E7.92587
G1 X98.951 Y121.969 E7.9621
G1 X98.95 Y98.686 E9.06562
G1 X98.96 Y97.984 E9.09889
G1 X99.02 Y97.387 E9.12733
G1 X99.166 Y96.837 E9.1543
G1 X99.368 Y96.374 E9.17824
G1 X99.707 Y95.841 E9.20818
G1 X100.14 Y95.354 E9.23907
G0 F3600 X100.415 Y95.647
G1 F2400 X101.452 Y94.857 E9.30085
G1 X103.614 Y93.16 E9.43112
G1 X105.69 Y91.433 E9.55911
G1 X107.766 Y89.603 E9.69027
G1 X109.779 Y87.727 E9.82069
G1 X111.69 Y85.843 E9.94788
G1 X113.639 Y83.807 E10.08146
G1 X115.426 Y81.832 E10.2077
G1 X117.233 Y79.717 E10.33954
G1 X118.933 Y77.613 E10.46775
G1 X120.494 Y75.568 E10.58968
G1 X120.832 Y75.192 E10.61364
G1 X121.225 Y74.873 E10.63763
G1 X121.662 Y74.621 E10.66154
G1 X122.135 Y74.44 E10.68555
G1 X122.629 Y74.336 E10.70947
G1 X123.255 Y74.302 E10.73919
G1 X146.309 Y74.3 E11.83185
G1 X147.007 Y74.31 E11.86493
G1 X147.51 Y74.357 E11.88888
G1 X148 Y74.483 E11.91286
G1 X148.464 Y74.685 E11.93684
G1 X148.89 Y74.957 E11.9608
G1 X149.268 Y75.292 E11.98473
G1 X149.588 Y75.683 E12.00868
G1 X149.843 Y76.12 E12.03266
G1 X150.026 Y76.591 E12.05661
G1 X150.149 Y77.235 E12.08769
G1 X150.195 Y77.77 E12.11314
G1 X150.472 Y80.522 E12.24423
G1 X150.826 Y83.26 E12.37508
G1 X151.256 Y85.98 E12.50559
G1 X151.757 Y88.65 E12.63435
G1 X152.335 Y91.319 E12.76378
G1 X153.064 Y94.263 E12.90753
G1 X153.167 Y95.007 E12.94313
G1 X153.169 Y124.275 E14.3303
G1 X153.159 Y125.003 E14.36481
G1 X153.112 Y125.506 E14.38875
G1 X152.986 Y125.996 E14.41273
G1 X152.785 Y126.46 E14.4367
G1 X152.514 Y126.886 E14.46063
G1 X152.178 Y127.265 E14.48464
G1 X151.787 Y127.585 E14.50858
G1 X151.351 Y127.84 E14.53252
G1 X150.88 Y128.024 E14.55649
G1 X150.385 Y128.13 E14.58048
G1 X149.738 Y128.167 E14.6112
G1 X120.692 Y128.169 E15.98785
G1 X119.993 Y128.159 E16.02098
G1 X119.282 Y128.068 E16.05496
G1 X118.298 Y127.828 E16.10296
G1 X117.491 Y127.618 E16.14248
G1 X114.803 Y127 E16.27321
G1 X112.088 Y126.456 E16.40444
G1 X109.421 Y126 E16.53268
G1 X106.735 Y125.618 E16.66127
G1 X103.963 Y125.304 E16.79349
G1 X102.243 Y125.143 E16.87537
G1 X101.745 Y125.054 E16.89934
G1 X101.268 Y124.887 E16.9233
G1 X100.823 Y124.647 E16.94726
G1 X100.421 Y124.34 E16.97123
G1 X100.073 Y123.974 E16.99517
G1 X99.787 Y123.557 E17.01914
G1 X99.57 Y123.1 E17.04311
G1 X99.427 Y122.615 E17.06708
G1 X99.351 Y121.969 E17.09791
G1 X99.35 Y98.692 E18.20114
G1 X99.36 Y97.99 E18.23441
G1 X99.407 Y97.487 E18.25836
G1 X99.533 Y96.997 E18.28234
G1 X99.735 Y96.534 E18.30628
G1 X100.006 Y96.107 E18.33025
G1 X100.415 Y95.647 E18.35942
G1 F1500 E11.85942
;MESH:wire_clamp_top.stl(1)
G0 F3600 X102.974 Y97.807
G0 X102.974 Y98.896
G0 X104.676 Y100.549
G0 X104.676 Y100.861
;TYPE:WALL-INNER
G1 F1500 E18.35942
G1 F2400 X105.252 Y101.018 E18.38772
G1 X105.697 Y101.262 E18.41177
G1 X105.7 Y99.072 E18.51557
G1 X103.148 Y99.072 E18.63652
G1 X103.149 Y101.276 E18.74098
G1 X103.358 Y101.132 E18.75301
G1 X103.774 Y100.951 E18.77451
G1 X104.169 Y100.861 E18.79371
G1 X104.676 Y100.861 E18.81774
G1 F1500 E12.31774
G0 F3600 X104.676 Y100.549
G0 X105.87 Y100.549
G0 X106.965 Y100.549
G0 X114.135 Y100.549
G0 X115.23 Y100.549
G0 X116.927 Y100.549
G0 X116.927 Y100.861
G1 F1500 E18.81774
G1 F2400 X117.5 Y101.019 E18.84591
G1 X117.945 Y101.261 E18.86992
G1 X117.948 Y99.072 E18.97367
G1 X115.4 Y99.072 E19.09444
G1 X115.401 Y101.274 E19.1988
G1 X115.608 Y101.131 E19.21073
G1 X116.026 Y100.951 E19.2323
G1 X116.421 Y100.861 E19.2515
G1 X116.927 Y100.861 E19.27548
G1 F1500 E12.77548
G0 F3600 X116.927 Y100.549
G0 X116.028 Y101.127
G0 X116.385 Y102.167
G0 X115.913 Y103.444
G0 X114.967 Y104.007
G0 X114.221 Y117.119
G0 X114.528 Y117.126
G1 F1500 E19.27548
G1 F2400 X114.551 Y116.661 E19.29755
G1 X114.666 Y116.234 E19.3185
G1 X114.897 Y115.792 E19.34214
G1 X115.198 Y115.435 E19.36427
G1 X115.539 Y115.168 E19.3848
G1 X115.913 Y114.99 E19.40443
G1 X116.366 Y114.871 E19.42663
G1 X116.924 Y114.853 E19.45309
G1 X117.5 Y115.019 E19.4815
G1 X117.945 Y115.261 E19.50551
G1 X117.948 Y104.72 E20.00511
G1 X117.619 Y104.926 E20.02351
G1 X117.144 Y105.093 E20.04737
G1 X116.521 Y105.142 E20.07699
G1 X116.057 Y105.057 E20.09935
G1 X115.644 Y104.89 E20.12046
G1 X115.119 Y104.491 E20.15171
G1 X114.856 Y104.146 E20.17227
G1 X114.648 Y103.718 E20.19483
G1 X114.54 Y103.261 E20.21708
G1 X114.55 Y102.661 E20.24553
G1 X114.619 Y102.365 E20.25993
G1 X114.745 Y102.073 E20.275
G1 X106.362 Y102.072 E20.67232
G1 X106.524 Y102.547 E20.69611
G1 X106.57 Y103.02 E20.71863
G1 X106.502 Y103.521 E20.7426
G1 X106.286 Y104.093 E20.77157
G1 X105.856 Y104.602 E20.80315
G1 X105.483 Y104.867 E20.82484
G1 X104.891 Y105.093 E20.85487
G1 X104.269 Y105.142 E20.88445
G1 X103.802 Y105.056 E20.90695
G1 X103.482 Y104.932 E20.92322
G1 X103.148 Y104.704 E20.94238
G1 X103.149 Y115.276 E21.44345
G1 X103.358 Y115.132 E21.45548
G1 X103.774 Y114.951 E21.47698
G1 X104.252 Y114.856 E21.50008
G1 X104.755 Y114.878 E21.52394
G1 X105.251 Y115.018 E21.54837
G1 X105.748 Y115.301 E21.57548
G1 X106.078 Y115.627 E21.59746
G1 X106.376 Y116.101 E21.624
G1 X106.524 Y116.546 E21.64623
G1 X106.57 Y117.02 E21.6688
G1 X106.502 Y117.521 E21.69276
G1 X106.348 Y117.924 E21.71321
G1 X114.743 Y117.928 E22.11109
G1 X114.608 Y117.593 E22.12821
G1 X114.528 Y117.126 E22.15067
G1 F1500 E15.65067
G0 F3600 X114.221 Y117.119
G0 X115.058 Y118.11
G0 X115.633 Y118.693
G0 X117.178 Y119.401
G0 X117.144 Y119.093
G1 F1500 E22.15067
G1 F2400 X116.613 Y119.148 E22.17597
G1 X116.181 Y119.09 E22.19663
G1 X115.733 Y118.933 E22.21913
G1 X115.401 Y118.708 E22.23814
G1 X115.401 Y120.926 E22.34326
G1 X117.948 Y120.924 E22.46398
G1 X117.948 Y118.72 E22.56844
G1 X117.619 Y118.926 E22.58684
G1 X117.144 Y119.093 E22.6107
G1 F1500 E16.1107
G0 F3600 X117.178 Y119.401
G0 X115.23 Y119.402
G0 X114.135 Y119.402
G0 X106.965 Y119.402
G0 X105.87 Y119.402
G0 X104.925 Y119.402
G0 X104.891 Y119.093
G1 F1500 E22.6107
G1 F2400 X104.359 Y119.148 E22.63605
G1 X103.929 Y119.09 E22.65661
G1 X103.482 Y118.932 E22.67908
G1 X103.148 Y118.704 E22.69825
G1 X103.149 Y120.924 E22.80347
G1 X105.7 Y120.927 E22.92438
G1 X105.7 Y118.72 E23.02898
G1 X105.369 Y118.927 E23.04748
G1 X104.891 Y119.093 E23.07146
G1 F1500 E16.57146
G0 F3600 X104.925 Y119.402
G0 X103.625 Y118.83
G0 X102.987 Y118.367
G0 X102.715 Y117.168
;TYPE:WALL-OUTER
G1 F1500 E23.07146
G1 F2807 X102.72 Y116.757 E23.08812
G1 F1500 E16.58812
G0 F3600 X115.216 Y118.316
G0 X115.001 Y118.411
G1 F1500 E23.08812
G1 F2341.5 X115.001 Y121.327 E23.22978
G1 F2400 X118.348 Y121.324 E23.38841
G1 X118.348 Y117.885 E23.55141
G1 F2461.5 X118.368 Y117.362 E23.57559
G1 X118.188 Y117.881 E23.60098
G1 F2400 X117.811 Y118.332 E23.62884
G1 X117.471 Y118.554 E23.64808
G1 X117.099 Y118.695 E23.66694
G1 X116.613 Y118.748 E23.69011
G1 X116.241 Y118.694 E23.70793
G1 X115.825 Y118.531 E23.7291
G1 F2285.7 X115.368 Y118.193 E23.75739
G1 F2253.5 X115.172 Y117.908 E23.77485
G1 F2364.5 X115 Y117.513 E23.79557
G1 F2400 X114.928 Y117.135 E23.81381
G1 X114.941 Y116.751 E23.83202
G1 X115.024 Y116.411 E23.84861
G1 X115.216 Y116.034 E23.86866
G1 X115.437 Y115.759 E23.88538
G1 X115.753 Y115.506 E23.90457
G1 X116.118 Y115.341 E23.92355
G1 X116.458 Y115.261 E23.94011
G1 X116.899 Y115.263 E23.96101
G1 X117.391 Y115.403 E23.98525
G1 X117.774 Y115.634 E24.00645
G1 X118.04 Y115.906 E24.02448
G1 F2406 X118.251 Y116.239 E24.04312
G1 F2449 X118.348 Y116.552 E24.05834
G1 X118.348 Y103.885 E24.6467
G1 F2461.5 X118.368 Y103.362 E24.67088
G1 X118.188 Y103.881 E24.69627
G1 F2400 X117.811 Y104.332 E24.72413
G1 X117.471 Y104.554 E24.74337
G1 X117.099 Y104.695 E24.76223
G1 X116.581 Y104.746 E24.7869
G1 X116.2 Y104.683 E24.8052
G1 X115.846 Y104.545 E24.82321
G1 X115.393 Y104.193 E24.8504
G1 X115.153 Y103.866 E24.86962
G1 X115 Y103.513 E24.88786
G1 X114.928 Y103.135 E24.9061
G1 X114.94 Y102.751 E24.9243
G1 X115.024 Y102.411 E24.9409
G1 F2313.3 X115.204 Y102.025 E24.96185
G1 F2253.5 X115.424 Y101.76 E24.97923
G1 F2335.8 X115.776 Y101.494 E25.00072
G1 F2400 X116.118 Y101.341 E25.01848
G1 X116.476 Y101.257 E25.0359
G1 X116.872 Y101.257 E25.05467
G1 X117.391 Y101.403 E25.08023
G1 X117.774 Y101.634 E25.10142
G1 X118.04 Y101.906 E25.11946
G1 F2406 X118.251 Y102.239 E25.13809
G1 F2449 X118.348 Y102.552 E25.15331
G1 X118.348 Y98.672 E25.33353
G1 F2400 X115 Y98.672 E25.49221
G1 F2335.8 X115.001 Y101.535 E25.63164
G1 F2222.2 X114.946 Y101.638 E25.63761
G1 F2232.6 X114.857 Y101.673 E25.64249
G1 F2335.8 X106.286 Y101.673 E26.05989
G1 F2285.7 X106.142 Y101.624 E26.06746
G1 F2264.2 X106.095 Y101.472 E26.07545
G1 F2364.5 X106.1 Y98.672 E26.21015
G1 F2400 X102.748 Y98.672 E26.36902
G1 F2487 X102.744 Y102.621 E26.54963
G1 F2513.1 X102.78 Y102.413 E26.55919
G1 F2424.2 X102.945 Y102.071 E26.57701
G1 F2400 X103.179 Y101.767 E26.59519
G1 X103.488 Y101.518 E26.614
G1 X103.827 Y101.354 E26.63185
G1 X104.224 Y101.257 E26.65121
G1 X104.62 Y101.257 E26.66998
G1 X105.17 Y101.411 E26.69705
G1 F2388.1 X105.523 Y101.633 E26.71692
G1 F2280.3 X105.775 Y101.861 E26.73387
G1 F2291.2 X105.987 Y102.209 E26.7541
G1 F2400 X106.127 Y102.598 E26.77369
G1 X106.172 Y102.983 E26.79207
G1 X106.128 Y103.379 E26.81095
G1 X105.936 Y103.888 E26.83673
G1 X105.55 Y104.34 E26.86491
G1 X105.222 Y104.555 E26.88349
G1 X104.847 Y104.695 E26.90246
G1 X104.329 Y104.746 E26.92713
G1 X103.947 Y104.683 E26.94548
G1 X103.577 Y104.531 E26.96444
G1 X103.152 Y104.203 E26.98989
G1 X102.905 Y103.866 E27.00969
G1 F2406 X102.767 Y103.554 E27.02582
G1 F2601.6 X102.715 Y103.168 E27.04285
G1 X102.747 Y103.558 E27.05996
G1 F2455.2 X102.746 Y110.089 E27.36253
G1 F2539.7 X102.744 Y116.62 E27.65505
G1 F2513.1 X102.78 Y116.413 E27.66456
G1 F2424.2 X102.945 Y116.071 E27.68238
G1 F2400 X103.179 Y115.767 E27.70056
G1 X103.488 Y115.518 E27.71937
G1 X103.827 Y115.354 E27.73722
G1 X104.206 Y115.261 E27.75571
G1 X104.647 Y115.263 E27.77661
G1 X105.17 Y115.411 E27.80238
G1 X105.503 Y115.617 E27.82093
G1 X105.773 Y115.886 E27.839
G1 X105.98 Y116.198 E27.85674
G1 X106.127 Y116.598 E27.87694
G1 X106.172 Y116.983 E27.89531
G1 X106.128 Y117.379 E27.9142
G1 F2341.5 X105.921 Y117.919 E27.94229
G1 F2285.7 X105.589 Y118.315 E27.96801
G1 F2341.5 X105.222 Y118.555 E27.98931
G1 F2400 X104.898 Y118.683 E28.00582
G1 X104.359 Y118.748 E28.03156
G1 X103.947 Y118.683 E28.05132
G1 X103.577 Y118.531 E28.07028
G1 X103.152 Y118.203 E28.09573
G1 X102.905 Y117.866 E28.11553
G1 F2406 X102.767 Y117.554 E28.13166
G1 F2601.6 X102.715 Y117.168 E28.14869
G1 X102.747 Y117.558 E28.1658
G1 F2406 X102.749 Y121.324 E28.34384
G1 F2400 X106.1 Y121.327 E28.50267
G1 F2264.2 X106.106 Y118.412 E28.64912
G1 F2222.2 X106.232 Y118.324 E28.65698
G1 F2318.8 X114.866 Y118.333 E29.08052
G1 F2307.7 X115.001 Y118.411 E29.0882
G0 F3600 X115.001 Y118.611
G1 F1500 E22.5882
G0 F3600 X115.31 Y118.611
G0 X116.16 Y118.914
G0 X116.443 Y117.851
G0 X117.542 Y117.156
G0 X118.369 Y117.338
G1 F1500 E29.0882
G1 F2637.4 X118.363 Y116.6 E29.12004
G1 F1500 E22.62004
G0 F3600 X119.215 Y116.6
G0 X119.215 Y103.338
G0 X118.369 Y103.338
G1 F1500 E29.12004
G1 F2637.4 X118.363 Y102.6 E29.15187
G1 F1500 E22.65187
G0 F3600 X102.72 Y102.757
G1 F1500 E29.15187
G1 F2807 X102.715 Y103.168 E29.16852
G1 F1500 E22.66852
G0 F3600 X103.49 Y104.75
G0 X114.161 Y116.73
;TYPE:SKIN
G1 F1500 E29.16852
G1 F2400 X114.168 Y117.344 E29.19763
G1 X114.214 Y117.548 E29.20754
G1 X106.876 Y117.544 E29.55533
G1 X106.916 Y117.392 E29.56278
G1 X106.943 Y116.834 E29.58925
G1 X106.891 Y116.462 E29.60706
G1 X106.735 Y115.978 E29.63116
G1 X106.376 Y115.392 E29.66373
G1 X105.989 Y115.006 E29.68964
G1 X105.495 Y114.691 E29.7174
G1 X104.859 Y114.511 E29.74873
G1 X104.263 Y114.476 E29.77703
G1 X103.694 Y114.579 E29.80443
G1 X103.528 Y114.644 E29.81288
G1 X103.528 Y105.352 E30.25328
G1 X103.694 Y105.417 E30.26173
G1 X104.223 Y105.518 E30.28726
G1 X105.058 Y105.462 E30.32692
G1 X105.665 Y105.196 E30.35833
G1 X106.107 Y104.893 E30.38373
G1 X106.615 Y104.288 E30.42117
G1 X106.91 Y103.514 E30.46043
G1 X106.944 Y102.871 E30.49095
G1 X106.868 Y102.452 E30.51113
G1 X114.206 Y102.452 E30.85892
G1 X114.172 Y102.602 E30.86621
G1 X114.15 Y103.148 E30.89211
G1 X114.242 Y103.7 E30.91864
G1 X114.438 Y104.18 E30.94321
G1 X114.838 Y104.75 E30.97621
G1 X115.426 Y105.203 E31.01139
G1 X115.916 Y105.41 E31.0366
G1 X116.476 Y105.518 E31.06364
G1 X117.175 Y105.468 E31.09685
G1 X117.568 Y105.335 E31.11651
G1 X117.568 Y114.645 E31.55777
G1 X116.964 Y114.471 E31.58756
G1 X116.312 Y114.496 E31.61848
G1 X115.75 Y114.647 E31.64606
G1 X115.315 Y114.859 E31.669
G1 X114.911 Y115.181 E31.69349
G1 X114.602 Y115.547 E31.71619
G1 X114.327 Y116.053 E31.74348
G1 X114.161 Y116.73 E31.77652
G0 F3600 X104.119 Y114.302
G1 F2400 X103.728 Y113.911 E31.80273
G0 F3600 X103.728 Y113.345
G1 F2400 X104.679 Y114.296 E31.86647
G0 F3600 X105.408 Y114.459
G1 F2400 X103.728 Y112.779 E31.97908
G0 F3600 X103.728 Y112.214
G1 F2400 X108.859 Y117.344 E32.32296
G0 F3600 X108.293 Y117.344
G1 F2400 X106.951 Y116.002 E32.41291
G0 F3600 X107.127 Y116.744
G1 F2400 X107.727 Y117.344 E32.45313
G1 X107.797 Y117.414
G0 F3600 X109.425 Y117.345
G1 F2400 X103.728 Y111.648 E32.83499
G0 F3600 X103.728 Y111.082
G1 F2400 X109.991 Y117.345 E33.25478
G0 F3600 X110.558 Y117.346
G1 F2400 X103.728 Y110.517 E33.71255
G0 F3600 X103.728 Y109.951
G1 F2400 X111.123 Y117.346 E34.20822
G0 F3600 X111.69 Y117.346
G1 F2400 X103.728 Y109.385 E34.74186
G0 F3600 X103.728 Y108.819
G1 F2400 X112.255 Y117.346 E35.3134
G0 F3600 X112.821 Y117.346
G1 F2400 X103.728 Y108.254 E35.92285
G0 F3600 X103.728 Y107.688
G1 F2400 X113.387 Y117.347 E36.57027
G0 F3600 X113.953 Y117.347
G1 F2400 X103.728 Y107.122 E37.25563
G0 F3600 X103.728 Y106.557
G1 F2400 X113.957 Y116.785 E37.94122
G0 F3600 X114.053 Y116.316
G1 F2400 X103.728 Y105.991 E38.63328
G0 F3600 X103.978 Y105.675
