;FLAVOR:Marlin
;TIME:2234
;Filament used: 4.48506m
;Layer height: 0.3
;MINX:91.8
;MINY:76.8
;MINZ:0.3
;MAXX:178.2
;MAXY:143.2
;MAXZ:12.6
;TARGET_MACHINE.NAME:Unknown
;Generated with Cura_SteamEngine 5.10.0
M104 S205
M105
M109 S205
G28 ;Home
G1 Z15.0 F6000 ;Move the platform down 15mm
;Prime the extruder
G92 E0
G1 F200 E3
G92 E0
M82 ;absolute extrusion mode
G92 E0
G92 E0
G1 F1500 E-6.5
;LAYER_COUNT:42
;LAYER:0
M107
G0 F3600 X92.454 Y78.082 Z0.3
;TYPE:SKIRT
G1 F1500 E0
G1 F2400 X92.789 Y77.704 E0.02394
G1 X93.18 Y77.383 E0.04792
G1 X93.617 Y77.128 E0.0719
G1 X94.088 Y76.944 E0.09586
G1 X94.582 Y76.838 E0.11981
G1 X95.027 Y76.801 E0.14097
G1 X134.339 Y76.8 E2.00419
G1 X135.041 Y76.81 E2.03747
G1 X135.544 Y76.857 E2.06141
G1 X136.034 Y76.983 E2.08539
G1 X136.497 Y77.185 E2.10933
G1 X137.013 Y77.512 E2.13829
G1 X137.574 Y78.048 E2.17506
G1 X176.815 Y117.289 E4.80529
G1 X177.287 Y117.775 E4.8374
G1 X177.609 Y118.164 E4.86133
G1 X177.866 Y118.599 E4.88528
G1 X178.052 Y119.07 E4.90928
G1 X178.187 Y119.679 E4.93885
G1 X178.2 Y120.51 E4.97824
G1 X178.2 Y139.308 E5.86918
G1 X178.19 Y140.035 E5.90364
G1 X178.143 Y140.538 E5.92759
G1 X178.017 Y141.028 E5.95156
G1 X177.816 Y141.492 E5.97553
G1 X177.544 Y141.918 E5.99949
G1 X177.209 Y142.297 E6.02346
G1 X176.818 Y142.617 E6.04741
G1 X176.382 Y142.872 E6.07135
G1 X175.911 Y143.056 E6.09531
G1 X175.416 Y143.162 E6.11931
G1 X174.972 Y143.199 E6.14042
G1 X95.666 Y143.2 E9.89919
G1 X94.968 Y143.191 E9.93227
G1 X94.464 Y143.144 E9.95626
G1 X93.974 Y143.019 E9.98023
G1 X93.51 Y142.818 E10.0042
G1 X93.084 Y142.547 E10.02813
G1 X92.705 Y142.212 E10.0521
G1 X92.384 Y141.821 E10.07608
G1 X92.129 Y141.385 E10.10002
G1 X91.945 Y140.914 E10.12398
G1 X91.838 Y140.42 E10.14794
G1 X91.801 Y139.967 E10.16948
G1 X91.8 Y80.631 E12.98175
G1 X91.809 Y79.966 E13.01327
G1 X91.856 Y79.462 E13.03726
G1 X91.982 Y78.973 E13.0612
G1 X92.183 Y78.509 E13.08516
G1 X92.454 Y78.082 E13.10913
G1 F1500 E6.60913
;MESH:z_endstop_bracket.stl
G0 F3600 X94.335 Y80.424
G0 X95.424 Y80.424
G0 X102.742 Y91.9
G0 X103.785 Y92.69
G0 X106.04 Y93.247
G0 X105.971 Y92.944
;TYPE:WALL-INNER
G1 F1500 E13.10913
G1 F2400 X105.413 Y93.072 E13.13627
G1 X104.913 Y93.096 E13.15999
G1 X104.315 Y93.025 E13.18853
G1 X103.726 Y92.826 E13.218
G1 X103.074 Y92.435 E13.25403
G1 X102.664 Y92.034 E13.28121
G1 X102.272 Y91.485 E13.31319
G1 X102.027 Y90.874 E13.34439
G1 X101.937 Y90.476 E13.36373
G1 X101.897 Y89.834 E13.39421
G1 X102.006 Y89.196 E13.42489
G1 X102.165 Y88.744 E13.4476
G1 X102.441 Y88.238 E13.47492
G1 X103.046 Y87.585 E13.51711
G1 X103.574 Y87.243 E13.54692
G1 X104.064 Y87.043 E13.57201
G1 X104.58 Y86.925 E13.5971
G1 X105.188 Y86.904 E13.62593
G1 X105.644 Y86.966 E13.64774
G1 X106.272 Y87.166 E13.67898
G1 X106.922 Y87.562 E13.71505
G1 X107.334 Y87.96 E13.7422
G1 X107.719 Y88.5 E13.77363
G1 X107.96 Y89.072 E13.80305
G1 X108.067 Y89.544 E13.82599
G1 X108.096 Y90.133 E13.85394
G1 X108.011 Y90.743 E13.88313
G1 X107.863 Y91.185 E13.90522
G1 X107.559 Y91.758 E13.93597
G1 X106.949 Y92.416 E13.97849
G1 X106.436 Y92.747 E14.00743
G1 X105.971 Y92.944 E14.03136
G0 F3600 X106.04 Y93.247
G0 X108.347 Y130.173
G0 X108.086 Y131.308
G0 X107.178 Y132.537
G0 X106.111 Y133.224
G0 X105.993 Y132.94
G1 F2400 X105.416 Y133.071 E14.05941
G1 X104.936 Y133.096 E14.08219
G1 X104.374 Y133.032 E14.109
G1 X103.725 Y132.831 E14.1412
G1 X103.075 Y132.435 E14.17727
G1 X102.664 Y132.034 E14.20449
G1 X102.272 Y131.489 E14.23631
G1 X101.987 Y130.767 E14.2731
G1 X101.9 Y130.137 E14.30324
G1 X101.986 Y129.243 E14.34581
G1 X102.272 Y128.516 E14.38283
G1 X102.664 Y127.962 E14.415
G1 X103.109 Y127.544 E14.44393
G1 X103.575 Y127.242 E14.47025
G1 X104.014 Y127.057 E14.49283
G1 X104.603 Y126.918 E14.52152
G1 X105.089 Y126.9 E14.54457
G1 X105.788 Y126.999 E14.57803
G1 X106.266 Y127.168 E14.60205
G1 X106.692 Y127.402 E14.62509
G1 X107.164 Y127.778 E14.65369
G1 X107.564 Y128.25 E14.68302
G1 X107.859 Y128.804 E14.71276
G1 X108.001 Y129.22 E14.7336
G1 X108.085 Y129.685 E14.75599
G1 X108.096 Y130.151 E14.77809
G1 X108.008 Y130.756 E14.80706
G1 X107.857 Y131.203 E14.82942
G1 X107.558 Y131.751 E14.85901
G1 X106.951 Y132.414 E14.90161
G1 X106.467 Y132.728 E14.92896
G1 X105.993 Y132.94 E14.95357
G0 F3600 X106.111 Y133.224
G0 X133.73 Y122.774
G0 X134.674 Y122.653
G0 X135.603 Y122.918
G0 X136.206 Y123.374
G0 X136.716 Y124.204
G0 X136.849 Y137.202
G0 X136.508 Y138.227
G0 X135.928 Y138.863
G0 X135.249 Y138.954
G1 F2500 X134.861 Y139.052 E14.97178
G1 F2659.3 X134.388 Y139.069 E14.99202
G1 F2608.7 X133.997 Y139.029 E15.00916
G1 F2455.2 X133.524 Y138.865 E15.03235
G1 F2400 X132.97 Y138.447 E15.06525
G1 X132.739 Y138.146 E15.08323
G1 X132.546 Y137.771 E15.10322
G1 X132.404 Y137.225 E15.12996
G1 X132.4 Y124.858 E15.7161
G1 X132.523 Y124.279 E15.74416
G1 X132.697 Y123.913 E15.76336
G1 X132.951 Y123.577 E15.78333
G1 X133.281 Y123.279 E15.8044
G1 X133.794 Y123.019 E15.83166
G1 X134.272 Y122.913 E15.85486
G1 X134.682 Y122.908 E15.8743
G1 X135.036 Y122.97 E15.89133
G1 X135.478 Y123.133 E15.91366
G1 X135.989 Y123.522 E15.9441
G1 X136.293 Y123.903 E15.9672
G1 X136.483 Y124.31 E15.98849
G1 X136.592 Y124.819 E16.01316
G1 X136.6 Y137.187 E16.59935
G1 X136.45 Y137.771 E16.62793
G1 X136.26 Y138.141 E16.64764
G1 X135.996 Y138.472 E16.66771
G1 X135.649 Y138.751 E16.68881
G1 X135.249 Y138.954 E16.71007
G0 F3600 X135.391 Y139.14
G0 X166.73 Y122.774
G0 X167.674 Y122.653
G0 X168.603 Y122.918
G0 X169.206 Y123.374
G0 X169.716 Y124.204
G0 X169.849 Y137.202
G0 X169.508 Y138.227
G0 X168.928 Y138.863
G0 X168.249 Y138.954
G1 F2500 X167.861 Y139.052 E16.72828
G1 F2659.3 X167.388 Y139.069 E16.74852
G1 F2608.7 X166.997 Y139.029 E16.76566
G1 F2455.2 X166.524 Y138.865 E16.78886
G1 F2400 X165.97 Y138.447 E16.82175
G1 X165.739 Y138.146 E16.83973
G1 X165.546 Y137.771 E16.85972
G1 X165.404 Y137.225 E16.88646
G1 X165.4 Y124.858 E17.4726
G1 X165.513 Y124.31 E17.49912
G1 X165.692 Y123.923 E17.51933
G1 X165.958 Y123.569 E17.54032
G1 X166.278 Y123.287 E17.56053
G1 X166.814 Y123.012 E17.58909
G1 X167.183 Y122.925 E17.60705
G1 X167.591 Y122.904 E17.62642
G1 X168.008 Y122.965 E17.64639
G1 X168.529 Y123.172 E17.67296
G1 X169.025 Y123.555 E17.70266
G1 X169.258 Y123.852 E17.72055
G1 X169.45 Y124.225 E17.74044
G1 X169.592 Y124.772 E17.76722
G1 X169.6 Y137.187 E18.35564
G1 X169.45 Y137.771 E18.38422
G1 X169.26 Y138.141 E18.40393
G1 X168.996 Y138.472 E18.424
G1 X168.649 Y138.751 E18.4451
G1 X168.249 Y138.954 E18.46636
G0 F3600 X168.356 Y139.4
G1 F2400 X174.4 Y139.4 E18.75282
G1 X174.4 Y120.249 E19.66049
G1 X134.747 Y80.6 E22.31821
G1 X95.6 Y80.6 E24.17361
G1 X95.601 Y139.399 E26.96043
G1 X133.49 Y139.4 E28.7562
G1 F2526.3 X134.267 Y139.421 E28.7912
G1 F2659.3 X134.793 Y139.419 E28.8137
G1 F2513.1 X135.356 Y139.4 E28.8392
G1 F2400 X166.49 Y139.4 E30.31481
G1 F2526.3 X167.267 Y139.421 E30.34981
G1 F2659.3 X167.793 Y139.419 E30.37231
G1 F2513.1 X168.356 Y139.4 E30.39781
G0 F3600 X168.027 Y138.614
;TYPE:WALL-OUTER
G1 F2400 X167.795 Y138.674 E30.40917
G1 X167.388 Y138.692 E30.42848
G1 X167.016 Y138.63 E30.44635
G1 X166.695 Y138.493 E30.46289
G1 X166.256 Y138.162 E30.48895
G1 X166.035 Y137.867 E30.50642
G1 X165.907 Y137.599 E30.5205
G1 X165.804 Y137.149 E30.54238
G1 X165.8 Y124.874 E31.12416
G1 X165.9 Y124.413 E31.14652
G1 X166.041 Y124.118 E31.16201
G1 X166.252 Y123.84 E31.17855
G1 X166.486 Y123.63 E31.19346
G1 X166.951 Y123.388 E31.2183
G1 X167.269 Y123.316 E31.23375
G1 X167.643 Y123.307 E31.25148
G1 X167.976 Y123.369 E31.26754
G1 X168.306 Y123.504 E31.28444
G1 X168.742 Y123.838 E31.31047
G1 X168.94 Y124.094 E31.32581
G1 X169.089 Y124.397 E31.34181
G1 X169.188 Y124.807 E31.3618
G1 X169.196 Y137.153 E31.94695
G1 X169.089 Y137.599 E31.96869
G1 X168.94 Y137.901 E31.98465
G1 X168.732 Y138.171 E32.0008
G1 X168.467 Y138.395 E32.01725
G1 X168.027 Y138.614 E32.04054
G0 F3600 X167.834 Y138.664
G0 X167.909 Y138.965
G0 X168.631 Y138.592
G0 X169.259 Y137.789
G0 X174.498 Y120.208
G0 X174.8 Y120.083
G1 F2400 X134.913 Y80.2 E34.71394
G1 X95.2 Y80.2 E36.59616
G1 X95.201 Y139.799 E39.4209
G1 X174.8 Y139.8 E43.19355
G1 X174.8 Y120.083 E44.12805
G0 F3600 X174.659 Y119.942
G0 X174.44 Y120.16
G0 X166.868 Y123.153
G0 X135.102 Y138.917
G0 X135.027 Y138.614
G1 F2400 X134.795 Y138.674 E44.13941
G1 X134.388 Y138.692 E44.15872
G1 X134.016 Y138.63 E44.17659
G1 X133.695 Y138.493 E44.19313
G1 X133.256 Y138.162 E44.21919
G1 X133.035 Y137.867 E44.23666
G1 X132.907 Y137.599 E44.25074
G1 X132.804 Y137.149 E44.27262
G1 X132.8 Y124.872 E44.85449
G1 X132.894 Y124.432 E44.87582
G1 X133.057 Y124.094 E44.8936
G1 X133.266 Y123.826 E44.90971
G1 X133.504 Y123.616 E44.92476
G1 X133.956 Y123.386 E44.94879
G1 X134.298 Y123.312 E44.96538
G1 X134.623 Y123.304 E44.98079
G1 X134.948 Y123.36 E44.99642
G1 X135.29 Y123.493 E45.01381
G1 X135.746 Y123.842 E45.04102
G1 X135.951 Y124.111 E45.05705
G1 X136.098 Y124.419 E45.07323
G1 X136.19 Y124.82 E45.09273
G1 X136.196 Y137.153 E45.67726
G1 X136.089 Y137.599 E45.699
G1 X135.94 Y137.901 E45.71496
G1 X135.732 Y138.171 E45.73111
G1 X135.467 Y138.395 E45.74756
G1 X135.027 Y138.614 E45.77085
G0 F3600 X134.834 Y138.664
G0 X134.909 Y138.965
G0 X134.15 Y138.896
G0 X105.998 Y132.838
G0 X105.879 Y132.553
G1 F2400 X105.347 Y132.677 E45.79674
G1 X104.936 Y132.696 E45.81624
G1 X104.423 Y132.635 E45.84073
G1 X103.871 Y132.451 E45.86831
G1 X103.339 Y132.127 E45.89783
G1 X102.919 Y131.718 E45.92561
G1 X102.617 Y131.274 E45.95106
G1 X102.373 Y130.64 E45.98326
G1 X102.304 Y130.108 E46.00869
G1 X102.379 Y129.335 E46.0455
G1 X102.638 Y128.691 E46.0784
G1 X102.944 Y128.248 E46.10391
G1 X103.296 Y127.904 E46.12724
G1 X103.776 Y127.592 E46.15437
G1 X104.138 Y127.437 E46.17304
G1 X104.657 Y127.317 E46.19829
G1 X105.067 Y127.3 E46.21773
G1 X105.708 Y127.391 E46.24842
G1 X106.125 Y127.544 E46.26947
G1 X106.481 Y127.743 E46.2888
G1 X106.888 Y128.068 E46.31349
G1 X107.233 Y128.479 E46.33892
G1 X107.48 Y128.935 E46.3635
G1 X107.61 Y129.306 E46.38213
G1 X107.687 Y129.727 E46.40242
G1 X107.696 Y130.128 E46.42143
G1 X107.619 Y130.663 E46.44704
G1 X107.481 Y131.059 E46.46692
G1 X107.232 Y131.52 E46.49175
G1 X106.669 Y132.12 E46.53075
G1 X106.218 Y132.409 E46.55614
G1 X105.879 Y132.553 E46.57359
G0 F3600 X105.685 Y132.598
G0 X105.754 Y132.902
G0 X106.853 Y132.299
G0 X107.436 Y131.668
G0 X107.862 Y130.719
G0 X105.987 Y92.843
G0 X105.868 Y92.557
G1 F2400 X105.346 Y92.678 E46.59899
G1 X104.911 Y92.695 E46.61962
G1 X104.404 Y92.632 E46.64384
G1 X103.892 Y92.462 E46.66941
G1 X103.304 Y92.1 E46.70213
G1 X102.919 Y91.718 E46.72784
G1 X102.619 Y91.274 E46.75324
G1 X102.427 Y90.818 E46.77669
G1 X102.331 Y90.407 E46.79669
G1 X102.3 Y89.876 E46.8219
G1 X102.378 Y89.353 E46.84696
G1 X102.516 Y88.936 E46.86778
G1 X102.785 Y88.456 E46.89386
G1 X103.327 Y87.88 E46.93134
G1 X103.776 Y87.592 E46.95663
G1 X104.12 Y87.444 E46.97438
G1 X104.649 Y87.319 E47.00014
G1 X105.219 Y87.306 E47.02716
G1 X105.616 Y87.37 E47.04622
G1 X106.125 Y87.545 E47.07173
G1 X106.692 Y87.896 E47.10334
G1 X107.082 Y88.279 E47.12924
G1 X107.358 Y88.683 E47.15243
G1 X107.579 Y89.194 E47.17882
G1 X107.671 Y89.597 E47.19841
G1 X107.696 Y90.137 E47.22403
G1 X107.62 Y90.659 E47.24904
G1 X107.491 Y91.038 E47.26801
G1 X107.235 Y91.516 E47.29371
G1 X106.684 Y92.11 E47.33211
G1 X106.228 Y92.404 E47.35783
G1 X105.868 Y92.557 E47.37636
G0 F3600 X105.674 Y92.602
G0 X105.743 Y92.905
G0 X166.595 Y138.73
G0 X167.36 Y138.947
G0 X169.583 Y138.34
;TYPE:SKIN
G1 F2400 X169.802 Y137.901 E47.39962
G1 X169.98 Y137.243 E47.43192
G1 X169.966 Y124.692 E48.02679
G1 X169.806 Y124.096 E48.05604
G1 X169.574 Y123.639 E48.08033
G1 X169.274 Y123.262 E48.10316
G1 X168.749 Y122.864 E48.13439
G1 X168.27 Y122.645 E48.15935
G1 X167.785 Y122.54 E48.18287
G1 X167.093 Y122.553 E48.21567
G1 X166.652 Y122.661 E48.23719
G1 X166.057 Y122.975 E48.26908
G1 X165.677 Y123.308 E48.29303
G1 X165.39 Y123.684 E48.31544
G1 X165.156 Y124.157 E48.34046
G1 X165.026 Y124.773 E48.37029
G1 X165.027 Y137.181 E48.95838
G1 X165.127 Y137.721 E48.98441
G1 X165.344 Y138.228 E49.01055
G1 X165.668 Y138.688 E49.03721
G1 X166.094 Y139.019 E49.06278
G1 X135.954 Y139.019 E50.49129
G1 X136.388 Y138.602 E50.51982
G1 X136.583 Y138.34 E50.5353
G1 X136.802 Y137.901 E50.55855
G1 X136.98 Y137.243 E50.59085
G1 X136.966 Y124.777 E51.18169
G1 X136.85 Y124.215 E51.20889
G1 X136.637 Y123.74 E51.23356
G1 X136.244 Y123.24 E51.2637
G1 X135.681 Y122.818 E51.29705
G1 X135.167 Y122.611 E51.32331
G1 X134.676 Y122.524 E51.34695
G1 X134.246 Y122.532 E51.36733
G1 X133.678 Y122.648 E51.39481
G1 X133.065 Y122.965 E51.42751
G1 X132.664 Y123.324 E51.45302
G1 X132.402 Y123.661 E51.47326
G1 X132.141 Y124.223 E51.50262
G1 X132.02 Y124.804 E51.53075
G1 X132.027 Y137.181 E52.11737
G1 X132.127 Y137.721 E52.1434
G1 X132.344 Y138.228 E52.16954
G1 X132.668 Y138.688 E52.1962
G1 X133.094 Y139.019 E52.22177
G1 X95.98 Y139.016 E53.98082
G1 X95.98 Y80.98 E56.73147
G1 X134.585 Y80.98 E58.56118
G1 X174.02 Y120.407 E61.20415
G1 X174.02 Y139.02 E62.08633
G1 X168.954 Y139.019 E62.32643
G1 X169.388 Y138.602 E62.35496
G1 X169.583 Y138.34 E62.37044
G0 F3600 X169.849 Y137.202
G0 X169.842 Y124.756
G0 X169.508 Y123.773
G0 X168.603 Y122.918
G0 X167.674 Y122.653
G0 X134.205 Y122.665
G0 X106.135 Y133.291
G1 F2400 X106.673 Y133.045 E62.39848
G1 X107.177 Y132.721 E62.42687
G1 X107.852 Y131.991 E62.474
G1 X108.164 Y131.428 E62.5045
G1 X108.379 Y130.84 E62.53418
G1 X108.471 Y130.188 E62.56538
G1 X108.464 Y129.648 E62.59098
G1 X108.382 Y129.177 E62.61364
G1 X108.18 Y128.591 E62.64302
G1 X107.872 Y128.028 E62.67343
G1 X107.41 Y127.486 E62.70719
G1 X106.888 Y127.073 E62.73874
G1 X106.489 Y126.852 E62.76035
G1 X105.88 Y126.628 E62.79111
G1 X105.124 Y126.521 E62.8273
G1 X104.554 Y126.541 E62.85433
G1 X103.878 Y126.699 E62.88723
G1 X103.382 Y126.912 E62.91282
G1 X102.83 Y127.272 E62.94405
G1 X102.377 Y127.714 E62.97405
G1 X101.949 Y128.306 E63.00867
G1 X101.611 Y129.157 E63.05207
G1 X101.52 Y130.141 E63.09891
G1 X101.609 Y130.835 E63.13207
G1 X101.949 Y131.694 E63.17585
G1 X102.377 Y132.286 E63.21048
G1 X102.82 Y132.72 E63.23987
G1 X103.565 Y133.18 E63.28137
G1 X104.294 Y133.4 E63.31746
G1 X104.932 Y133.476 E63.34791
G1 X105.479 Y133.446 E63.37387
G1 X106.135 Y133.291 E63.40582
G0 F3600 X107.113 Y132.608
G0 X107.764 Y131.903
G0 X108.253 Y130.813
G0 X106.123 Y93.292
G1 F2400 X106.616 Y93.079 E63.43128
G1 X107.187 Y92.709 E63.46352
G1 X107.871 Y91.971 E63.51122
G1 X108.213 Y91.327 E63.54578
G1 X108.38 Y90.826 E63.5708
G1 X108.472 Y90.197 E63.60093
G1 X108.448 Y89.545 E63.63186
G1 X108.324 Y88.973 E63.6596
G1 X108.061 Y88.334 E63.69235
G1 X107.596 Y87.684 E63.73023
G1 X107.136 Y87.244 E63.7604
G1 X106.452 Y86.832 E63.79824
G1 X105.695 Y86.589 E63.83592
G1 X105.211 Y86.525 E63.85906
G1 X104.557 Y86.538 E63.89007
G1 X103.944 Y86.682 E63.91991
G1 X103.412 Y86.898 E63.94712
G1 X102.798 Y87.288 E63.9816
G1 X102.144 Y88 E64.02742
G1 X101.792 Y88.627 E64.0615
G1 X101.612 Y89.205 E64.09019
G1 X101.521 Y89.848 E64.12097
G1 X101.562 Y90.547 E64.15416
G1 X101.693 Y91.088 E64.18054
G1 X101.978 Y91.72 E64.2134
G1 X102.377 Y92.281 E64.24603
G1 X102.819 Y92.723 E64.27565
G1 X103.565 Y93.171 E64.3169
G1 X104.232 Y93.392 E64.3502
G1 X104.878 Y93.475 E64.38107
G1 X105.464 Y93.447 E64.40887
G1 X106.123 Y93.292 E64.44096
G0 F3600 X134.355 Y81.18
G1 F2400 X173.82 Y120.646 E67.08624
G0 F3600 X173.82 Y121.212
G1 F2400 X133.789 Y81.18 E69.76946
G0 F3600 X133.223 Y81.18
G1 F2400 X173.82 Y121.777 E72.49058
G0 F3600 X173.82 Y122.343
G1 F2400 X132.657 Y81.18 E75.24963
G0 F3600 X132.092 Y81.18
G1 F2400 X173.82 Y122.909 E78.0466
G0 F3600 X173.82 Y123.474
G1 F2400 X131.526 Y81.18 E80.88146
G0 F3600 X130.96 Y81.18
G1 F2400 X173.82 Y124.04 E83.75427
G0 F3600 X173.82 Y124.606
G1 F2400 X130.395 Y81.18 E86.66498
G0 F3600 X129.829 Y81.18
G1 F2400 X173.82 Y125.171 E89.61359
G0 F3600 X173.82 Y125.737
G1 F2400 X129.263 Y81.18 E92.60014
G0 F3600 X128.698 Y81.18
G1 F2400 X173.82 Y126.303 E95.62459
G0 F3600 X173.82 Y126.868
G1 F2400 X128.132 Y81.18 E98.68695
G0 F3600 X127.566 Y81.18
G1 F2400 X173.82 Y127.434 E101.78725
G0 F3600 X173.82 Y128
G1 F2400 X170.048 Y124.227 E102.04011
