;FLAVOR:Marlin
;TIME:3881
;Filament used: 7.12774m
;Layer height: 0.3
;MINX:30.236
;MINY:37.001
;MINZ:0.3
;MAXX:239.764
;MAXY:182.999
;MAXZ:20.1
;TARGET_MACHINE.NAME:Unknown
;Generated with Cura_SteamEngine 5.10.0
M104 S205
M105
M109 S205
G28 ;Home
G1 Z15.0 F6000 ;Move the platform down 15mm
;Prime the extruder
G92 E0
G1 F200 E3
G92 E0
M82 ;absolute extrusion mode
G92 E0
G92 E0
G1 F1500 E-6.5
;LAYER_COUNT:67
;LAYER:0
M107
G0 F3600 X68.908 Y157.9 Z0.3
;TYPE:SKIRT
G1 F1500 E0
G1 F2400 X65.89 Y159.795 E0.1689
G1 X63.518 Y161.18 E0.29908
G1 X61.128 Y162.485 E0.42815
G1 X58.687 Y163.731 E0.55804
G1 X56.221 Y164.902 E0.68743
G1 X53.703 Y166.013 E0.81787
G1 X51.167 Y167.046 E0.94765
G1 X48.61 Y168.006 E1.0771
G1 X46.011 Y168.897 E1.20732
G1 X43.419 Y169.704 E1.33599
G1 X40.721 Y170.462 E1.46881
G1 X38.121 Y171.114 E1.59586
G1 X35.434 Y171.706 E1.72626
G1 X33.581 Y172.076 E1.81582
G1 X32.734 Y172.352 E1.85804
G1 X32.137 Y172.649 E1.88965
G1 X31.616 Y173.042 E1.92058
G1 X31.147 Y173.535 E1.95283
G1 X30.863 Y173.953 E1.97678
G1 X30.562 Y174.525 E2.00741
G1 X30.355 Y175.138 E2.03808
G1 X30.246 Y175.968 E2.07776
G1 X30.237 Y176.595 E2.10748
G1 X30.236 Y178.474 E2.19653
G1 X30.247 Y179.073 E2.22493
G1 X30.31 Y179.649 E2.25239
G1 X30.51 Y180.349 E2.28689
G1 X30.883 Y181.097 E2.32651
G1 X31.277 Y181.619 E2.35751
G1 X31.781 Y182.097 E2.39043
G1 X32.201 Y182.379 E2.41441
G1 X32.778 Y182.68 E2.44525
G1 X33.385 Y182.883 E2.47559
G1 X34.202 Y182.989 E2.51463
G1 X34.886 Y182.999 E2.54705
G1 X115.272 Y182.999 E6.357
G1 X115.847 Y182.988 E6.38426
G1 X116.444 Y182.92 E6.41274
G1 X117.139 Y182.715 E6.44708
G1 X117.872 Y182.346 E6.48598
G1 X118.39 Y181.954 E6.51677
G1 X118.848 Y181.472 E6.54828
G1 X119.133 Y181.055 E6.57222
G1 X121.14 Y177.55 E6.76365
G1 X122.558 Y175.254 E6.89155
G1 X124.09 Y172.924 E7.02371
G1 X125.639 Y170.707 E7.1519
G1 X127.261 Y168.519 E7.28099
G1 X128.972 Y166.344 E7.41214
G1 X130.73 Y164.234 E7.54231
G1 X132.52 Y162.205 E7.67055
G1 X134.392 Y160.202 E7.80049
G1 X136.324 Y158.248 E7.93073
G1 X138.311 Y156.347 E8.06106
G1 X140.35 Y154.504 E8.19133
G1 X142.407 Y152.751 E8.31942
G1 X144.559 Y151.017 E8.45041
G1 X146.727 Y149.37 E8.57945
G1 X148.967 Y147.766 E8.71003
G1 X151.264 Y146.217 E8.84134
G1 X185.618 Y123.755 E10.78672
G1 X188.745 Y121.794 E10.96166
G1 X191.111 Y120.416 E11.09143
G1 X193.517 Y119.104 E11.22132
G1 X195.959 Y117.862 E11.35117
G1 X198.425 Y116.694 E11.48049
G1 X200.937 Y115.59 E11.61054
G1 X203.451 Y114.568 E11.73916
G1 X206.027 Y113.605 E11.86951
G1 X208.636 Y112.713 E12.00019
G1 X211.218 Y111.912 E12.12832
G1 X213.909 Y111.159 E12.26076
G1 X216.519 Y110.508 E12.38825
G1 X219.207 Y109.919 E12.51867
G1 X221.918 Y109.403 E12.64947
G1 X224.606 Y108.97 E12.77851
G1 X227.3 Y108.615 E12.9073
G1 X230.039 Y108.332 E13.03781
G1 X232.754 Y108.128 E13.16685
G1 X235.92 Y107.986 E13.31706
G1 X236.411 Y107.925 E13.34051
G1 X237.112 Y107.724 E13.37507
G1 X237.857 Y107.354 E13.41449
G1 X238.381 Y106.962 E13.44551
G1 X238.859 Y106.459 E13.4784
G1 X239.142 Y106.04 E13.50236
G1 X239.448 Y105.456 E13.53361
G1 X239.65 Y104.846 E13.56407
G1 X239.754 Y104.033 E13.60291
G1 X239.764 Y103.313 E13.63704
G1 X239.764 Y41.505 E16.56647
G1 X239.753 Y40.926 E16.59392
G1 X239.691 Y40.355 E16.62114
G1 X239.49 Y39.653 E16.65575
G1 X239.116 Y38.902 E16.69551
G1 X238.722 Y38.379 E16.72655
G1 X238.214 Y37.9 E16.75964
G1 X237.794 Y37.618 E16.78362
G1 X237.225 Y37.321 E16.81404
G1 X236.618 Y37.118 E16.84438
G1 X235.799 Y37.011 E16.88352
G1 X235.114 Y37.001 E16.91599
G1 X233.257 Y37.001 E17.00401
G1 X232.687 Y37.012 E17.03103
G1 X232.107 Y37.076 E17.05868
G1 X231.407 Y37.279 E17.09323
G1 X230.666 Y37.649 E17.13248
G1 X230.141 Y38.046 E17.16368
G1 X229.647 Y38.571 E17.19784
G1 X229.37 Y38.994 E17.22181
G1 X229.147 Y39.4 E17.24376
G1 X227.238 Y42.739 E17.42606
G1 X225.807 Y45.054 E17.55505
G1 X224.309 Y47.335 E17.68439
G1 X222.726 Y49.6 E17.81536
G1 X221.115 Y51.772 E17.94353
G1 X219.404 Y53.947 E18.07469
G1 X217.646 Y56.057 E18.20485
G1 X215.856 Y58.086 E18.33309
G1 X213.968 Y60.108 E18.46421
G1 X212.071 Y62.025 E18.59203
G1 X210.065 Y63.944 E18.72361
G1 X208.026 Y65.787 E18.85387
G1 X205.969 Y67.54 E18.98197
G1 X203.817 Y69.274 E19.11295
G1 X201.649 Y70.921 E19.24199
G1 X199.409 Y72.525 E19.37257
G1 X197.12 Y74.069 E19.50343
G1 X68.908 Y157.9 E26.76379
G1 F1500 E20.26379
;MESH:z_frame_reenforcement_bracket_v2.stl
G0 F3600 X70.649 Y160.564
G0 X71.237 Y161.463
G0 X76.471 Y168.629
G0 X76.279 Y170.041
G0 X76.429 Y171.428
G0 X76.986 Y172.991
G0 X77.791 Y174.156
G0 X78.641 Y174.97
G0 X79.27 Y175.417
G0 X80.533 Y175.985
G0 X83.56 Y176.676
G0 X83.488 Y176.372
;TYPE:WALL-INNER
G1 F1500 E26.76379
G1 F2400 X82.683 Y176.44 E26.80208
G1 X82.047 Y176.433 E26.83223
G1 X81.27 Y176.344 E26.86929
G1 X80.454 Y176.116 E26.90945
G1 X79.918 Y175.908 E26.9367
G1 X79.192 Y175.55 E26.97506
G1 X78.523 Y175.067 E27.01417
G1 X78.091 Y174.687 E27.04144
G1 X77.658 Y174.229 E27.07131
G1 X77.243 Y173.691 E27.10352
G1 X76.875 Y173.103 E27.13639
G1 X76.475 Y172.193 E27.18351
G1 X76.276 Y171.436 E27.2206
G1 X76.174 Y170.821 E27.25015
G1 X76.13 Y169.993 E27.28945
G1 X76.198 Y169.226 E27.32595
G1 X76.314 Y168.626 E27.35491
G1 X76.546 Y167.842 E27.39366
G1 X76.904 Y167.092 E27.43305
G1 X77.283 Y166.457 E27.4681
G1 X77.866 Y165.756 E27.51131
G1 X78.476 Y165.204 E27.5503
G1 X78.999 Y164.821 E27.58103
G1 X223.461 Y70.367 E35.76153
G1 X223.933 Y70.087 E35.78754
G1 X224.462 Y69.842 E35.81517
G1 X225.096 Y69.62 E35.84701
G1 X225.872 Y69.429 E35.88489
G1 X226.607 Y69.369 E35.91984
G1 X227.301 Y69.375 E35.95273
G1 X227.916 Y69.449 E35.98209
G1 X228.549 Y69.587 E36.0128
G1 X229.316 Y69.838 E36.05105
G1 X230.088 Y70.222 E36.09191
G1 X230.739 Y70.673 E36.12945
G1 X231.299 Y71.158 E36.16456
G1 X231.686 Y71.574 E36.19149
G1 X232.042 Y72.03 E36.21891
G1 X232.5 Y72.743 E36.25907
G1 X232.804 Y73.46 E36.29599
G1 X233.056 Y74.281 E36.33669
G1 X233.171 Y74.993 E36.37087
G1 X233.22 Y75.783 E36.40839
G1 X233.144 Y76.62 E36.44822
G1 X233 Y77.352 E36.48358
G1 X232.715 Y78.145 E36.52352
G1 X232.444 Y78.71 E36.55322
G1 X232.14 Y79.206 E36.58079
G1 X231.736 Y79.748 E36.61283
G1 X231.381 Y80.14 E36.63789
G1 X230.726 Y80.739 E36.67996
G1 X85.909 Y175.427 E44.88062
G1 X85.36 Y175.745 E44.91069
G1 X84.828 Y175.988 E44.93841
G1 X84.192 Y176.204 E44.97025
G1 X83.488 Y176.372 E45.00455
G0 F3600 X83.56 Y176.676
G0 X98.757 Y176.756
G0 X98.758 Y176.376
G1 F2400 X98.561 Y176.212 E45.0167
G1 X98.443 Y175.959 E45.02993
G1 X98.438 Y175.618 E45.04609
G1 X98.527 Y175.431 E45.05591
G1 X98.687 Y175.277 E45.06643
G1 X232.302 Y87.918 E52.63263
G1 X232.547 Y87.868 E52.64448
G1 X232.877 Y87.955 E52.66065
G1 X233.035 Y88.068 E52.66986
G1 X233.16 Y88.254 E52.68048
G1 X233.208 Y88.492 E52.69199
G1 X233.212 Y103.551 E53.40572
G1 X235.316 Y103.548 E53.50544
G1 X235.313 Y41.444 E56.4489
G1 X233.211 Y41.447 E56.54853
G1 X233.208 Y55.535 E57.21624
G1 X233.127 Y55.759 E57.22753
G1 X232.937 Y55.959 E57.2406
G1 X48.817 Y176.347 E67.66695
G1 X48.572 Y176.444 E67.67944
G1 X34.68 Y176.448 E68.33786
G1 X34.684 Y178.552 E68.43758
G1 X115.315 Y178.548 E72.25914
G1 X115.313 Y176.448 E72.35867
G1 X99.036 Y176.445 E73.13013
G1 X98.758 Y176.376 E73.14371
G0 F3600 X99.036 Y176.045
;TYPE:WALL-OUTER
G1 F2400 X98.877 Y175.967 E73.1521
G1 X98.823 Y175.726 E73.16381
G1 X98.906 Y175.612 E73.17049
G1 X232.484 Y88.282 E80.73447
G1 X232.6 Y88.271 E80.73999
G1 X232.751 Y88.35 E80.74807
G1 X232.808 Y88.492 E80.75532
G1 X232.813 Y103.775 E81.47967
G1 X232.873 Y103.873 E81.48511
G1 X232.989 Y103.952 E81.49176
G1 X235.485 Y103.948 E81.61006
G1 X235.64 Y103.89 E81.61791
G1 X235.716 Y103.772 E81.62456
G1 X235.712 Y41.275 E84.58665
G1 X235.657 Y41.123 E84.59431
G1 X235.538 Y41.044 E84.60108
G1 X233.04 Y41.048 E84.71947
G1 X232.884 Y41.107 E84.72738
G1 X232.812 Y41.219 E84.73369
G1 X232.805 Y55.491 E85.41012
G1 X232.718 Y55.624 E85.41765
G1 X48.552 Y176.042 E95.8466
G1 X34.512 Y176.048 E96.51204
G1 X34.356 Y176.107 E96.51994
G1 X34.28 Y176.223 E96.52652
G1 X34.284 Y178.721 E96.64491
G1 X34.338 Y178.872 E96.65251
G1 X34.536 Y178.952 E96.66263
G1 X115.485 Y178.948 E100.49927
G1 X115.64 Y178.89 E100.50711
G1 X115.716 Y178.773 E100.51372
G1 X115.712 Y176.275 E100.63212
G1 X115.657 Y176.123 E100.63978
G1 X115.545 Y176.048 E100.64617
G1 X99.036 Y176.045 E101.42862
G0 F3600 X98.877 Y175.967
G0 X98.872 Y175.945
G0 X98.871 Y176.356
G0 X83.491 Y176.282
G0 X83.419 Y175.978
G1 F2400 X82.706 Y176.04 E101.46254
G1 X82.093 Y176.035 E101.4916
G1 X81.33 Y175.945 E101.52801
G1 X80.599 Y175.743 E101.56396
G1 X80.047 Y175.528 E101.59203
G1 X79.41 Y175.212 E101.62574
G1 X78.787 Y174.767 E101.66202
G1 X78.355 Y174.387 E101.68929
G1 X77.986 Y173.998 E101.7147
G1 X77.582 Y173.479 E101.74588
G1 X77.2 Y172.864 E101.78019
G1 X76.85 Y172.048 E101.82227
G1 X76.67 Y171.37 E101.85552
G1 X76.572 Y170.777 E101.88401
G1 X76.528 Y170.027 E101.91961
G1 X76.591 Y169.302 E101.9541
G1 X76.707 Y168.702 E101.98307
G1 X76.916 Y168.002 E102.01769
G1 X77.248 Y167.297 E102.05463
G1 X77.622 Y166.676 E102.08899
G1 X78.194 Y165.991 E102.13128
G1 X78.713 Y165.526 E102.16431
G1 X79.218 Y165.156 E102.19398
G1 X223.665 Y70.711 E110.37366
G1 X224.137 Y70.431 E110.39967
G1 X224.646 Y70.198 E110.4262
G1 X225.226 Y69.998 E110.45528
G1 X225.947 Y69.824 E110.49043
G1 X226.639 Y69.768 E110.52334
G1 X227.255 Y69.773 E110.55253
G1 X227.831 Y69.84 E110.58002
G1 X228.457 Y69.977 E110.61039
G1 X229.138 Y70.196 E110.64429
G1 X229.91 Y70.58 E110.68516
G1 X230.508 Y71 E110.71979
G1 X231.007 Y71.431 E110.75105
G1 X231.37 Y71.82 E110.77626
G1 X231.726 Y72.276 E110.80368
G1 X232.149 Y72.941 E110.84104
G1 X232.443 Y73.636 E110.8768
G1 X232.662 Y74.347 E110.91206
G1 X232.77 Y74.999 E110.94339
G1 X232.82 Y75.803 E110.98157
G1 X232.749 Y76.555 E111.01737
G1 X232.609 Y77.26 E111.05143
G1 X232.361 Y77.956 E111.08645
G1 X232.103 Y78.501 E111.11503
G1 X231.789 Y79.012 E111.14346
G1 X231.453 Y79.464 E111.17015
G1 X231.085 Y79.871 E111.19616
G1 X230.47 Y80.428 E111.23548
G1 X85.681 Y175.097 E119.43454
G1 X85.192 Y175.382 E119.46136
G1 X84.698 Y175.61 E119.48715
G1 X84.099 Y175.815 E119.51715
G1 X83.419 Y175.978 E119.5503
G0 F3600 X83.22 Y175.995
G0 X83.246 Y176.306
G0 X98.548 Y176.756
G0 X98.548 Y176.69
;TYPE:SKIN
G1 F2400 X99.036 Y176.825 E119.57429
G1 X114.932 Y176.828 E120.3277
G1 X114.932 Y178.168 E120.39121
G1 X35.064 Y178.172 E124.17661
G1 X35.061 Y176.828 E124.24031
G1 X48.627 Y176.822 E124.88328
G1 X49.03 Y176.66 E124.90386
G1 X233.142 Y56.276 E135.32979
G1 X233.425 Y55.987 E135.34896
G1 X233.586 Y55.591 E135.36922
G1 X233.588 Y41.824 E136.02172
G1 X234.932 Y41.824 E136.08542
G1 X234.936 Y103.168 E138.99286
G1 X233.592 Y103.168 E139.05656
G1 X233.588 Y88.496 E139.75195
G1 X233.52 Y88.14 E139.76912
G1 X233.326 Y87.827 E139.78658
G1 X233.074 Y87.63 E139.80174
G1 X232.78 Y87.515 E139.8167
G1 X232.559 Y87.488 E139.82725
G1 X232.148 Y87.566 E139.84708
G1 X98.478 Y174.956 E147.41626
G1 X98.217 Y175.207 E147.43342
G1 X98.071 Y175.514 E147.44953
G1 X98.034 Y175.722 E147.45955
G1 X98.09 Y176.111 E147.47817
G1 X98.238 Y176.413 E147.49411
G1 X98.548 Y176.69 E147.51382
G0 F3600 X98.548 Y176.756
G0 X83.538 Y176.748
G1 F2400 X84.301 Y176.566 E147.55099
G1 X84.949 Y176.346 E147.58343
G1 X85.519 Y176.091 E147.61302
G1 X86.11 Y175.745 E147.64548
G1 X230.946 Y81.048 E155.84713
G1 X231.599 Y80.456 E155.8889
G1 X232.078 Y79.931 E155.92259
G1 X232.458 Y79.411 E155.95311
G1 X232.771 Y78.906 E155.98127
G1 X233.065 Y78.292 E156.01353
G1 X233.365 Y77.456 E156.05563
G1 X233.517 Y76.691 E156.0926
G1 X233.596 Y75.779 E156.13598
G1 X233.538 Y74.871 E156.17911
G1 X233.422 Y74.163 E156.21311
G1 X233.183 Y73.399 E156.25105
G1 X232.829 Y72.552 E156.29456
G1 X232.393 Y71.868 E156.33301
G1 X231.986 Y71.345 E156.36442
G1 X231.561 Y70.885 E156.3941
G1 X231.029 Y70.417 E156.42768
G1 X230.341 Y69.925 E156.46777
G1 X229.425 Y69.468 E156.51629
G1 X228.657 Y69.221 E156.55452
G1 X227.991 Y69.076 E156.58683
G1 X227.349 Y68.997 E156.61749
G1 X226.576 Y68.988 E156.65412
G1 X225.783 Y69.053 E156.69184
G1 X225.063 Y69.233 E156.72701
G1 X224.323 Y69.486 E156.76408
G1 X223.748 Y69.75 E156.79406
G1 X223.261 Y70.04 E156.82093
G1 X78.79 Y164.5 E165.00195
G1 X78.23 Y164.91 E165.03484
G1 X77.63 Y165.446 E165.07297
G1 X76.978 Y166.223 E165.12105
G1 X76.571 Y166.905 E165.15869
G1 X76.195 Y167.693 E165.20007
G1 X75.96 Y168.457 E165.23796
G1 X75.808 Y169.255 E165.27646
G1 X75.744 Y170.015 E165.31261
G1 X75.792 Y170.852 E165.35234
G1 X75.902 Y171.502 E165.38359
G1 X76.106 Y172.298 E165.42253
G1 X76.508 Y173.232 E165.47073
G1 X76.918 Y173.891 E165.50751
G1 X77.366 Y174.474 E165.54236
G1 X77.822 Y174.958 E165.57388
G1 X78.337 Y175.404 E165.60617
G1 X79.006 Y175.88 E165.64508
G1 X79.699 Y176.224 E165.68175
G1 X80.391 Y176.495 E165.71697
G1 X81.187 Y176.713 E165.75609
G1 X81.997 Y176.807 E165.79474
G1 X82.693 Y176.82 E165.82773
G1 X83.538 Y176.748 E165.86793
G0 F3600 X35.419 Y177.972
G1 F2400 X35.263 Y177.816 E165.87838
G0 F3600 X35.261 Y177.248
G1 F2400 X35.985 Y177.972 E165.92691
G0 F3600 X36.55 Y177.972
G1 F2400 X35.606 Y177.028 E165.99018
G0 F3600 X36.172 Y177.028
G1 F2400 X37.116 Y177.972 E166.05346
G0 F3600 X37.682 Y177.972
G1 F2400 X36.737 Y177.027 E166.1168
G0 F3600 X37.303 Y177.027
G1 F2400 X38.247 Y177.972 E166.18011
G0 F3600 X38.813 Y177.972
G1 F2400 X37.868 Y177.026 E166.24348
G0 F3600 X38.433 Y177.026
G1 F2400 X39.379 Y177.972 E166.30689
G0 F3600 X39.944 Y177.972
G1 F2400 X38.998 Y177.026 E166.3703
G0 F3600 X39.564 Y177.026
G1 F2400 X40.51 Y177.972 E166.43371
G0 F3600 X41.076 Y177.972
G1 F2400 X40.129 Y177.025 E166.49718
G0 F3600 X40.695 Y177.025
G1 F2400 X41.642 Y177.972 E166.56066
G0 F3600 X42.207 Y177.972
G1 F2400 X41.26 Y177.024 E166.62416
G0 F3600 X41.825 Y177.024
G1 F2400 X42.773 Y177.972 E166.68771
G0 F3600 X43.339 Y177.972
G1 F2400 X42.39 Y177.023 E166.75132
G0 F3600 X42.956 Y177.023
G1 F2400 X43.904 Y177.972 E166.81489
G0 F3600 X44.47 Y177.972
G1 F2400 X43.521 Y177.023 E166.8785
G0 F3600 X44.087 Y177.023
G1 F2400 X45.036 Y177.972 E166.94211
G0 F3600 X45.601 Y177.972
G1 F2400 X44.652 Y177.022 E167.00575
G0 F3600 X45.217 Y177.022
G1 F2400 X46.167 Y177.972 E167.06943
G0 F3600 X46.733 Y177.972
G1 F2400 X45.782 Y177.021 E167.13317
G0 F3600 X46.348 Y177.021
G1 F2400 X47.298 Y177.972 E167.19688
G0 F3600 X47.864 Y177.972
G1 F2400 X46.913 Y177.021 E167.26063
G0 F3600 X47.479 Y177.021
G1 F2400 X48.43 Y177.972 E167.32437
G0 F3600 X48.995 Y177.971
G1 F2400 X48.044 Y177.02 E167.38811
G0 F3600 X48.609 Y177.02
G1 F2400 X49.56 Y177.971 E167.45186
G0 F3600 X50.126 Y177.971
G1 F2400 X49.027 Y176.872 E167.52552
G0 F3600 X49.386 Y176.666
G1 F2400 X50.692 Y177.971 E167.61302
G0 F3600 X51.257 Y177.971
G1 F2400 X49.729 Y176.442 E167.71548
G0 F3600 X50.07 Y176.218
G1 F2400 X51.823 Y177.971 E167.83297
G0 F3600 X52.389 Y177.971
G1 F2400 X50.412 Y175.995 E167.96545
G0 F3600 X50.755 Y175.771
G1 F2400 X52.955 Y177.971 E168.11292
G0 F3600 X53.52 Y177.971
G1 F2400 X51.097 Y175.548 E168.27532
G0 F3600 X51.438 Y175.324
G1 F2400 X54.086 Y177.971 E168.45278
G0 F3600 X54.652 Y177.971
G1 F2400 X51.781 Y175.1 E168.64522
G0 F3600 X52.123 Y174.877
G1 F2400 X55.217 Y177.971 E168.8526
G0 F3600 X55.783 Y177.971
G1 F2400 X52.464 Y174.653 E169.07503
G0 F3600 X52.807 Y174.429
G1 F2400 X56.349 Y177.971 E169.31244
G0 F3600 X56.914 Y177.971
G1 F2400 X53.149 Y174.206 E169.5648
G0 F3600 X53.491 Y173.982
G1 F2400 X57.48 Y177.971 E169.83217
G0 F3600 X58.046 Y177.971
G1 F2400 X53.833 Y173.758 E170.11456
G0 F3600 X54.175 Y173.535
G1 F2400 X58.611 Y177.971 E170.4119
G0 F3600 X59.177 Y177.971
G1 F2400 X54.517 Y173.311 E170.72424
G0 F3600 X54.859 Y173.087
G1 F2400 X59.743 Y177.971 E171.05161
G0 F3600 X60.308 Y177.971
G1 F2400 X55.201 Y172.864 E171.39392
G0 F3600 X55.543 Y172.64
G1 F2400 X60.874 Y177.971 E171.75124
G0 F3600 X61.44 Y177.971
G1 F2400 X55.885 Y172.417 E172.12355
G0 F3600 X56.227 Y172.193
G1 F2400 X62.005 Y177.97 E172.5108
G0 F3600 X62.57 Y177.97
G1 F2400 X56.569 Y171.969 E172.91303
G0 F3600 X56.911 Y171.746
G1 F2400 X63.136 Y177.97 E173.33025
G0 F3600 X63.702 Y177.97
