;FLAVOR:Marlin
;TIME:3860
;Filament used: 7.12247m
;Layer height: 0.3
;MINX:30.236
;MINY:37.001
;MINZ:0.3
;MAXX:239.764
;MAXY:182.999
;MAXZ:20.1
;TARGET_MACHINE.NAME:Unknown
;Generated with Cura_SteamEngine 5.10.0
M104 S205
M105
M109 S205
G28 ;Home
G1 Z15.0 F6000 ;Move the platform down 15mm
;Prime the extruder
G92 E0
G1 F200 E3
G92 E0
M82 ;absolute extrusion mode
G92 E0
G92 E0
G1 F1500 E-6.5
;LAYER_COUNT:67
;LAYER:0
M107
G0 F3600 X31.615 Y38.043 Z0.3
;TYPE:SKIRT
G1 F1500 E0
G1 F2400 X32.137 Y37.649 E0.031
G1 X32.888 Y37.276 E0.07074
G1 X33.589 Y37.075 E0.1053
G1 X34.159 Y37.012 E0.13248
G1 X34.721 Y37.001 E0.15912
G1 X36.618 Y37.002 E0.24903
G1 X37.287 Y37.011 E0.28074
G1 X37.79 Y37.058 E0.30469
G1 X38.267 Y37.172 E0.32793
G1 X38.744 Y37.339 E0.35189
G1 X39.288 Y37.631 E0.38115
G1 X39.706 Y37.915 E0.4051
G1 X40.218 Y38.405 E0.43869
G1 X40.677 Y39.05 E0.47621
G1 X41.199 Y39.974 E0.52651
G1 X41.621 Y40.745 E0.56817
G1 X42.988 Y43.083 E0.69653
G1 X44.435 Y45.402 E0.82608
G1 X45.952 Y47.691 E0.95623
G1 X47.512 Y49.904 E1.08456
G1 X49.176 Y52.128 E1.21621
G1 X50.87 Y54.266 E1.34549
G1 X52.635 Y56.367 E1.47554
G1 X54.462 Y58.419 E1.60576
G1 X56.312 Y60.385 E1.73371
G1 X58.27 Y62.348 E1.86512
G1 X60.258 Y64.235 E1.99503
G1 X62.276 Y66.042 E2.12341
G1 X64.369 Y67.813 E2.25336
G1 X66.513 Y69.526 E2.38343
G1 X68.711 Y71.183 E2.51389
G1 X70.944 Y72.768 E2.64367
G1 X72.909 Y74.087 E2.75584
G1 X201.088 Y157.899 E10.0144
G1 X203.436 Y159.388 E10.14617
G1 X205.777 Y160.781 E10.27528
G1 X208.175 Y162.116 E10.40536
G1 X210.631 Y163.396 E10.53663
G1 X213.057 Y164.573 E10.66443
G1 X215.566 Y165.704 E10.79487
G1 X218.119 Y166.768 E10.92596
G1 X220.653 Y167.743 E11.05464
G1 X223.242 Y168.654 E11.18472
G1 X225.837 Y169.486 E11.31388
G1 X228.492 Y170.256 E11.4449
G1 X231.113 Y170.936 E11.57324
G1 X233.802 Y171.552 E11.70399
G1 X236.607 Y172.114 E11.83957
G1 X237.232 Y172.324 E11.87082
G1 X237.805 Y172.624 E11.90148
G1 X238.224 Y172.907 E11.92544
G1 X238.723 Y173.381 E11.95806
G1 X239.116 Y173.902 E11.98899
G1 X239.49 Y174.653 E12.02876
G1 X239.691 Y175.355 E12.06337
G1 X239.753 Y175.926 E12.09059
G1 X239.764 Y176.505 E12.11803
G1 X239.764 Y178.313 E12.20373
G1 X239.754 Y179.033 E12.23785
G1 X239.648 Y179.853 E12.27704
G1 X239.445 Y180.46 E12.30738
G1 X239.139 Y181.043 E12.33858
G1 X238.855 Y181.462 E12.36257
G1 X238.385 Y181.957 E12.39493
G1 X237.863 Y182.351 E12.42592
G1 X237.112 Y182.724 E12.46567
G1 X236.411 Y182.925 E12.50023
G1 X235.839 Y182.988 E12.5275
G1 X235.272 Y182.999 E12.55438
G1 X154.882 Y182.998 E16.36452
G1 X154.194 Y182.988 E16.39713
G1 X153.382 Y182.882 E16.43595
G1 X152.778 Y182.681 E16.46612
G1 X152.192 Y182.374 E16.49747
G1 X151.773 Y182.091 E16.52143
G1 X151.255 Y181.598 E16.55533
G1 X150.792 Y180.946 E16.59323
G1 X150.002 Y179.543 E16.66954
G1 X148.634 Y177.204 E16.79797
G1 X147.173 Y174.861 E16.92884
G1 X145.658 Y172.58 E17.05862
G1 X144.089 Y170.354 E17.1877
G1 X142.437 Y168.147 E17.31836
G1 X140.726 Y165.99 E17.44885
G1 X138.991 Y163.926 E17.57664
G1 X137.166 Y161.876 E17.70673
G1 X135.28 Y159.874 E17.83709
G1 X133.334 Y157.923 E17.96769
G1 X131.348 Y156.04 E18.0974
G1 X129.334 Y154.237 E18.22552
G1 X127.24 Y152.465 E18.35553
G1 X125.071 Y150.734 E18.48706
G1 X122.895 Y149.096 E18.61614
G1 X120.679 Y147.522 E18.74497
G1 X118.712 Y146.202 E18.85725
G1 X84.395 Y123.764 E20.80054
G1 X82.037 Y122.269 E20.93287
G1 X79.679 Y120.867 E21.06289
G1 X77.31 Y119.547 E21.19142
G1 X74.879 Y118.281 E21.32133
G1 X72.427 Y117.091 E21.45051
G1 X69.9 Y115.952 E21.58188
G1 X67.363 Y114.895 E21.71214
G1 X64.829 Y113.92 E21.84082
G1 X62.24 Y113.009 E21.97091
G1 X59.622 Y112.169 E22.10122
G1 X57.014 Y111.413 E22.22992
G1 X54.363 Y110.725 E22.35972
G1 X51.675 Y110.109 E22.49043
G1 X48.998 Y109.575 E22.6198
G1 X46.311 Y109.116 E22.749
G1 X43.613 Y108.733 E22.87816
G1 X40.882 Y108.426 E23.00841
G1 X38.144 Y108.195 E23.13864
G1 X35.438 Y108.042 E23.2671
G1 X34.113 Y107.986 E23.32995
G1 X33.378 Y107.881 E23.36514
G1 X32.778 Y107.68 E23.39513
G1 X32.2 Y107.378 E23.42604
G1 X31.78 Y107.097 E23.44999
G1 X31.274 Y106.616 E23.48308
G1 X30.883 Y106.096 E23.51392
G1 X30.511 Y105.349 E23.55347
G1 X30.31 Y104.647 E23.58808
G1 X30.247 Y104.074 E23.6154
G1 X30.236 Y103.495 E23.64285
G1 X30.237 Y41.623 E26.57531
G1 X30.247 Y40.961 E26.60669
G1 X30.355 Y40.136 E26.64613
G1 X30.561 Y39.528 E26.67655
G1 X30.86 Y38.959 E26.70702
G1 X31.143 Y38.54 E26.73098
G1 X31.615 Y38.043 E26.76347
G1 F1500 E20.26347
;MESH:z_frame_reenforcement_bracket_v2.stl
G0 F3600 X37.374 Y40.251
G0 X38.02 Y40.934
G0 X38.049 Y55.1
G0 X36.962 Y55.688
G0 X36.945 Y75.965
G0 X37.15 Y77.334
G0 X37.673 Y78.616
G0 X38.362 Y79.638
G0 X39.385 Y80.633
G0 X171.596 Y175.657
G0 X171.434 Y176.213
;TYPE:WALL-INNER
G1 F1500 E26.76347
G1 F2400 X171.238 Y176.377 E26.77558
G1 X171.04 Y176.444 E26.78549
G1 X154.68 Y176.448 E27.56088
G1 X154.684 Y178.552 E27.6606
G1 X235.315 Y178.548 E31.48216
G1 X235.313 Y176.448 E31.58169
G1 X221.512 Y176.448 E32.2358
G1 X221.183 Y176.351 E32.25206
G1 X37.059 Y55.959 E42.67867
G1 X36.869 Y55.759 E42.69174
G1 X36.788 Y55.538 E42.7029
G1 X36.785 Y41.447 E43.37075
G1 X34.68 Y41.448 E43.47052
G1 X34.684 Y103.551 E46.41393
G1 X36.784 Y103.548 E46.51346
G1 X36.788 Y88.492 E47.22705
G1 X36.879 Y88.173 E47.24278
G1 X37.085 Y87.973 E47.25638
G1 X37.297 Y87.88 E47.26736
G1 X37.441 Y87.864 E47.27422
G1 X37.693 Y87.914 E47.2864
G1 X171.38 Y175.324 E54.85677
G1 X171.523 Y175.523 E54.86839
G1 X171.58 Y175.764 E54.88012
G1 X171.533 Y176.024 E54.89265
G1 X171.434 Y176.213 E54.90276
G0 F3600 X171.878 Y176.346
G0 X187.5 Y176.708
G0 X189.019 Y176.588
G0 X188.937 Y176.287
G1 F2400 X188.257 Y176.403 E54.93545
G1 X187.502 Y176.458 E54.97133
G1 X186.507 Y176.369 E55.01868
G1 X185.807 Y176.205 E55.05275
G1 X185.219 Y176.009 E55.08213
G1 X184.632 Y175.741 E55.11271
G1 X184.088 Y175.427 E55.14248
G1 X39.331 Y80.779 E63.33972
G1 X38.644 Y80.173 E63.38314
G1 X38.264 Y79.757 E63.40985
G1 X37.856 Y79.206 E63.44234
G1 X37.521 Y78.653 E63.47299
G1 X37.259 Y78.091 E63.50238
G1 X36.998 Y77.365 E63.53894
G1 X36.856 Y76.62 E63.57489
G1 X36.792 Y75.936 E63.60745
G1 X36.803 Y75.14 E63.64518
G1 X36.941 Y74.245 E63.6881
G1 X37.19 Y73.471 E63.72663
G1 X37.485 Y72.77 E63.76268
G1 X37.965 Y71.995 E63.80589
G1 X38.575 Y71.27 E63.85079
G1 X39.226 Y70.697 E63.8919
G1 X39.686 Y70.373 E63.91856
G1 X40.289 Y70.027 E63.95151
G1 X40.866 Y69.774 E63.98137
G1 X41.561 Y69.543 E64.01609
G1 X42.338 Y69.411 E64.05344
G1 X42.966 Y69.365 E64.08328
G1 X43.661 Y69.385 E64.11624
G1 X44.277 Y69.471 E64.14572
G1 X44.841 Y69.603 E64.17317
G1 X45.432 Y69.799 E64.20268
G1 X46.253 Y70.177 E64.24552
G1 X191.317 Y165.029 E72.46023
G1 X192.091 Y165.712 E72.50915
G1 X192.717 Y166.475 E72.55593
G1 X193.19 Y167.253 E72.59908
G1 X193.563 Y168.174 E72.64618
G1 X193.746 Y168.919 E72.68254
G1 X193.836 Y169.546 E72.71256
G1 X193.86 Y170.178 E72.74254
G1 X193.828 Y170.75 E72.76969
G1 X193.721 Y171.436 E72.8026
G1 X193.512 Y172.213 E72.84073
G1 X193.206 Y172.918 E72.87716
G1 X192.895 Y173.476 E72.90743
G1 X192.541 Y173.986 E72.93686
G1 X192.069 Y174.538 E72.97128
G1 X191.423 Y175.106 E73.01205
G1 X190.799 Y175.548 E73.04829
G1 X190.078 Y175.908 E73.08649
G1 X189.485 Y176.135 E73.11658
G1 X188.937 Y176.287 E73.14354
G0 F3600 X188.81 Y175.906
;TYPE:WALL-OUTER
G1 F2400 X188.246 Y176.002 E73.17065
G1 X187.487 Y176.056 E73.20672
G1 X186.627 Y175.984 E73.24762
G1 X185.879 Y175.81 E73.28402
G1 X185.347 Y175.63 E73.31064
G1 X184.8 Y175.378 E73.33918
G1 X184.282 Y175.076 E73.3676
G1 X39.55 Y80.444 E81.56343
G1 X38.955 Y79.918 E81.60107
G1 X38.56 Y79.487 E81.62878
G1 X38.197 Y78.997 E81.65768
G1 X37.893 Y78.501 E81.68526
G1 X37.635 Y77.956 E81.71384
G1 X37.383 Y77.246 E81.74954
G1 X37.248 Y76.536 E81.7838
G1 X37.192 Y75.938 E81.81226
G1 X37.198 Y75.201 E81.8472
G1 X37.337 Y74.319 E81.88951
G1 X37.559 Y73.626 E81.924
G1 X37.849 Y72.942 E81.95922
G1 X38.305 Y72.206 E82.00025
G1 X38.879 Y71.53 E82.04228
G1 X39.456 Y71.024 E82.07866
G1 X39.916 Y70.7 E82.10532
G1 X40.432 Y70.402 E82.13357
G1 X40.992 Y70.154 E82.16259
G1 X41.672 Y69.927 E82.19657
G1 X42.403 Y69.806 E82.23169
G1 X42.994 Y69.764 E82.25977
G1 X43.607 Y69.781 E82.28883
G1 X44.167 Y69.857 E82.31562
G1 X44.768 Y69.998 E82.34488
G1 X45.324 Y70.186 E82.3727
G1 X46.034 Y70.512 E82.40972
G1 X191.122 Y165.382 E90.62585
G1 X191.794 Y165.982 E90.66855
G1 X192.375 Y166.683 E90.7117
G1 X192.837 Y167.447 E90.75402
G1 X193.175 Y168.271 E90.79623
G1 X193.347 Y168.959 E90.82984
G1 X193.436 Y169.563 E90.85878
G1 X193.46 Y170.156 E90.88691
G1 X193.426 Y170.747 E90.91496
G1 X193.334 Y171.335 E90.94317
G1 X193.154 Y172.027 E90.97706
G1 X192.856 Y172.725 E91.01303
G1 X192.576 Y173.233 E91.04052
G1 X192.237 Y173.726 E91.06888
G1 X191.765 Y174.278 E91.1033
G1 X191.192 Y174.78 E91.13941
G1 X190.604 Y175.196 E91.17355
G1 X189.933 Y175.535 E91.20918
G1 X189.397 Y175.743 E91.23643
G1 X188.81 Y175.906 E91.2653
G0 F3600 X188.613 Y175.939
G0 X188.664 Y176.247
G0 X171.118 Y176.357
G0 X171.118 Y175.967
G1 F2400 X170.995 Y176.042 E91.27213
G1 X154.512 Y176.048 E92.05335
G1 X154.356 Y176.107 E92.06126
G1 X154.28 Y176.223 E92.06783
G1 X154.284 Y178.721 E92.18623
G1 X154.338 Y178.872 E92.19383
G1 X154.536 Y178.952 E92.20395
G1 X235.485 Y178.948 E96.04058
G1 X235.64 Y178.89 E96.04843
G1 X235.716 Y178.773 E96.05504
G1 X235.712 Y176.275 E96.17343
G1 X235.657 Y176.123 E96.18109
G1 X235.545 Y176.048 E96.18748
G1 X221.512 Y176.048 E96.85259
G1 X221.402 Y176.016 E96.85802
G1 X37.278 Y55.624 E107.28463
G1 X37.19 Y55.491 E107.29218
G1 X37.184 Y41.221 E107.96852
G1 X37.124 Y41.122 E107.97401
G1 X37.013 Y41.048 E107.98033
G1 X34.512 Y41.048 E108.09887
G1 X34.356 Y41.107 E108.10677
G1 X34.28 Y41.224 E108.11338
G1 X34.284 Y103.721 E111.07547
G1 X34.338 Y103.872 E111.08307
G1 X34.536 Y103.952 E111.09319
G1 X36.956 Y103.948 E111.20789
G1 X37.112 Y103.889 E111.2158
G1 X37.184 Y103.777 E111.22211
G1 X37.188 Y88.492 E111.94655
G1 X37.218 Y88.385 E111.95182
G1 X37.389 Y88.269 E111.96161
G1 X37.512 Y88.278 E111.96746
G1 X171.119 Y175.635 E119.53328
G1 X171.18 Y175.774 E119.54048
G1 X171.118 Y175.967 E119.55008
G0 F3600 X170.995 Y176.042
G0 X170.939 Y176.042
G0 X170.939 Y176.357
G0 X188.94 Y176.674
;TYPE:SKIN
G1 F2400 X189.603 Y176.492 E119.58267
G1 X190.207 Y176.264 E119.61327
G1 X190.985 Y175.88 E119.65439
G1 X191.705 Y175.367 E119.69629
G1 X192.321 Y174.826 E119.73515
G1 X192.885 Y174.162 E119.77644
G1 X193.206 Y173.693 E119.80337
G1 X193.548 Y173.081 E119.8366
G1 X193.884 Y172.313 E119.87633
G1 X194.09 Y171.516 E119.91535
G1 X194.202 Y170.82 E119.94876
G1 X194.236 Y170.177 E119.97928
G1 X194.216 Y169.525 E120.01019
G1 X194.115 Y168.84 E120.04301
G1 X193.919 Y168.032 E120.08242
G1 X193.52 Y167.068 E120.13187
G1 X193.016 Y166.232 E120.17813
G1 X192.354 Y165.438 E120.22713
G1 X191.594 Y164.758 E120.27546
G1 X46.414 Y69.824 E128.4969
G1 X45.631 Y69.465 E128.53773
G1 X45.021 Y69.258 E128.56826
G1 X44.343 Y69.097 E128.60129
G1 X43.627 Y69.001 E128.63552
G1 X42.937 Y68.984 E128.66824
G1 X42.35 Y69.026 E128.69613
G1 X41.448 Y69.179 E128.73949
G1 X40.745 Y69.409 E128.77455
G1 X40.043 Y69.722 E128.81098
G1 X39.539 Y70.014 E128.83858
G1 X38.944 Y70.432 E128.87305
G1 X38.315 Y70.982 E128.91265
G1 X37.687 Y71.718 E128.95851
G1 X37.154 Y72.574 E129.0063
G1 X36.811 Y73.395 E129.04847
G1 X36.573 Y74.139 E129.08549
G1 X36.418 Y75.137 E129.13336
G1 X36.412 Y75.946 E129.1717
G1 X36.476 Y76.67 E129.20615
G1 X36.623 Y77.446 E129.24359
G1 X36.895 Y78.216 E129.28229
G1 X37.174 Y78.813 E129.31352
G1 X37.524 Y79.399 E129.34587
G1 X37.932 Y79.952 E129.37845
G1 X38.42 Y80.484 E129.41266
G1 X39.07 Y81.064 E129.45395
G1 X183.882 Y175.748 E137.65431
G1 X184.473 Y176.087 E137.6866
G1 X185.081 Y176.363 E137.71824
G1 X185.774 Y176.588 E137.75278
G1 X186.511 Y176.756 E137.7886
G1 X187.487 Y176.836 E137.83502
G1 X188.279 Y176.78 E137.87265
G1 X188.94 Y176.674 E137.90438
G0 F3600 X171.385 Y176.757
G0 X171.386 Y176.726
G1 F2400 X171.704 Y176.479 E137.92346
G1 X171.902 Y176.111 E137.94327
G1 X171.958 Y175.791 E137.95866
G1 X171.926 Y175.534 E137.97094
G1 X171.764 Y175.193 E137.98883
G1 X171.598 Y175.012 E138.00047
G1 X37.844 Y87.562 E145.57454
G1 X37.477 Y87.484 E145.59232
G1 X37.229 Y87.505 E145.60412
G1 X36.916 Y87.632 E145.62013
G1 X36.588 Y87.932 E145.6412
G1 X36.408 Y88.465 E145.66786
G1 X36.404 Y103.168 E146.36472
G1 X35.064 Y103.168 E146.42823
G1 X35.06 Y41.828 E149.33548
G1 X36.404 Y41.825 E149.39918
G1 X36.41 Y55.595 E150.05182
G1 X36.523 Y55.916 E150.06795
G1 X36.85 Y56.276 E150.091
G1 X220.97 Y176.664 E160.51735
G1 X221.479 Y176.828 E160.54269
G1 X234.932 Y176.828 E161.18031
G1 X234.932 Y178.168 E161.24382
G1 X155.064 Y178.172 E165.02921
G1 X155.061 Y176.828 E165.09291
G1 X171.099 Y176.822 E165.85305
G1 X171.386 Y176.726 E165.86739
G0 F3600 X171.385 Y176.757
G0 X234.163 Y177.028
G1 F2400 X234.732 Y177.598 E165.90556
G0 F3600 X234.537 Y177.968
G1 F2400 X233.597 Y177.028 E165.96857
G0 F3600 X233.031 Y177.028
G1 F2400 X233.971 Y177.968 E166.03157
G0 F3600 X233.405 Y177.968
G1 F2400 X232.466 Y177.028 E166.09455
G0 F3600 X231.9 Y177.028
G1 F2400 X232.84 Y177.968 E166.15755
G0 F3600 X232.274 Y177.968
G1 F2400 X231.334 Y177.028 E166.22056
G0 F3600 X230.769 Y177.028
G1 F2400 X231.708 Y177.968 E166.28353
G0 F3600 X231.143 Y177.968
G1 F2400 X230.203 Y177.028 E166.34654
G0 F3600 X229.637 Y177.028
G1 F2400 X230.577 Y177.968 E166.40954
G0 F3600 X230.011 Y177.968
G1 F2400 X229.071 Y177.028 E166.47255
G0 F3600 X228.506 Y177.028
G1 F2400 X229.446 Y177.968 E166.53556
G0 F3600 X228.88 Y177.968
G1 F2400 X227.94 Y177.028 E166.59856
G0 F3600 X227.374 Y177.028
G1 F2400 X228.314 Y177.968 E166.66157
G0 F3600 X227.748 Y177.968
G1 F2400 X226.809 Y177.028 E166.72454
G0 F3600 X226.243 Y177.028
G1 F2400 X227.183 Y177.968 E166.78755
G0 F3600 X226.617 Y177.968
G1 F2400 X225.677 Y177.028 E166.85055
G0 F3600 X225.112 Y177.028
G1 F2400 X226.051 Y177.968 E166.91352
G0 F3600 X225.486 Y177.968
G1 F2400 X224.546 Y177.028 E166.97653
G0 F3600 X223.98 Y177.028
G1 F2400 X224.92 Y177.968 E167.03954
G0 F3600 X224.354 Y177.968
G1 F2400 X223.415 Y177.028 E167.10251
G0 F3600 X222.849 Y177.028
G1 F2400 X223.789 Y177.968 E167.16551
G0 F3600 X223.223 Y177.968
G1 F2400 X222.283 Y177.028 E167.22852
G0 F3600 X221.718 Y177.028
G1 F2400 X222.657 Y177.968 E167.29149
G0 F3600 X222.092 Y177.968
G1 F2400 X221.003 Y176.879 E167.36449
G1 X220.933 Y176.809
G0 F3600 X220.96 Y177.968
G1 F2400 X217.865 Y174.873 E167.57194
G1 X217.795 Y174.803
G0 F3600 X216.231 Y173.805
G1 F2400 X220.395 Y177.968 E167.85101
G0 F3600 X219.829 Y177.968
G1 F2400 X214.597 Y172.736 E168.20169
G1 X214.527 Y172.666
G0 F3600 X212.963 Y171.668
G1 F2400 X219.263 Y177.968 E168.62397
G0 F3600 X218.698 Y177.969
G1 F2400 X211.328 Y170.599 E169.11796
G1 X211.258 Y170.529
G0 F3600 X209.694 Y169.53
G1 F2400 X218.133 Y177.969 E169.68361
G0 F3600 X217.567 Y177.969
G1 F2400 X208.06 Y168.462 E170.32084
G1 X207.99 Y168.392
G0 F3600 X206.426 Y167.393
G1 F2400 X217.001 Y177.969 E171.02969
G0 F3600 X216.435 Y177.969
G1 F2400 X204.792 Y166.325 E171.81013
G1 X204.722 Y166.255
G0 F3600 X203.157 Y165.256
G1 F2400 X215.87 Y177.969 E172.66225
G0 F3600 X215.304 Y177.969
G1 F2400 X201.523 Y164.187 E173.58599
G1 X201.453 Y164.117
G0 F3600 X199.888 Y163.119
G1 F2400 X214.738 Y177.969 E174.58135
G0 F3600 X214.173 Y177.969
G1 F2400 X198.254 Y162.05 E175.64836
G1 X198.184 Y161.98
G0 F3600 X196.62 Y160.982
G1 F2400 X213.607 Y177.969 E176.78696
G0 F3600 X213.041 Y177.969
G1 F2400 X194.985 Y159.913 E177.99721
G1 X194.915 Y159.843
G0 F3600 X193.351 Y158.844
G1 F2400 X212.476 Y177.969 E179.27912
G0 F3600 X211.91 Y177.969
G1 F2400 X191.717 Y157.776 E180.63261
G1 X191.647 Y157.706
G0 F3600 X190.083 Y156.708
G1 F2400 X211.344 Y177.969 E182.05768
G0 F3600 X210.779 Y177.969
G1 F2400 X188.449 Y155.639 E183.55441
G1 X188.379 Y155.569
G0 F3600 X186.814 Y154.57
G1 F2400 X210.213 Y177.969 E185.12279
G0 F3600 X209.647 Y177.969
G1 F2400 X185.18 Y153.502 E186.76275
G1 X185.11 Y153.432
G0 F3600 X183.546 Y152.433
G1 F2400 X209.082 Y177.969 E188.47437
G0 F3600 X208.516 Y177.969
