;FLAVOR:Marlin
;TIME:1077
;Filament used: 2.6235m
;Layer height: 0.2
;MINX:45.4
;MINY:50.9
;MINZ:0.36
;MAXX:129.6
;MAXY:107.6
;MAXZ:5.11
;TARGET_MACHINE.NAME:Unknown
;Generated with Cura_SteamEngine 5.10.0
M104 S200
M105
M109 S200
G28 ;Home
G1 Z15.0 F6000 ;Move the platform down 15mm
;Prime the extruder
G92 E0
G1 F200 E3
G92 E0
M82 ;absolute extrusion mode
G92 E0
G92 E0
G1 F1500 E-6.5
;LAYER_COUNT:19
;LAYER:-6
M107
G0 F7200 X52.45 Y55.153 Z0.36
;TYPE:SUPPORT-INTERFACE
G1 F1500 E0
G1 F3150 X53.143 Y54.51 E0.11319
G1 X53.969 Y53.836 E0.24084
G1 X54.927 Y53.171 E0.38048
G1 X55.92 Y52.598 E0.51775
G1 X56.805 Y52.166 E0.63567
G1 X57.675 Y51.808 E0.74832
G1 X58.715 Y51.469 E0.87929
G1 X59.751 Y51.212 E1.0071
G1 X60.853 Y51.021 E1.14101
G1 X61.877 Y50.928 E1.26413
G1 X62.755 Y50.9 E1.36931
G1 X112.255 Y50.9 E7.29627
G1 X113.387 Y50.948 E7.43193
G1 X114.232 Y51.033 E7.53362
G1 X115.359 Y51.236 E7.67073
G1 X116.307 Y51.477 E7.78785
G1 X117.383 Y51.835 E7.92363
G1 X118.455 Y52.284 E8.0628
G1 X119.32 Y52.726 E8.17911
G1 X120.232 Y53.279 E8.30681
G1 X121.175 Y53.946 E8.44511
G1 X121.93 Y54.576 E8.56285
G1 X122.549 Y55.156 E8.66442
G1 X125.344 Y57.95 E9.13762
G1 X125.99 Y58.643 E9.25106
G1 X126.66 Y59.469 E9.37841
G1 X127.255 Y60.325 E9.50323
G1 X127.88 Y61.383 E9.65037
G1 X128.291 Y62.214 E9.76137
G1 X128.696 Y63.199 E9.88889
G1 X129.011 Y64.159 E10.00987
G1 X129.319 Y65.416 E10.16483
G1 X129.486 Y66.473 E10.29296
G1 X129.576 Y67.524 E10.41926
G1 X129.6 Y68.243 E10.5054
G1 X129.6 Y75.739 E11.40295
G1 X129.552 Y76.885 E11.54029
G1 X129.432 Y77.943 E11.66778
G1 X129.363 Y78.3 E11.71132
G1 X129.288 Y78.947 E11.7893
G1 X129.296 Y79.751 E11.88558
G1 X129.486 Y80.973 E12.03365
G1 X129.576 Y82.024 E12.15996
G1 X129.6 Y82.743 E12.2461
G1 X129.6 Y90.239 E13.14364
G1 X129.552 Y91.386 E13.2811
G1 X129.452 Y92.317 E13.39321
G1 X129.229 Y93.492 E13.53642
G1 X129.004 Y94.362 E13.64401
G1 X128.661 Y95.383 E13.77298
G1 X128.217 Y96.45 E13.91136
G1 X127.691 Y97.458 E14.0475
G1 X127.217 Y98.231 E14.15607
G1 X126.546 Y99.179 E14.29514
G1 X125.919 Y99.931 E14.41237
G1 X125.34 Y100.554 E14.51421
G1 X122.55 Y103.343 E14.98656
G1 X121.865 Y103.977 E15.09832
G1 X121.026 Y104.66 E15.22786
G1 X120.073 Y105.326 E15.36707
G1 X119.079 Y105.898 E15.50439
G1 X118.263 Y106.299 E15.61325
G1 X117.285 Y106.7 E15.73982
G1 X116.328 Y107.015 E15.86045
G1 X115.249 Y107.284 E15.9936
G1 X114.142 Y107.475 E16.12811
G1 X113.118 Y107.572 E16.25127
G1 X112.245 Y107.6 E16.35585
G1 X62.74 Y107.596 E22.28341
G1 X61.609 Y107.552 E22.41893
G1 X60.769 Y107.463 E22.52007
G1 X59.637 Y107.26 E22.65777
G1 X58.693 Y107.019 E22.77443
G1 X57.613 Y106.661 E22.91067
G1 X56.542 Y106.213 E23.04967
G1 X55.676 Y105.766 E23.16636
G1 X54.764 Y105.217 E23.29382
G1 X53.749 Y104.491 E23.44324
G1 X53.065 Y103.919 E23.55
G1 X52.446 Y103.344 E23.65117
G1 X49.65 Y100.547 E24.1247
G1 X48.889 Y99.716 E24.25962
G1 X48.278 Y98.949 E24.37704
G1 X47.671 Y98.069 E24.50504
G1 X47.098 Y97.08 E24.6419
G1 X46.666 Y96.193 E24.76003
G1 X46.296 Y95.278 E24.87821
G1 X45.981 Y94.316 E24.99942
G1 X45.712 Y93.249 E25.13117
G1 X45.521 Y92.135 E25.26651
G1 X45.428 Y91.115 E25.38914
G1 X45.4 Y90.253 E25.49241
G1 X45.4 Y82.761 E26.38948
G1 X45.448 Y81.61 E26.52741
G1 X45.549 Y80.665 E26.64121
G1 X45.628 Y80.226 E26.69462
G1 X45.708 Y79.545 E26.77672
G1 X45.7 Y78.753 E26.87155
G1 X45.51 Y77.507 E27.02247
G1 X45.428 Y76.615 E27.12973
G1 X45.4 Y75.753 E27.23299
G1 X45.401 Y68.261 E28.13006
G1 X45.448 Y67.112 E28.26775
G1 X45.572 Y66.036 E28.39744
G1 X45.735 Y65.151 E28.50519
G1 X45.996 Y64.133 E28.63102
G1 X46.335 Y63.113 E28.75972
G1 X46.78 Y62.053 E28.89737
G1 X47.242 Y61.148 E29.01904
G1 X47.779 Y60.264 E29.14289
G1 X48.45 Y59.317 E29.28185
G1 X49.077 Y58.565 E29.39909
G1 X49.66 Y57.938 E29.5016
G1 X52.45 Y55.153 E29.97362
G0 F7200 X52.962 Y55.224
G1 F3150 X104.937 Y107.2 E38.77478
G0 F7200 X107.2 Y107.2
G1 F3150 X54.181 Y54.181 E47.75265
G0 F7200 X55.541 Y53.278
G1 F3150 X109.462 Y107.2 E56.88334
G0 F7200 X111.725 Y107.2
G1 F3150 X57.031 Y52.506 E66.14483
G0 F7200 X58.688 Y51.9
G1 F3150 X113.885 Y107.097 E75.4915
G0 F7200 X115.788 Y106.737
G1 F3150 X60.534 Y51.483 E84.84783
G0 F7200 X62.619 Y51.305
G1 F3150 X117.495 Y106.181 E94.14014
G0 F7200 X119.036 Y105.46
G1 F3150 X64.876 Y51.3 E103.31122
G0 F7200 X67.139 Y51.3
G1 F3150 X120.428 Y104.589 E112.3348
G0 F7200 X121.693 Y103.591
G1 F3150 X69.402 Y51.3 E121.18939
G0 F7200 X71.665 Y51.3
G1 F3150 X122.846 Y102.482 E129.85611
G0 F7200 X123.978 Y101.35
G1 F3150 X73.927 Y51.3 E138.33131
G0 F7200 X76.19 Y51.3
G1 F3150 X125.108 Y100.218 E146.61474
G0 F7200 X126.166 Y99.013
G1 F3150 X78.453 Y51.3 E154.69412
G0 F7200 X80.716 Y51.3
G1 F3150 X127.09 Y97.674 E162.54677
G0 F7200 X127.885 Y96.207
G1 F3150 X82.978 Y51.3 E170.151
G0 F7200 X85.241 Y51.3
G1 F3150 X128.512 Y94.571 E177.47821
G0 F7200 X128.961 Y92.758
G1 F3150 X87.504 Y51.3 E184.49833
G0 F7200 X89.766 Y51.3
G1 F3150 X129.18 Y90.713 E191.17233
G0 F7200 X129.2 Y88.47
G1 F3150 X92.029 Y51.3 E197.46652
G0 F7200 X94.292 Y51.3
G1 F3150 X129.2 Y86.208 E203.3776
G0 F7200 X129.2 Y83.945
G1 F3150 X96.555 Y51.3 E208.90547
G0 F7200 X98.817 Y51.3
G1 F3150 X129.141 Y81.623 E214.04024
G0 F7200 X128.892 Y79.112
G1 F3150 X101.08 Y51.3 E218.74973
G0 F7200 X103.343 Y51.3
G1 F3150 X129.127 Y77.084 E223.11581
G0 F7200 X129.2 Y74.894
G1 F3150 X105.606 Y51.3 E227.11105
G0 F7200 X107.868 Y51.3
G1 F3150 X129.2 Y72.631 E230.72318
G0 F7200 X129.2 Y70.368
G1 F3150 X110.131 Y51.3 E233.95211
G0 F7200 X112.401 Y51.307
G1 F3150 X129.195 Y68.101 E236.79588
G0 F7200 X128.941 Y65.584
G1 F3150 X114.92 Y51.564 E239.17002
G0 F7200 X118.253 Y52.633
G1 F3150 X127.856 Y62.237 E240.79621
G0 F7200 X102.673 Y107.199
G1 F3150 X51.821 Y56.347 E249.40712
G0 F7200 X50.688 Y57.476
G1 F3150 X100.411 Y107.199 E257.82687
G0 F7200 X98.148 Y107.199
G1 F3150 X49.57 Y58.621 E266.05272
G0 F7200 X48.551 Y59.864
G1 F3150 X95.885 Y107.199 E274.06802
G0 F7200 X93.622 Y107.198
G1 F3150 X47.658 Y61.234 E281.85124
G0 F7200 X46.918 Y62.757
G1 F3150 X91.359 Y107.198 E289.37656
G0 F7200 X89.096 Y107.198
G1 F3150 X46.331 Y64.433 E296.61809
G0 F7200 X45.944 Y66.308
G1 F3150 X86.833 Y107.197 E303.54194
G0 F7200 X84.57 Y107.197
G1 F3150 X45.801 Y68.428 E310.10681
G0 F7200 X45.801 Y70.691
G1 F3150 X82.307 Y107.197 E316.28848
G0 F7200 X80.044 Y107.197
G1 F3150 X45.8 Y72.953 E322.08712
G0 F7200 X45.8 Y75.216
G1 F3150 X77.781 Y107.197 E327.50256
G0 F7200 X75.518 Y107.197
G1 F3150 X45.929 Y77.608 E332.51295
G0 F7200 X46.057 Y79.999
G1 F3150 X73.256 Y107.197 E337.11855
G0 F7200 X70.992 Y107.196
G1 F3150 X45.83 Y82.034 E341.37931
G0 F7200 X45.8 Y84.267
G1 F3150 X68.729 Y107.196 E345.26194
G0 F7200 X66.467 Y107.196
G1 F3150 X45.8 Y86.529 E348.76155
G0 F7200 X45.8 Y88.792
G1 F3150 X64.204 Y107.196 E351.87795
G0 F7200 X61.908 Y107.163
G1 F3150 X45.826 Y91.081 E354.60116
G0 F7200 X46.257 Y93.774
G1 F3150 X59.224 Y106.741 E356.7969
G0 F7200 X55.279 Y105.06
G1 F3150 X47.919 Y97.7 E358.0432
G0 F600 X47.919 Y97.7 Z0.66
G0 F7200 X47.922 Y60.972
;TIME_ELAPSED:63.318081
;LAYER:-5
;TYPE:SUPPORT
G1 F3150 X55.429 Y53.465 E359.10251
G1 X54.966 Y53.631 E359.15159
G1 X54.215 Y54.157 E359.24308
G1 X53.398 Y54.819 E359.348
G1 X52.739 Y55.432 E359.43781
G1 X49.956 Y58.212 E359.83031
G1 X49.479 Y58.717 E359.89962
G1 X48.817 Y59.505 E360.00231
G1 X48.089 Y60.511 E360.12622
G1 X48.262 Y60.596 E360.14545
G1 X47.607 Y61.321 E360.24294
G1 X47.173 Y62.41 E360.35991
G1 X47.097 Y62.334 E360.37064
G1 X46.751 Y63.157 E360.45972
G1 X46.725 Y63.584 E360.5024
G1 X58.27 Y52.039 E362.13153
G1 X58.83 Y51.855 E362.19034
G1 X59.829 Y51.607 E362.29305
G1 X60.175 Y51.547 E362.32809
G1 X46.049 Y65.674 E364.32149
G1 X45.944 Y66.261 E364.38099
G1 X45.828 Y67.309 E364.4862
G1 X61.799 Y51.338 E366.73988
G1 X62.771 Y51.3 E366.83694
G1 X63.251 Y51.3 E366.88484
G1 X45.8 Y68.751 E369.34736
G1 X45.8 Y70.165 E369.48845
G1 X64.666 Y51.3 E372.15058
G1 X66.08 Y51.3 E372.29167
G1 X45.8 Y71.58 E375.15339
G1 X45.8 Y72.994 E375.29448
G1 X67.494 Y51.3 E378.35574
G1 X68.908 Y51.3 E378.49683
G1 X45.8 Y74.408 E381.75762
G1 X45.802 Y75.82 E381.89851
G1 X70.322 Y51.3 E385.35855
G1 X71.737 Y51.3 E385.49973
G1 X45.883 Y77.154 E389.14801
G1 X45.929 Y77.635 E389.19623
G1 X46.051 Y78.4 E389.27352
G1 X73.151 Y51.3 E393.09763
G1 X74.565 Y51.3 E393.23872
G1 X46.124 Y79.741 E397.25205
G1 X45.956 Y80.677 E397.34693
G1 X45.994 Y81.285 E397.40772
G1 X75.979 Y51.3 E401.63893
G1 X77.394 Y51.3 E401.78012
G1 X45.8 Y82.893 E406.2383
G1 X45.8 Y84.308 E406.37949
G1 X78.808 Y51.3 E411.03728
G1 X80.222 Y51.3 E411.17836
G1 X45.8 Y85.722 E416.03568
G1 X45.8 Y87.136 E416.17677
G1 X81.636 Y51.3 E421.23362
G1 X83.05 Y51.3 E421.37471
G1 X45.8 Y88.55 E426.63108
G1 X45.8 Y89.964 E426.77217
G1 X84.465 Y51.3 E432.22815
G1 X85.879 Y51.3 E432.36924
G1 X45.851 Y91.328 E438.01762
G1 X45.929 Y92.135 E438.09852
G1 X46.006 Y92.587 E438.14427
G1 X87.293 Y51.3 E443.97031
G1 X88.707 Y51.301 E444.1114
G1 X46.252 Y93.755 E450.10219
G1 X46.353 Y94.165 E450.14433
G1 X46.576 Y94.846 E450.21583
G1 X90.121 Y51.301 E456.3605
G1 X91.535 Y51.301 E456.50159
G1 X46.955 Y95.88 E462.79223
G1 X47.422 Y96.828 E462.89768
G1 X92.949 Y51.301 E469.32203
G1 X94.363 Y51.301 E469.46312
G1 X47.999 Y97.665 E476.00558
G1 X48.132 Y98.035 E476.04481
G1 X48.507 Y98.571 E476.11009
G1 X95.778 Y51.301 E482.78047
G1 X97.192 Y51.301 E482.92155
G1 X49.112 Y99.38 E489.70609
G1 X49.794 Y100.113 E489.80599
G1 X98.606 Y51.301 E496.69389
G1 X100.02 Y51.301 E496.83498
G1 X50.495 Y100.826 E503.82349
G1 X51.202 Y101.533 E503.92326
G1 X101.434 Y51.301 E511.01154
G1 X102.849 Y51.301 E511.15273
G1 X51.909 Y102.24 E518.34084
G1 X52.617 Y102.947 E518.44068
G1 X104.263 Y51.301 E525.72849
G1 X105.677 Y51.301 E525.86957
G1 X53.347 Y103.631 E533.2539
G1 X54.115 Y104.277 E533.35404
G1 X107.091 Y51.301 E540.82952
G1 X108.506 Y51.301 E540.97071
G1 X54.943 Y104.863 E548.52896
G1 X55.011 Y104.911 E548.53727
G1 X55.096 Y104.738 E548.5565
G1 X55.826 Y105.394 E548.65443
G1 X109.92 Y51.301 E556.28761
G1 X111.334 Y51.301 E556.4287
G1 X56.837 Y105.798 E564.11881
G1 X56.909 Y105.827 E564.12656
G1 X56.834 Y105.903 E564.13721
G1 X57.657 Y106.249 E564.22629
G1 X57.791 Y106.258 E564.23969
G1 X112.728 Y51.32 E571.99197
G1 X113.355 Y51.346 E572.05458
G1 X114.038 Y51.425 E572.12319
G1 X58.824 Y106.639 E579.91448
G1 X59.948 Y106.929 E580.0303
G1 X115.253 Y51.624 E587.83444
G1 X116.378 Y51.913 E587.95034
G1 X61.189 Y107.102 E595.7381
G1 X61.645 Y107.154 E595.78389
G1 X62.516 Y107.19 E595.87088
G1 X117.422 Y52.283 E603.61878
G1 X118.166 Y52.597 E603.69935
G1 X118.09 Y52.673 E603.71008
G1 X118.346 Y52.774 E603.73754
G1 X63.92 Y107.2 E611.41764
G1 X65.335 Y107.2 E611.55882
G1 X119.309 Y53.225 E619.17521
G1 X119.903 Y53.762 E619.25511
G1 X119.99 Y53.587 E619.27461
G1 X120.205 Y53.743 E619.30111
G1 X66.749 Y107.2 E626.8444
G1 X68.163 Y107.2 E626.98549
G1 X121.023 Y54.34 E634.44461
G1 X121.791 Y54.985 E634.54468
G1 X69.577 Y107.2 E641.91271
G1 X70.991 Y107.2 E642.0538
G1 X122.511 Y55.68 E649.32383
G1 X123.218 Y56.387 E649.4236
G1 X72.406 Y107.2 E656.59379
G1 X73.82 Y107.2 E656.73488
G1 X123.925 Y57.094 E663.80531
G1 X124.633 Y57.801 E663.90514
G1 X75.234 Y107.2 E670.87587
G1 X76.648 Y107.2 E671.01696
G1 X125.329 Y58.519 E677.88638
G1 X125.681 Y58.898 E677.93799
G1 X125.987 Y59.275 E677.98644
G1 X78.062 Y107.2 E684.74917
G1 X79.477 Y107.2 E684.89036
G1 X126.598 Y60.079 E691.53965
G1 X126.869 Y60.466 E691.58679
G1 X127.068 Y61.023 E691.6458
G1 X80.891 Y107.2 E698.16188
G1 X82.305 Y107.2 E698.30297
G1 X127.661 Y61.844 E704.70319
G1 X128.124 Y62.795 E704.80873
G1 X83.719 Y107.2 E711.07475
G1 X85.134 Y107.2 E711.21594
G1 X128.484 Y63.849 E717.33317
G1 X128.688 Y64.483 E717.39962
G1 X128.798 Y64.949 E717.4474
G1 X86.548 Y107.2 E723.4094
G1 X87.961 Y107.2 E723.55039
G1 X129.028 Y66.134 E729.34532
G1 X129.092 Y66.531 E729.38544
G1 X129.171 Y67.405 E729.473
G1 X89.375 Y107.2 E735.08858
G1 X90.79 Y107.2 E735.22977
G1 X129.2 Y68.79 E740.64983
G1 X129.2 Y70.204 E740.79092
G1 X92.204 Y107.2 E746.01146
G1 X93.618 Y107.2 E746.15255
G1 X129.2 Y71.619 E751.17348
G1 X129.2 Y73.033 E751.31457
G1 X95.032 Y107.2 E756.13598
G1 X96.447 Y107.2 E756.27716
G1 X129.2 Y74.447 E760.89897
G1 X129.2 Y75.861 E761.04006
G1 X97.861 Y107.2 E765.46233
G1 X99.275 Y107.2 E765.60342
G1 X129.095 Y77.38 E769.81134
G1 X129.057 Y77.724 E769.84587
G1 X128.972 Y78.24 E769.89805
G1 X128.88 Y79.009 E769.97533
G1 X100.689 Y107.2 E773.95339
G1 X102.103 Y107.2 E774.09448
G1 X128.981 Y80.323 E777.88718
G1 X129.092 Y81.028 E777.95839
G1 X129.142 Y81.576 E778.0133
G1 X103.518 Y107.2 E781.62912
G1 X104.932 Y107.2 E781.77021
G1 X129.2 Y82.932 E785.19469
G1 X129.2 Y84.347 E785.33588
G1 X106.346 Y107.2 E788.56076
G1 X107.76 Y107.2 E788.70185
G1 X129.2 Y85.761 E791.72719
G1 X129.2 Y87.175 E791.86828
G1 X109.174 Y107.2 E794.69409
G1 X110.589 Y107.2 E794.83528
G1 X129.2 Y88.589 E797.4615
G1 X129.2 Y90.003 E797.60259
G1 X112.003 Y107.2 E800.02927
G1 X113.096 Y107.172 E800.13836
G1 X113.483 Y107.134 E800.17717
G1 X129.139 Y91.478 E802.3864
G1 X129.031 Y92.409 E802.47991
G1 X128.898 Y93.134 E802.55346
G1 X115.131 Y106.9 E804.49606
G1 X116.174 Y106.644 E804.60322
G1 X117.107 Y106.338 E804.7012
G1 X128.259 Y95.187 E806.2748
G1 X128.249 Y95.342 E806.29029
G1 X127.819 Y96.351 E806.39973
G1 X127.425 Y97.118 E806.48577
G1 X126.846 Y98.08 E806.59781
G1 X126.185 Y98.993 E806.71027
G1 X125.522 Y99.782 E806.81311
G1 X125.045 Y100.287 E806.88242
G1 X122.278 Y103.053 E807.2728
G1 X121.613 Y103.671 E807.36339
G1 X120.785 Y104.344 E807.46985
G1 X120.033 Y104.869 E807.56136
G1 X119.967 Y104.893 E807.56837
G1 X126.946 Y97.914 E808.55318
G0 F600 X126.946 Y97.914 Z0.86
G0 F7200 X126.497 Y59.586
;TIME_ELAPSED:150.789996
;LAYER:-4
;TYPE:SUPPORT-INTERFACE
G1 F4200 X125.841 Y58.778 E808.5878
G1 X125.189 Y58.075 E808.61969
G1 X122.431 Y55.315 E808.74946
G1 X121.904 Y54.819 E808.77354
G1 X121.111 Y54.152 E808.808
G1 X120.361 Y53.61 E808.83878
G1 X126.869 Y60.118 E809.14489
G1 X127.05 Y60.377 E809.1554
G1 X127.286 Y61.037 E809.17872
G1 X127.405 Y60.958 E809.18347
G1 X127.747 Y61.562 E809.20655
G1 X119.011 Y52.826 E809.61747
G1 X118.446 Y52.6 E809.63771
G1 X118.519 Y52.527 E809.64114
G1 X117.878 Y52.258 E809.66426
G1 X128.251 Y62.632 E810.1522
G1 X128.508 Y63.266 E810.17495
G1 X128.597 Y63.543 E810.18463
G1 X117.089 Y52.035 E810.72593
G1 X116.751 Y52.014 E810.73719
G1 X116.791 Y51.848 E810.74287
G1 X116.132 Y51.644 E810.76582
G1 X128.864 Y64.376 E811.36469
G1 X129.044 Y65.122 E811.39022
G1 X115.369 Y51.446 E812.03347
G1 X114.671 Y51.314 E812.0571
G1 X129.181 Y65.825 E812.73963
G1 X129.289 Y66.498 E812.7623
G1 X114.013 Y51.222 E813.48083
G1 X113.374 Y51.149 E813.50222
G1 X129.348 Y67.122 E814.25357
G1 X129.383 Y67.723 E814.27359
G1 X112.783 Y51.123 E815.05441
G1 X112.195 Y51.101 E815.07398
G1 X129.4 Y68.306 E815.88325
G1 X129.4 Y68.871 E815.90204
G1 X111.63 Y51.101 E816.73788
G1 X111.064 Y51.101 E816.75671
G1 X129.4 Y69.437 E817.61918
G1 X129.4 Y70.003 E817.638
G1 X110.498 Y51.101 E818.5271
G1 X109.932 Y51.101 E818.54592
G1 X129.4 Y70.569 E819.46164
G1 X129.4 Y71.134 E819.48043
G1 X109.367 Y51.101 E820.42272
G1 X108.801 Y51.101 E820.44154
G1 X129.4 Y71.7 E821.41046
G1 X129.4 Y72.266 E821.42928
G1 X108.235 Y51.101 E822.42482
G1 X107.67 Y51.101 E822.44361
G1 X129.4 Y72.831 E823.46573
G1 X129.4 Y73.397 E823.48455
G1 X107.104 Y51.101 E824.53329
G1 X106.538 Y51.101 E824.55211
G1 X129.4 Y73.963 E825.62747
G1 X129.4 Y74.528 E825.64626
G1 X105.973 Y51.101 E826.7482
G1 X105.407 Y51.101 E826.76702
G1 X129.4 Y75.094 E827.89558
G1 X129.4 Y75.66 E827.9144
G1 X104.841 Y51.101 E829.06958
G1 X104.276 Y51.101 E829.08838
G1 X129.381 Y76.206 E830.26924
G1 X129.359 Y76.75 E830.28735
G1 X103.71 Y51.101 E831.4938
G1 X103.144 Y51.101 E831.51262
G1 X129.309 Y77.266 E832.74334
G1 X129.253 Y77.775 E832.76037
G1 X102.579 Y51.101 E834.01504
G1 X102.013 Y51.101 E834.03386
G1 X129.172 Y78.26 E835.31134
G1 X129.111 Y78.765 E835.32826
G1 X101.447 Y51.101 E836.62949
G1 X100.882 Y51.101 E836.64828
G1 X129.094 Y79.313 E837.97528
G1 X129.117 Y79.902 E837.99489
