;FLAVOR:Marlin
;TIME:4325
;Filament used: 6.99102m
;Layer height: 0.2
;MINX:34.4
;MINY:45.533
;MINZ:0.36
;MAXX:140.6
;MAXY:140.683
;MAXZ:31.11
;TARGET_MACHINE.NAME:Unknown
;Generated with Cura_SteamEngine 5.10.0
M104 S200
M105
M109 S200
G28 ;Home
G1 Z15.0 F6000 ;Move the platform down 15mm
;Prime the extruder
G92 E0
G1 F200 E3
G92 E0
M82 ;absolute extrusion mode
G92 E0
G92 E0
G1 F1500 E-6.5
;LAYER_COUNT:149
;LAYER:-6
M107
G0 F7200 X44.626 Y50.843 Z0.36
;TYPE:SUPPORT-INTERFACE
G1 F1500 E0
G1 F3150 X45.843 Y49.875 E0.18619
G1 X46.319 Y49.526 E0.25687
G1 X47.665 Y48.658 E0.44864
G1 X48.212 Y48.344 E0.52416
G1 X49.523 Y47.664 E0.70099
G1 X50.244 Y47.337 E0.79578
G1 X51.578 Y46.816 E0.96726
G1 X52.37 Y46.547 E1.06742
G1 X53.727 Y46.172 E1.23599
G1 X54.505 Y45.992 E1.3316
G1 X55.867 Y45.748 E1.49728
G1 X56.678 Y45.655 E1.59502
G1 X58.056 Y45.552 E1.76048
G1 X58.883 Y45.533 E1.85953
G1 X60.343 Y45.572 E2.03441
G1 X60.956 Y45.619 E2.10802
G1 X62.46 Y45.8 E2.2894
G1 X63.271 Y45.948 E2.38811
G1 X64.696 Y46.276 E2.5632
G1 X65.544 Y46.516 E2.66872
G1 X66.495 Y46.821 E2.78831
G1 X67.553 Y47.248 E2.92492
G1 X68.489 Y47.677 E3.0482
G1 X69.709 Y48.3 E3.21222
G1 X70.541 Y48.779 E3.32717
G1 X71.403 Y49.32 E3.44903
G1 X72.344 Y50.01 E3.58875
G1 X73.098 Y50.614 E3.70442
G1 X74.127 Y51.525 E3.86898
G1 X74.732 Y52.119 E3.9705
G1 X75.735 Y53.205 E4.14751
G1 X76.183 Y53.738 E4.23088
G1 X77.01 Y54.834 E4.39528
G1 X77.495 Y55.545 E4.49833
G1 X78.213 Y56.721 E4.66331
G1 X78.56 Y57.356 E4.74995
G1 X79.191 Y58.657 E4.92309
G1 X79.527 Y59.459 E5.0272
G1 X79.813 Y60.063 E5.10722
G1 X80.173 Y60.634 E5.18804
G1 X80.631 Y61.182 E5.27356
G1 X81.096 Y61.618 E5.34988
G1 X81.668 Y62.035 E5.43464
G1 X82.267 Y62.36 E5.51624
G1 X82.899 Y62.606 E5.59744
G1 X83.564 Y62.773 E5.67954
G1 X84.249 Y62.856 E5.76216
G1 X84.952 Y62.848 E5.84634
G1 X85.559 Y62.765 E5.9197
G1 X86.623 Y62.59 E6.04881
G1 X87.826 Y62.48 E6.19345
G1 X88.713 Y62.465 E6.29967
G1 X89.774 Y62.515 E6.42685
G1 X90.86 Y62.643 E6.55779
G1 X92.391 Y62.985 E6.74562
G1 X94.057 Y63.446 E6.9526
G1 X94.72 Y63.589 E7.03381
G1 X95.387 Y63.644 E7.11395
G1 X96.088 Y63.614 E7.19796
G1 X96.932 Y63.452 E7.30086
G1 X97.645 Y63.256 E7.3894
G1 X98.605 Y63.021 E7.50774
G1 X99.623 Y62.854 E7.63126
G1 X100.814 Y62.748 E7.77443
G1 X101.701 Y62.733 E7.88065
G1 X102.755 Y62.783 E8.007
G1 X103.849 Y62.911 E8.13888
G1 X105.474 Y63.273 E8.33822
G1 X107.693 Y63.9 E8.61432
G1 X108.46 Y64.142 E8.71062
G1 X108.912 Y64.316 E8.76861
G1 X109.567 Y64.535 E8.85131
G1 X110.255 Y64.67 E8.93526
G1 X110.919 Y64.712 E9.01492
G1 X111.639 Y64.668 E9.10129
G1 X112.256 Y64.551 E9.17649
G1 X112.862 Y64.364 E9.25242
G1 X114.744 Y63.836 E9.48647
G1 X115.854 Y63.577 E9.62295
G1 X116.781 Y63.425 E9.73542
G1 X117.804 Y63.324 E9.85851
G1 X119.162 Y63.301 E10.02114
G1 X120.159 Y63.347 E10.14064
G1 X121.25 Y63.472 E10.27213
G1 X122.252 Y63.671 E10.39445
G1 X122.897 Y63.831 E10.47402
G1 X124.837 Y64.376 E10.7153
G1 X125.668 Y64.641 E10.81974
G1 X126.877 Y65.126 E10.97571
G1 X127.762 Y65.561 E11.09379
G1 X128.582 Y66.039 E11.20743
G1 X129.545 Y66.694 E11.34688
G1 X130.376 Y67.362 E11.47455
G1 X131.428 Y68.363 E11.64842
G1 X132.823 Y69.837 E11.89142
G1 X133.54 Y70.664 E12.02248
G1 X134.187 Y71.525 E12.15143
G1 X134.752 Y72.405 E12.27665
G1 X135.19 Y73.2 E12.38533
G1 X135.696 Y74.318 E12.53227
G1 X136.338 Y76.134 E12.7629
G1 X136.738 Y76.88 E12.86425
G1 X137.156 Y77.459 E12.94976
G1 X137.82 Y78.312 E13.07919
G1 X138.414 Y79.194 E13.20652
G1 X139.02 Y80.28 E13.35542
G1 X139.388 Y81.059 E13.45858
G1 X139.821 Y82.166 E13.60091
G1 X140.14 Y83.257 E13.73701
G1 X140.354 Y84.2 E13.85279
G1 X140.514 Y85.354 E13.99229
G1 X140.599 Y86.534 E14.13395
G1 X140.6 Y89.863 E14.53255
G1 X140.552 Y91.01 E14.67001
G1 X140.452 Y91.941 E14.78212
G1 X140.229 Y93.116 E14.92533
G1 X140.004 Y93.986 E15.03292
G1 X139.641 Y95.069 E15.16969
G1 X139.204 Y96.094 E15.30311
G1 X138.971 Y96.69 E15.37973
G1 X138.792 Y97.381 E15.4652
G1 X138.714 Y98.079 E15.54929
G1 X138.668 Y99.073 E15.66844
G1 X138.559 Y100.093 E15.79127
G1 X138.353 Y101.194 E15.92538
G1 X138.181 Y101.885 E16.01065
G1 X137.645 Y103.795 E16.24818
G1 X137.295 Y104.866 E16.38309
G1 X136.969 Y105.674 E16.48741
G1 X136.509 Y106.633 E16.61477
G1 X135.964 Y107.579 E16.74549
G1 X135.376 Y108.447 E16.87103
G1 X134.714 Y109.289 E16.99927
G1 X133.966 Y110.107 E17.13199
G1 X132.562 Y111.511 E17.36974
G1 X131.861 Y112.161 E17.4842
G1 X131.035 Y112.832 E17.61163
G1 X130.077 Y113.497 E17.75126
G1 X129.083 Y114.07 E17.88864
G1 X128.268 Y114.47 E17.99734
G1 X127.286 Y114.872 E18.12439
G1 X126.124 Y115.249 E18.27067
G1 X124.386 Y115.736 E18.48679
G1 X123.798 Y115.879 E18.55924
G1 X123.137 Y116.08 E18.64197
G1 X122.549 Y116.348 E18.71934
G1 X121.935 Y116.729 E18.80586
G1 X121.062 Y117.333 E18.93297
G1 X120.051 Y117.915 E19.07265
G1 X119.235 Y118.318 E19.18162
G1 X118.266 Y118.712 E19.30687
G1 X117.243 Y119.045 E19.43569
G1 X115.347 Y119.58 E19.67157
G1 X114.189 Y119.855 E19.81408
G1 X113.258 Y120.006 E19.92701
G1 X112.058 Y120.112 E20.07126
G1 X111.069 Y120.131 E20.1897
G1 X109.919 Y120.057 E20.32768
G1 X109.007 Y119.941 E20.43776
G1 X107.829 Y119.694 E20.58188
G1 X107.265 Y119.542 E20.65182
G1 X105.459 Y119.013 E20.87715
G1 X104.533 Y118.713 E20.9937
G1 X103.413 Y118.236 E21.13946
G1 X102.548 Y117.802 E21.25534
G1 X101.879 Y117.529 E21.34185
G1 X101.309 Y117.358 E21.41311
G1 X100.65 Y117.256 E21.49295
G1 X99.925 Y117.232 E21.57981
G1 X99.267 Y117.299 E21.659
G1 X98.564 Y117.463 E21.74544
G1 X98.105 Y117.621 E21.80356
G1 X79.543 Y125.527 E24.21931
G1 X78.98 Y125.81 E24.29476
G1 X78.377 Y126.208 E24.38127
G1 X77.873 Y126.648 E24.46138
G1 X77.437 Y127.137 E24.53982
G1 X77.018 Y127.746 E24.62833
G1 X76.673 Y128.437 E24.72081
G1 X76.353 Y129.226 E24.82276
G1 X75.893 Y130.185 E24.95011
G1 X75.348 Y131.131 E25.08084
G1 X74.76 Y131.999 E25.20637
G1 X74.103 Y132.832 E25.3334
G1 X73.315 Y133.691 E25.47297
G1 X71.334 Y135.671 E25.80834
G1 X70.629 Y136.325 E25.92348
G1 X69.803 Y136.996 E26.0509
G1 X68.849 Y137.662 E26.19021
G1 X67.855 Y138.234 E26.32753
G1 X67.04 Y138.634 E26.43624
G1 X66.073 Y139.028 E26.56126
G1 X65.067 Y139.361 E26.68815
G1 X62.226 Y140.157 E27.04142
G1 X61.284 Y140.387 E27.15752
G1 X60.213 Y140.562 E27.28746
G1 X59.011 Y140.672 E27.43199
G1 X57.941 Y140.683 E27.56011
G1 X57.055 Y140.637 E27.66634
G1 X55.946 Y140.501 E27.80012
G1 X54.8 Y140.262 E27.94029
G1 X54.22 Y140.11 E28.01209
G1 X51.604 Y139.342 E28.33854
G1 X50.661 Y139.029 E28.4575
G1 X49.54 Y138.56 E28.603
G1 X48.76 Y138.168 E28.70753
G1 X47.836 Y137.626 E28.83579
G1 X46.879 Y136.961 E28.97533
G1 X45.982 Y136.216 E29.11495
G1 X45.347 Y135.617 E29.21947
G1 X43.297 Y133.562 E29.56703
G1 X42.537 Y132.74 E29.70107
G1 X41.875 Y131.898 E29.82932
G1 X41.323 Y131.098 E29.9457
G1 X40.746 Y130.099 E30.08383
G1 X40.31 Y129.208 E30.20261
G1 X39.96 Y128.349 E30.31367
G1 X39.654 Y127.432 E30.42942
G1 X38.89 Y124.821 E30.75516
G1 X38.72 Y124.163 E30.83653
G1 X38.517 Y123.531 E30.91602
G1 X38.221 Y122.894 E31.00012
G1 X37.779 Y122.216 E31.09703
G1 X37.182 Y121.442 E31.21407
G1 X36.499 Y120.412 E31.36205
G1 X35.978 Y119.467 E31.49126
G1 X35.53 Y118.497 E31.61919
G1 X35.156 Y117.499 E31.7468
G1 X34.899 Y116.649 E31.85313
G1 X34.654 Y115.582 E31.98421
G1 X34.483 Y114.377 E32.12994
G1 X34.401 Y113.207 E32.27038
G1 X34.4 Y109.885 E32.66814
G1 X34.448 Y108.733 E32.8062
G1 X34.545 Y107.803 E32.91816
G1 X34.767 Y106.629 E33.06122
G1 X34.996 Y105.759 E33.16894
G1 X35.335 Y104.737 E33.29786
G1 X35.779 Y103.673 E33.43591
G1 X36.609 Y102.09 E33.64993
G1 X36.851 Y101.442 E33.73275
G1 X37.013 Y100.743 E33.81867
G1 X37.084 Y100.052 E33.90184
G1 X37.064 Y99.372 E33.9833
G1 X36.964 Y98.725 E34.06168
G1 X36.773 Y98.056 E34.14499
G1 X36.404 Y97.241 E34.25211
G1 X36.048 Y96.604 E34.33949
G1 X35.585 Y95.626 E34.46905
G1 X35.156 Y94.499 E34.61344
G1 X34.856 Y93.491 E34.73936
G1 X34.654 Y92.584 E34.85062
G1 X34.483 Y91.377 E34.99659
G1 X34.401 Y90.207 E35.13703
G1 X34.4 Y86.885 E35.53479
G1 X34.448 Y85.733 E35.67285
G1 X34.545 Y84.803 E35.7848
G1 X34.767 Y83.629 E35.92787
G1 X34.996 Y82.759 E36.03559
G1 X35.335 Y81.737 E36.16451
G1 X35.779 Y80.674 E36.30245
G1 X36.264 Y79.741 E36.42836
G1 X36.497 Y79.245 E36.49397
G1 X36.711 Y78.611 E36.57409
G1 X36.855 Y77.881 E36.66318
G1 X36.9 Y77.206 E36.74419
G1 X36.9 Y67.331 E37.92658
G1 X36.975 Y65.89 E38.09936
G1 X37.046 Y65.169 E38.1861
G1 X37.267 Y63.657 E38.36907
G1 X37.459 Y62.689 E38.48723
G1 X37.674 Y61.771 E38.60013
G1 X38.055 Y60.57 E38.75099
G1 X38.353 Y59.76 E38.85433
G1 X38.977 Y58.29 E39.04555
G1 X39.285 Y57.651 E39.13048
G1 X39.931 Y56.465 E39.29219
G1 X40.373 Y55.742 E39.39366
G1 X41.15 Y54.602 E39.55885
G1 X41.581 Y54.03 E39.6446
G1 X42.597 Y52.825 E39.83332
G1 X43.016 Y52.371 E39.9073
G1 X44.081 Y51.325 E40.08604
G1 X44.626 Y50.843 E40.17315
G0 F7200 X44.606 Y51.395
G1 F3150 X112.851 Y119.64 E51.72928
G0 F7200 X114.778 Y119.303
G1 F3150 X45.854 Y50.379 E63.40039
G0 F7200 X47.183 Y49.446
G1 F3150 X116.559 Y118.822 E75.14803
G0 F7200 X118.276 Y118.276
G1 F3150 X48.596 Y48.596 E86.94715
G0 F7200 X50.103 Y47.841
G1 F3150 X119.837 Y117.574 E98.75533
G0 F7200 X121.245 Y116.719
G1 F3150 X51.717 Y47.192 E110.52863
G0 F7200 X53.452 Y46.663
G1 F3150 X122.652 Y115.864 E122.24655
G0 F7200 X124.374 Y115.323
G1 F3150 X55.306 Y46.255 E133.94204
G0 F7200 X57.322 Y46.009
G1 F3150 X126.137 Y114.824 E145.59469
G0 F7200 X127.804 Y114.227
G1 F3150 X59.527 Y45.951 E157.15615
G0 F7200 X61.986 Y46.146
G1 F3150 X129.314 Y113.475 E168.55709
G0 F7200 X130.687 Y112.586
G1 F3150 X64.832 Y46.731 E179.70851
G0 F7200 X68.492 Y48.128
G1 F3150 X78.487 Y58.122 E181.40091
G0 F7200 X80.963 Y60.864
G0 X83.539 Y63.174
G1 F3150 X131.923 Y111.558 E189.59391
G0 F7200 X133.067 Y110.439
G1 F3150 X85.764 Y63.137 E197.60379
G0 F7200 X87.777 Y62.887
G1 F3150 X134.176 Y109.285 E205.46058
G0 F7200 X135.179 Y108.026
G1 F3150 X90.11 Y62.957 E213.09225
G0 F7200 X92.978 Y63.563
G1 F3150 X136.048 Y106.632 E220.38533
G0 F7200 X136.772 Y105.094
G1 F3150 X95.708 Y64.029 E227.33891
G0 F7200 X97.619 Y63.678
G1 F3150 X137.341 Y103.4 E234.06515
G0 F7200 X137.833 Y101.63
G1 F3150 X99.486 Y63.283 E240.55856
G0 F7200 X101.602 Y63.135
G1 F3150 X138.196 Y99.73 E246.75522
G0 F7200 X138.364 Y97.634
G1 F3150 X104.108 Y63.379 E252.5558
G0 F7200 X107.156 Y64.164
G1 F3150 X138.864 Y95.872 E257.92501
G0 F7200 X139.497 Y94.242
G1 F3150 X110.33 Y65.075 E262.86395
G0 F7200 X112.431 Y64.913
G1 F3150 X139.951 Y92.434 E267.52407
G0 F7200 X140.178 Y90.397
G1 F3150 X114.189 Y64.408 E271.92487
G0 F7200 X116.002 Y63.959
G1 F3150 X140.199 Y88.156 E276.02222
G0 F7200 X140.149 Y85.843
G1 F3150 X118.027 Y63.721 E279.7682
G0 F7200 X120.34 Y63.771
G1 F3150 X139.682 Y83.113 E283.04344
G0 F7200 X137.738 Y78.907
G1 F3150 X123.149 Y64.318 E285.51384
G0 F7200 X126.501 Y65.407
G1 F3150 X135.13 Y74.035 E286.97493
G0 F7200 X110.652 Y119.703
G1 F3150 X43.452 Y52.503 E298.3541
G0 F7200 X42.384 Y53.698
G1 F3150 X108.009 Y119.323 E309.46658
G0 F7200 X104.805 Y118.381
G1 F3150 X41.387 Y54.963 E320.20534
G0 F7200 X40.485 Y56.325
G1 F3150 X101.08 Y116.919 E330.46598
G0 F7200 X98.878 Y116.98
G1 F3150 X39.673 Y57.775 E340.49134
G0 F7200 X38.968 Y59.333
G1 F3150 X97.205 Y117.569 E350.3527
G0 F7200 X95.618 Y118.245
G1 F3150 X38.346 Y60.974 E360.05065
G0 F7200 X37.856 Y62.747
G1 F3150 X94.031 Y118.921 E369.56285
G0 F7200 X92.444 Y119.597
G1 F3150 X37.522 Y64.675 E378.86295
G0 F7200 X37.33 Y66.746
G1 F3150 X90.857 Y120.272 E387.92675
G0 F7200 X89.27 Y120.948
G1 F3150 X37.299 Y68.978 E396.72707
G0 F7200 X37.299 Y71.24
G1 F3150 X87.683 Y121.624 E405.25874
G0 F7200 X86.097 Y122.3
G1 F3150 X37.299 Y73.503 E413.52177
G0 F7200 X37.299 Y75.766
G1 F3150 X84.509 Y122.976 E421.51598
G0 F7200 X82.922 Y123.652
G1 F3150 X37.244 Y77.973 E429.25085
G0 F7200 X36.719 Y79.711
G1 F3150 X81.336 Y124.328 E436.80598
G0 F7200 X79.749 Y125.004
G1 F3150 X35.979 Y81.234 E444.21769
G0 F7200 X35.374 Y82.891
G1 F3150 X78.277 Y125.794 E451.48258
G0 F7200 X77.118 Y126.898
G1 F3150 X34.963 Y84.743 E458.62081
G0 F7200 X34.802 Y86.845
G1 F3150 X76.286 Y128.329 E465.64542
G0 F7200 X75.589 Y129.895
G1 F3150 X34.8 Y89.106 E472.55234
G0 F7200 X34.899 Y91.468
G1 F3150 X74.743 Y131.312 E479.29924
G0 F7200 X73.771 Y132.602
G1 F3150 X35.533 Y94.364 E485.7742
G0 F7200 X37.279 Y98.373
G1 F3150 X72.672 Y133.766 E491.7674
G0 F7200 X71.541 Y134.898
G1 F3150 X37.41 Y100.767 E497.5469
G0 F7200 X36.857 Y102.476
G1 F3150 X70.385 Y136.005 E503.22438
G0 F7200 X69.109 Y136.991
G1 F3150 X36.088 Y103.97 E508.81593
G0 F7200 X35.466 Y105.611
G1 F3150 X67.71 Y137.855 E514.2759
G0 F7200 X66.155 Y138.563
G1 F3150 X35.022 Y107.429 E519.54783
G0 F7200 X34.817 Y109.487
G1 F3150 X64.448 Y139.118 E524.56533
G0 F7200 X62.681 Y139.614
G1 F3150 X34.8 Y111.733 E529.2865
G0 F7200 X34.862 Y114.058
G1 F3150 X60.856 Y140.052 E533.68814
G0 F7200 X58.814 Y140.273
G1 F3150 X35.372 Y116.83 E537.65773
G0 F7200 X37.573 Y121.294
G1 F3150 X56.436 Y140.158 E540.85195
G0 F7200 X53.497 Y139.481
G1 F3150 X39.502 Y125.486 E543.22176
G0 F7200 X40.59 Y128.837
G1 F3150 X50.123 Y138.369 E544.83593
G0 F600 X50.123 Y138.369 Z0.66
G0 F7200 X75.989 Y129.072
;TIME_ELAPSED:93.629418
;LAYER:-5
;TYPE:SUPPORT
G1 F3150 X66.726 Y138.335 E546.14304
G1 X66.87 Y138.276 E546.15856
G1 X67.693 Y137.871 E546.25009
G1 X68.033 Y137.674 E546.2893
G1 X67.93 Y137.52 E546.30778
G1 X68.811 Y137.205 E546.40114
G1 X69.562 Y136.679 E546.49263
G1 X70.379 Y136.017 E546.59755
G1 X71.055 Y135.389 E546.68962
G1 X73.017 Y133.428 E546.9664
G1 X73.742 Y132.647 E547.07273
G1 X74.443 Y131.761 E547.18546
G1 X74.93 Y131.052 E547.27129
G1 X75.507 Y130.072 E547.38476
G1 X75.989 Y129.072 E547.49553
G1 X76.483 Y127.837 E547.62825
G1 X76.529 Y127.837 E547.63284
G1 X76.691 Y127.515 E547.66881
G1 X77.078 Y126.949 E547.73722
G1 X77.553 Y126.408 E547.80906
G1 X78.11 Y125.913 E547.88341
G1 X78.763 Y125.474 E547.96192
G1 X79.392 Y125.159 E548.03212
G1 X80.281 Y124.78 E548.12855
G0 F7200 X98.717 Y117.899
G0 X135.109 Y108.136
G1 F3150 X130.588 Y112.656 E548.76644
G1 X130.041 Y113.04 E548.83312
G1 X129.16 Y113.355 E548.92648
G1 X129.263 Y113.509 E548.94497
G1 X128.923 Y113.706 E548.98418
G1 X128.1 Y114.111 E549.0757
G1 X127.458 Y114.372 E549.14485
G1 X136.837 Y104.994 E550.46826
G1 X137.268 Y103.673 E550.60691
G1 X137.469 Y102.948 E550.68197
G1 X125.37 Y115.046 E552.3892
G1 X124.276 Y115.352 E552.50255
G1 X123.452 Y115.55 E552.58711
G1 X137.94 Y101.063 E554.63146
G1 X137.952 Y100.477 E554.68994
G1 X138.082 Y100.477 E554.70291
G1 X138.156 Y100.088 E554.74242
G1 X138.238 Y99.35 E554.81651
G1 X120.175 Y117.412 E557.36533
G1 X119.07 Y117.955 E557.48818
G1 X117.98 Y118.393 E557.60539
G1 X117.687 Y118.487 E557.63609
G1 X138.345 Y97.829 E560.55116
G1 X138.408 Y97.29 E560.60531
G1 X138.584 Y96.585 E560.67781
G1 X138.85 Y95.909 E560.7503
G1 X115.661 Y119.098 E564.02252
G1 X114.131 Y119.461 E564.17942
G1 X113.837 Y119.508 E564.20913
G1 X139.672 Y93.673 E567.85472
G1 X139.873 Y92.889 E567.93548
G1 X140.063 Y91.868 E568.03911
G1 X112.218 Y119.713 E571.96834
G1 X110.788 Y119.729 E572.11103
G1 X140.2 Y90.317 E576.26138
G1 X140.2 Y88.902 E576.40257
G1 X109.502 Y119.601 E580.73446
G1 X109.035 Y119.54 E580.78145
G1 X108.301 Y119.387 E580.85627
G1 X140.2 Y87.488 E585.35756
G1 X140.2 Y86.555 E585.45066
G1 X140.168 Y86.106 E585.49557
G1 X107.173 Y119.101 E590.15152
G1 X106.079 Y118.781 E590.26526
G1 X140.035 Y84.825 E595.05681
G1 X139.944 Y84.201 E595.11974
G1 X139.816 Y83.63 E595.17812
G1 X105.006 Y118.44 E600.09019
G1 X104.534 Y118.28 E600.13992
G1 X103.981 Y118.05 E600.19968
G1 X139.517 Y82.514 E605.21419
G1 X139.126 Y81.491 E605.32347
G1 X103.023 Y117.594 E610.41799
G1 X102.697 Y117.431 E610.45436
G1 X102.044 Y117.159 E610.52495
G1 X138.689 Y80.514 E615.69595
G1 X138.185 Y79.604 E615.79975
G1 X100.896 Y116.893 E621.06163
G1 X100.613 Y116.851 E621.09018
G1 X99.929 Y116.835 E621.15844
G1 X99.498 Y116.877 E621.20165
G1 X137.642 Y78.733 E626.58418
G1 X137.022 Y77.939 E626.6847
G1 X97.523 Y117.438 E632.25844
G1 X95.059 Y118.487 E632.52565
G1 X136.42 Y77.126 E638.36213
