;FLAVOR:Marlin
;TIME:2875
;Filament used: 2.80216m
;Layer height: 0.2
;MINX:59.125
;MINY:41.778
;MINZ:0.3
;MAXX:115.875
;MAXY:107.597
;MAXZ:12.5
;TARGET_MACHINE.NAME:Unknown
;Generated with Cura_SteamEngine 5.10.0
M104 S200
M105
M109 S200
G28 ;Home
G1 Z15.0 F6000 ;Move the platform down 15mm
;Prime the extruder
G92 E0
G1 F200 E3
G92 E0
M82 ;absolute extrusion mode
G92 E0
G92 E0
G1 F1500 E-6.5
;LAYER_COUNT:62
;LAYER:0
M107
G0 F3600 X61.367 Y46.053 Z0.3
;TYPE:SKIRT
G1 F1500 E0
G1 F2250 X62.359 Y44.921 E0.06571
G1 X63.629 Y43.772 E0.14047
G1 X65.75 Y42.654 E0.24513
G1 X66.938 Y42.223 E0.3003
G1 X68.625 Y41.784 E0.3764
G1 X72.083 Y41.778 E0.52735
G1 X73.555 Y41.904 E0.59185
G1 X75.966 Y42.543 E0.70073
G1 X77.274 Y43.147 E0.76363
G1 X78.522 Y43.935 E0.82806
G1 X79.881 Y45.13 E0.90706
G1 X81.508 Y47.412 E1.0294
G1 X82.396 Y49.209 E1.1169
G1 X82.493 Y49.624 E1.13551
G1 X83.263 Y49.979 E1.17252
G1 X84.86 Y51.338 E1.26406
G1 X85.475 Y52.076 E1.306
G1 X86.554 Y54.227 E1.41105
G1 X86.822 Y55.893 E1.48471
G1 X86.857 Y60.221 E1.67365
G1 X87.19 Y60.149 E1.68853
G1 X88.134 Y60.163 E1.72974
G1 X88.121 Y55.88 E1.91671
G1 X88.485 Y54.209 E1.99137
G1 X89.328 Y52.387 E2.079
G1 X90.728 Y50.751 E2.173
G1 X91.423 Y50.179 E2.2123
G1 X92.599 Y49.589 E2.26973
G1 X92.777 Y49.007 E2.2963
G1 X93.648 Y47.128 E2.38671
G1 X94.348 Y46.074 E2.44194
G1 X95.359 Y44.921 E2.50889
G1 X96.629 Y43.772 E2.58365
G1 X98.75 Y42.654 E2.68831
G1 X99.938 Y42.223 E2.74348
G1 X101.625 Y41.784 E2.81958
G1 X105.383 Y41.787 E2.98363
G1 X106.463 Y41.886 E3.03097
G1 X109.049 Y42.574 E3.14779
G1 X110.353 Y43.191 E3.21077
G1 X111.522 Y43.935 E3.27126
G1 X112.833 Y45.088 E3.34747
G1 X114.529 Y47.431 E3.47374
G1 X115.489 Y49.408 E3.56968
G1 X115.875 Y52.461 E3.70401
G1 X115.815 Y63.73 E4.19596
G1 X115.689 Y64.586 E4.23373
G1 X115.032 Y66.82 E4.33538
G1 X114.621 Y67.696 E4.37762
G1 X113.622 Y69.261 E4.45867
G1 X112.831 Y70.186 E4.5118
G1 X114.529 Y72.531 E4.63819
G1 X115.489 Y74.508 E4.73413
G1 X115.875 Y77.561 E4.86847
G1 X115.815 Y88.83 E5.36041
G1 X115.689 Y89.686 E5.39818
G1 X115.032 Y91.92 E5.49983
G1 X114.621 Y92.796 E5.54207
G1 X113.624 Y94.359 E5.623
G1 X112.92 Y95.188 E5.67048
G1 X111.309 Y96.591 E5.76374
G1 X110.365 Y97.197 E5.81271
G1 X110.622 Y98.308 E5.86249
G1 X110.582 Y100.446 E5.95584
G1 X109.777 Y102.697 E6.0602
G1 X109.243 Y103.683 E6.10915
G1 X107.707 Y105.384 E6.2092
G1 X105.666 Y106.553 E6.31187
G1 X102.081 Y107.547 E6.47428
G1 X99.737 Y107.597 E6.57662
G1 X96.245 Y106.583 E6.73536
G1 X94.032 Y105.387 E6.84517
G1 X92.741 Y103.832 E6.9334
G1 X92.237 Y104.336 E6.96452
G1 X90.39 Y105.393 E7.05741
G1 X86.842 Y106.37 E7.21806
G1 X84.669 Y106.464 E7.31301
G1 X84.164 Y106.351 E7.3356
G1 X83.725 Y106.575 E7.35712
G1 X80.226 Y107.545 E7.51562
G1 X77.869 Y107.597 E7.61854
G1 X75.094 Y106.791 E7.74469
G1 X72.423 Y107.542 E7.86581
G1 X70.053 Y107.593 E7.96929
G1 X66.383 Y106.528 E8.13611
G1 X64.207 Y105.249 E8.24629
G1 X62.552 Y103.229 E8.36029
G1 X61.885 Y101.651 E8.43508
G1 X61.461 Y100.091 E8.50565
G1 X61.55 Y97.807 E8.60543
G1 X61.739 Y96.887 E8.64643
G1 X62.385 Y95.471 E8.71437
G1 X62.186 Y95.287 E8.72621
G1 X61.293 Y94.237 E8.78638
G1 X60.125 Y92.43 E8.8803
G1 X59.615 Y90.948 E8.94872
G1 X59.125 Y87.94 E9.08176
G1 X59.187 Y76.664 E9.57401
G1 X59.332 Y75.72 E9.61571
G1 X59.949 Y73.628 E9.71092
G1 X60.491 Y72.5 E9.76555
G1 X61.367 Y71.153 E9.83569
G1 X62.201 Y70.196 E9.89111
G1 X61.209 Y69.023 E9.95817
G1 X60.126 Y67.334 E10.04576
G1 X59.615 Y65.848 E10.11436
G1 X59.125 Y62.84 E10.2474
G1 X59.187 Y51.564 E10.73965
G1 X59.332 Y50.62 E10.78134
G1 X59.949 Y48.528 E10.87655
G1 X60.491 Y47.4 E10.93118
G1 X61.367 Y46.053 E11.00133
G0 F3600 X61.631 Y46.283
G1 F2250 X62.594 Y45.181 E11.06521
G1 X63.832 Y44.061 E11.13809
G1 X65.913 Y42.964 E11.24078
G1 X67.026 Y42.562 E11.29244
G1 X68.671 Y42.134 E11.36664
G1 X72.084 Y42.128 E11.51564
G1 X73.525 Y42.253 E11.57878
G1 X75.819 Y42.861 E11.68238
G1 X77.127 Y43.465 E11.74527
G1 X78.291 Y44.198 E11.80532
G1 X79.618 Y45.365 E11.88246
G1 X81.194 Y47.567 E12.00067
G1 X82.082 Y49.364 E12.08817
G1 X82.186 Y49.868 E12.11064
G1 X83.072 Y50.277 E12.15324
G1 X84.633 Y51.605 E12.2427
G1 X85.18 Y52.269 E12.28026
G1 X86.217 Y54.335 E12.38117
G1 X86.476 Y55.948 E12.45249
G1 X86.51 Y60.67 E12.65863
G1 X87.185 Y60.499 E12.68902
G1 X88.485 Y60.518 E12.74578
G1 X88.471 Y55.917 E12.94663
G1 X88.818 Y54.323 E13.01785
G1 X89.627 Y52.576 E13.10189
G1 X90.951 Y51.021 E13.19105
G1 X91.615 Y50.474 E13.2286
G1 X92.891 Y49.834 E13.29092
G1 X93.095 Y49.154 E13.32191
G1 X93.94 Y47.322 E13.40998
G1 X94.64 Y46.268 E13.46521
G1 X95.594 Y45.181 E13.52835
G1 X96.832 Y44.061 E13.60123
G1 X98.913 Y42.964 E13.70392
G1 X100.026 Y42.562 E13.75558
G1 X101.671 Y42.134 E13.82978
G1 X105.351 Y42.136 E13.99043
G1 X106.431 Y42.235 E14.03777
G1 X108.9 Y42.891 E14.14929
G1 X110.166 Y43.487 E14.21038
G1 X111.291 Y44.198 E14.26847
G1 X112.572 Y45.325 E14.34295
G1 X114.214 Y47.584 E14.46487
G1 X115.149 Y49.51 E14.55833
G1 X115.525 Y52.459 E14.68811
G1 X115.465 Y63.728 E15.18005
G1 X115.353 Y64.488 E15.21358
G1 X114.715 Y66.671 E15.31287
G1 X114.304 Y67.547 E15.35511
G1 X113.356 Y69.033 E15.43205
G1 X112.616 Y69.898 E15.48175
G1 X112.297 Y70.182 E15.50039
G1 X112.595 Y70.456 E15.51806
G1 X114.214 Y72.684 E15.63829
G1 X115.149 Y74.61 E15.73175
G1 X115.525 Y77.559 E15.86153
G1 X115.465 Y88.828 E16.35347
G1 X115.353 Y89.588 E16.38701
G1 X114.715 Y91.771 E16.48629
G1 X114.304 Y92.647 E16.52853
G1 X113.357 Y94.132 E16.60542
G1 X112.653 Y94.961 E16.6529
G1 X111.12 Y96.296 E16.74164
G1 X109.968 Y97.035 E16.80138
G1 X110.271 Y98.345 E16.86008
G1 X110.233 Y100.382 E16.94902
G1 X109.469 Y102.53 E17.04854
G1 X108.955 Y103.479 E17.09566
G1 X107.484 Y105.108 E17.19147
G1 X105.529 Y106.228 E17.28983
G1 X102.031 Y107.198 E17.44829
G1 X99.783 Y107.246 E17.54645
G1 X96.378 Y106.257 E17.70123
G1 X94.258 Y105.112 E17.80641
G1 X92.765 Y103.314 E17.90844
G1 X92.026 Y104.053 E17.95406
G1 X90.252 Y105.068 E18.04328
G1 X86.79 Y106.022 E18.20004
G1 X84.654 Y106.114 E18.29337
G1 X84.118 Y105.978 E18.31751
G1 X83.631 Y106.238 E18.34161
G1 X80.178 Y107.196 E18.49804
G1 X77.915 Y107.246 E18.59686
G1 X75.095 Y106.427 E18.72505
G1 X72.371 Y107.193 E18.84857
G1 X70.099 Y107.242 E18.94778
G1 X66.523 Y106.204 E19.11033
G1 X64.439 Y104.979 E19.21586
G1 X62.854 Y103.045 E19.32501
G1 X62.223 Y101.559 E19.39549
G1 X61.813 Y100.051 E19.46371
G1 X61.893 Y97.878 E19.55863
G1 X62.075 Y96.993 E19.59808
G1 X62.81 Y95.383 E19.67534
G1 X62.453 Y95.06 E19.69635
G1 X61.56 Y94.01 E19.75652
G1 X60.442 Y92.276 E19.84659
G1 X59.946 Y90.834 E19.91316
G1 X59.475 Y87.942 E20.04107
G1 X59.533 Y76.716 E20.53114
G1 X59.668 Y75.819 E20.57073
G1 X60.285 Y73.727 E20.66595
G1 X60.785 Y72.69 E20.7162
G1 X61.631 Y71.383 E20.78417
G1 X62.685 Y70.173 E20.85422
G1 X62.491 Y69.997 E20.86565
G1 X61.504 Y68.834 E20.93224
G1 X60.443 Y67.179 E21.01806
G1 X59.946 Y65.734 E21.08477
G1 X59.475 Y62.842 E21.21268
G1 X59.533 Y51.616 E21.70274
G1 X59.668 Y50.719 E21.74234
G1 X60.285 Y48.627 E21.83756
G1 X60.785 Y47.59 E21.88781
G1 X61.631 Y46.283 E21.95578
G0 F3600 X61.895 Y46.513
G1 F2250 X62.829 Y45.441 E22.01784
G1 X64.035 Y44.35 E22.08884
G1 X66.076 Y43.274 E22.18956
G1 X67.114 Y42.901 E22.23771
G1 X68.717 Y42.484 E22.31001
G1 X72.055 Y42.477 E22.45573
G1 X73.436 Y42.592 E22.51623
G1 X75.672 Y43.179 E22.61714
G1 X76.98 Y43.783 E22.68004
G1 X78.06 Y44.461 E22.7357
G1 X79.355 Y45.6 E22.81099
G1 X80.909 Y47.771 E22.92754
G1 X81.768 Y49.518 E23.01252
G1 X81.875 Y50.11 E23.03879
G1 X82.883 Y50.576 E23.08726
G1 X84.363 Y51.827 E23.17186
G1 X84.883 Y52.459 E23.20759
G1 X85.879 Y54.443 E23.3045
G1 X86.13 Y56.004 E23.37352
G1 X86.163 Y61.119 E23.59681
G1 X87.225 Y60.85 E23.64464
G1 X88.278 Y60.865 E23.69061
G1 X88.836 Y60.954 E23.71528
G1 X88.821 Y55.955 E23.9335
G1 X89.152 Y54.436 E24.00137
G1 X89.926 Y52.765 E24.08176
G1 X91.173 Y51.291 E24.16604
G1 X91.805 Y50.771 E24.20177
G1 X93.184 Y50.079 E24.26912
G1 X93.413 Y49.3 E24.30457
G1 X94.232 Y47.516 E24.39026
G1 X94.932 Y46.462 E24.4455
G1 X95.829 Y45.441 E24.50483
G1 X97.035 Y44.35 E24.57582
G1 X99.076 Y43.274 E24.67654
G1 X100.114 Y42.901 E24.72469
G1 X101.717 Y42.484 E24.79699
G1 X105.319 Y42.485 E24.95424
G1 X106.399 Y42.584 E25.00158
G1 X108.752 Y43.208 E25.10785
G1 X109.98 Y43.783 E25.16704
G1 X111.06 Y44.461 E25.22271
G1 X112.312 Y45.562 E25.29549
G1 X113.899 Y47.737 E25.41302
G1 X114.809 Y49.612 E25.50401
G1 X115.175 Y52.457 E25.62923
G1 X115.118 Y63.679 E26.11912
G1 X115.017 Y64.39 E26.15047
G1 X114.398 Y66.522 E26.24738
G1 X113.987 Y67.398 E26.28962
G1 X113.09 Y68.805 E26.36246
G1 X112.35 Y69.67 E26.41215
G1 X111.766 Y70.182 E26.44606
G1 X112.312 Y70.662 E26.47779
G1 X113.899 Y72.837 E26.59533
G1 X114.809 Y74.712 E26.68631
G1 X115.175 Y77.557 E26.81153
G1 X115.118 Y88.779 E27.30142
G1 X115.017 Y89.49 E27.33277
G1 X114.398 Y91.622 E27.42968
G1 X113.987 Y92.498 E27.47192
G1 X113.09 Y93.905 E27.54477
G1 X112.386 Y94.734 E27.59224
G1 X110.931 Y96.001 E27.67647
G1 X109.571 Y96.873 E27.74699
G1 X109.92 Y98.382 E27.8146
G1 X109.884 Y100.318 E27.89913
G1 X109.161 Y102.363 E27.99382
G1 X108.667 Y103.275 E28.0391
G1 X107.261 Y104.832 E28.13068
G1 X105.391 Y105.904 E28.22477
G1 X101.982 Y106.849 E28.3792
G1 X99.829 Y106.895 E28.47321
G1 X96.511 Y105.931 E28.62404
G1 X94.484 Y104.837 E28.72459
G1 X92.885 Y102.911 E28.83387
G1 X92.811 Y102.774 E28.84067
G1 X91.815 Y103.77 E28.90216
G1 X90.114 Y104.743 E28.9877
G1 X86.738 Y105.674 E29.14058
G1 X84.639 Y105.764 E29.23229
G1 X84.073 Y105.602 E29.25799
G1 X83.537 Y105.901 E29.28479
G1 X80.129 Y106.847 E29.43918
G1 X77.961 Y106.895 E29.53385
G1 X75.096 Y106.063 E29.66409
G1 X72.319 Y106.844 E29.79002
G1 X70.145 Y106.891 E29.88494
G1 X66.663 Y105.88 E30.04322
G1 X64.671 Y104.709 E30.14409
G1 X63.156 Y102.861 E30.24841
G1 X62.561 Y101.467 E30.31457
G1 X62.165 Y100.01 E30.38049
G1 X62.236 Y97.949 E30.47051
G1 X62.411 Y97.099 E30.50839
G1 X63.235 Y95.294 E30.59501
G1 X62.72 Y94.833 E30.62518
G1 X61.827 Y93.783 E30.68536
G1 X60.76 Y92.124 E30.77146
G1 X60.277 Y90.72 E30.83628
G1 X59.825 Y87.944 E30.95906
G1 X59.879 Y76.767 E31.44698
G1 X60.004 Y75.917 E31.48449
G1 X60.601 Y73.878 E31.57724
G1 X61.079 Y72.88 E31.62554
G1 X61.895 Y71.613 E31.69133
G1 X62.829 Y70.541 E31.7534
G1 X63.224 Y70.183 E31.77667
G1 X62.757 Y69.77 E31.80388
G1 X61.799 Y68.645 E31.86839
G1 X60.76 Y67.024 E31.95244
G1 X60.277 Y65.62 E32.01726
G1 X59.825 Y62.844 E32.14003
G1 X59.879 Y51.667 E32.62796
G1 X60.004 Y50.817 E32.66546
G1 X60.601 Y48.778 E32.75821
G1 X61.079 Y47.78 E32.80652
G1 X61.895 Y46.513 E32.87231
G0 F3600 X62.159 Y46.743
G1 F2250 X63.064 Y45.701 E32.93255
G1 X64.239 Y44.638 E33.00172
G1 X66.195 Y43.603 E33.09833
G1 X67.202 Y43.24 E33.14506
G1 X68.763 Y42.834 E33.21547
G1 X72.026 Y42.826 E33.35791
G1 X73.407 Y42.941 E33.4184
G1 X75.582 Y43.517 E33.51663
G1 X76.795 Y44.08 E33.575
G1 X77.829 Y44.724 E33.62818
G1 X79.092 Y45.835 E33.70161
G1 X80.624 Y47.975 E33.8165
G1 X81.454 Y49.672 E33.89897
G1 X81.558 Y50.349 E33.92887
G1 X82.694 Y50.875 E33.98352
G1 X84.093 Y52.05 E34.06327
G1 X84.588 Y52.651 E34.09726
G1 X85.542 Y54.551 E34.19007
G1 X85.784 Y56.059 E34.25674
G1 X85.816 Y61.567 E34.49719
G1 X87.265 Y61.201 E34.56244
G1 X88.223 Y61.211 E34.60426
G1 X89.187 Y61.365 E34.64687
G1 X89.171 Y55.992 E34.88143
G1 X89.485 Y54.55 E34.94585
G1 X90.225 Y52.954 E35.02265
G1 X91.396 Y51.561 E35.10209
G1 X91.997 Y51.066 E35.13608
G1 X93.477 Y50.324 E35.20835
G1 X93.731 Y49.445 E35.24829
G1 X94.524 Y47.71 E35.33157
G1 X95.224 Y46.656 E35.3868
G1 X96.064 Y45.701 E35.44232
G1 X97.239 Y44.638 E35.51149
G1 X99.195 Y43.603 E35.6081
G1 X100.202 Y43.24 E35.65483
G1 X101.763 Y42.834 E35.72524
G1 X105.287 Y42.834 E35.87907
G1 X106.367 Y42.933 E35.92642
G1 X108.604 Y43.525 E36.02743
G1 X109.795 Y44.08 E36.08479
G1 X110.829 Y44.724 E36.13797
G1 X112.053 Y45.8 E36.20911
G1 X113.584 Y47.89 E36.32221
G1 X114.469 Y49.714 E36.41071
G1 X114.825 Y52.455 E36.53137
G1 X114.771 Y63.63 E37.01921
G1 X114.67 Y64.341 E37.05056
G1 X114.081 Y66.373 E37.14292
G1 X113.67 Y67.249 E37.18516
G1 X112.823 Y68.578 E37.25395
G1 X112.119 Y69.407 E37.30143
G1 X111.236 Y70.182 E37.35272
G1 X112.053 Y70.9 E37.4002
G1 X113.584 Y72.99 E37.5133
G1 X114.469 Y74.814 E37.6018
G1 X114.825 Y77.555 E37.72246
G1 X114.771 Y88.73 E38.2103
G1 X114.67 Y89.441 E38.24165
G1 X114.081 Y91.473 E38.334
G1 X113.67 Y92.349 E38.37624
G1 X112.823 Y93.678 E38.44504
G1 X112.119 Y94.507 E38.49252
G1 X110.742 Y95.706 E38.57223
G1 X109.256 Y96.659 E38.64929
G1 X109.122 Y96.715 E38.65563
G1 X109.238 Y96.974 E38.66802
G1 X109.569 Y98.418 E38.73269
G1 X109.535 Y100.256 E38.81294
G1 X108.853 Y102.196 E38.90271
G1 X108.379 Y103.071 E38.94615
G1 X107.038 Y104.556 E39.0335
G1 X105.254 Y105.579 E39.12327
G1 X101.932 Y106.5 E39.27376
G1 X99.875 Y106.544 E39.36357
G1 X96.644 Y105.605 E39.51046
G1 X94.71 Y104.562 E39.60638
G1 X93.154 Y102.687 E39.71274
G1 X92.933 Y102.158 E39.73777
G1 X91.604 Y103.487 E39.81982
G1 X89.976 Y104.418 E39.90169
G1 X86.686 Y105.326 E40.05068
G1 X84.679 Y105.412 E40.13837
G1 X84.028 Y105.225 E40.16794
G1 X83.4 Y105.576 E40.19934
G1 X80.08 Y106.498 E40.34976
G1 X78.007 Y106.544 E40.44028
G1 X75.097 Y105.699 E40.57256
G1 X72.267 Y106.495 E40.70089
G1 X70.191 Y106.54 E40.79154
G1 X66.803 Y105.556 E40.94555
G1 X64.903 Y104.439 E41.04176
G1 X63.459 Y102.678 E41.14118
G1 X62.899 Y101.375 E41.20309
G1 X62.517 Y99.969 E41.26669
G1 X62.579 Y98.019 E41.35186
G1 X62.746 Y97.206 E41.38809
G1 X63.524 Y95.503 E41.46983
G1 X63.714 Y95.252 E41.48357
G1 X62.987 Y94.606 E41.52602
G1 X62.094 Y93.556 E41.5862
G1 X61.077 Y91.969 E41.66848
G1 X60.608 Y90.606 E41.7314
G1 X60.175 Y87.946 E41.84905
G1 X60.226 Y76.816 E42.33492
G1 X60.34 Y76.015 E42.37024
G1 X60.917 Y74.029 E42.46053
G1 X61.395 Y73.031 E42.50883
G1 X62.159 Y71.843 E42.57049
G1 X63.064 Y70.801 E42.63074
G1 X63.752 Y70.179 E42.67123
G1 X63.023 Y69.543 E42.71346
G1 X62.094 Y68.456 E42.77588
G1 X61.077 Y66.869 E42.85816
G1 X60.608 Y65.506 E42.92109
G1 X60.175 Y62.846 E43.03874
G1 X60.226 Y51.716 E43.52461
G1 X60.34 Y50.915 E43.55993
G1 X60.917 Y48.929 E43.65021
G1 X61.395 Y47.931 E43.69852
G1 X62.159 Y46.743 E43.76018
G0 F3600 X62.424 Y46.972
G1 F2250 X63.299 Y45.961 E43.81854
G1 X64.444 Y44.926 E43.88592
G1 X66.314 Y43.932 E43.97837
G1 X67.29 Y43.579 E44.02368
G1 X68.809 Y43.184 E44.09219
G1 X71.997 Y43.175 E44.23136
G1 X73.378 Y43.29 E44.29186
G1 X75.435 Y43.835 E44.38475
G1 X76.611 Y44.378 E44.4413
G1 X77.598 Y44.987 E44.49193
G1 X78.829 Y46.07 E44.5635
G1 X80.339 Y48.179 E44.67673
G1 X81.116 Y49.778 E44.75434
G1 X81.241 Y50.588 E44.79012
G1 X82.506 Y51.174 E44.85098
G1 X83.868 Y52.318 E44.92862
G1 X84.292 Y52.842 E44.95805
G1 X85.204 Y54.659 E45.0468
G1 X85.438 Y56.115 E45.11117
G1 X85.468 Y62.016 E45.36878
G1 X87.306 Y61.551 E45.45154
G1 X88.168 Y61.557 E45.48917
G1 X89.538 Y61.776 E45.54974
G1 X89.521 Y56.029 E45.80062
G1 X89.819 Y54.66 E45.86178
G1 X90.522 Y53.145 E45.93469
G1 X91.664 Y51.786 E46.01218
G1 X92.188 Y51.362 E46.04161
G1 X93.772 Y50.568 E46.11895
G1 X94.05 Y49.59 E46.16334
G1 X94.816 Y47.904 E46.24418
G1 X95.516 Y46.85 E46.29941
G1 X96.299 Y45.961 E46.35113
G1 X97.444 Y44.926 E46.41851
G1 X99.314 Y43.932 E46.51096
G1 X100.29 Y43.579 E46.55626
G1 X101.809 Y43.184 E46.62478
G1 X105.255 Y43.183 E46.77521
G1 X106.335 Y43.282 E46.82255
G1 X108.457 Y43.843 E46.91837
G1 X109.611 Y44.378 E46.9739
G1 X110.598 Y44.987 E47.02453
G1 X111.792 Y46.037 E47.09394
G1 X113.269 Y48.043 E47.20268
G1 X114.129 Y49.816 E47.2887
G1 X114.475 Y52.453 E47.40481
G1 X114.424 Y63.581 E47.89059
G1 X114.323 Y64.292 E47.92194
G1 X113.764 Y66.224 E48.00974
G1 X113.353 Y67.1 E48.05198
G1 X112.556 Y68.351 E48.11673
G1 X111.852 Y69.18 E48.16421
G1 X110.706 Y70.182 E48.23067
G1 X111.792 Y71.137 E48.2938
G1 X113.269 Y73.143 E48.40254
G1 X114.129 Y74.916 E48.48857
G1 X114.475 Y77.553 E48.60467
G1 X114.424 Y88.681 E49.09045
G1 X114.323 Y89.392 E49.1218
G1 X113.764 Y91.324 E49.2096
G1 X113.353 Y92.2 E49.25184
G1 X112.556 Y93.451 E49.31659
G1 X111.852 Y94.28 E49.36407
G1 X110.553 Y95.411 E49.43926
