;FLAVOR:Marlin
;TIME:3492
;Filament used: 4.02521m
;Layer height: 0.2
;MINX:33.125
;MINY:23.625
;MINZ:0.3
;MAXX:143.446
;MAXY:109.375
;MAXZ:13.5
;TARGET_MACHINE.NAME:Unknown
;Generated with Cura_SteamEngine 5.10.0
M104 S200
M105
M109 S200
G28 ;Home
G1 Z15.0 F6000 ;Move the platform down 15mm
;Prime the extruder
G92 E0
G1 F200 E3
G92 E0
M82 ;absolute extrusion mode
G92 E0
G92 E0
G1 F1500 E-6.5
;LAYER_COUNT:67
;LAYER:0
M107
G0 F3600 X40.677 Y66.905 Z0.3
;TYPE:SKIRT
G1 F1500 E0
G1 F2250 X42.968 Y65.534 E0.11655
G1 X44.061 Y65.028 E0.16913
G1 X46.121 Y64.301 E0.26449
G1 X47.203 Y64.03 E0.31319
G1 X49.504 Y63.695 E0.41469
G1 X50.665 Y63.625 E0.46547
G1 X61.952 Y63.645 E0.95819
G1 X63.217 Y63.762 E1.01365
G1 X64.466 Y63.963 E1.06887
G1 X66.91 Y64.616 E1.1793
G1 X67.694 Y64.918 E1.21598
G1 X69.572 Y65.816 E1.30685
G1 X70.717 Y66.491 E1.36488
G1 X71.763 Y67.232 E1.42083
G1 X72.177 Y66.905 E1.44387
G1 X74.468 Y65.534 E1.56042
G1 X75.272 Y65.163 E1.59907
G1 X74.815 Y64.806 E1.62439
G1 X73.236 Y63.191 E1.72298
G1 X72.155 Y61.823 E1.7991
G1 X70.784 Y59.532 E1.91565
G1 X70.277 Y58.437 E1.96833
G1 X69.551 Y56.379 E2.06359
G1 X69.28 Y55.297 E2.11228
G1 X68.945 Y52.997 E2.21375
G1 X68.875 Y51.836 E2.26452
G1 X68.897 Y40.529 E2.75812
G1 X68.999 Y39.434 E2.80613
G1 X69.216 Y38.053 E2.86715
G1 X69.865 Y35.592 E2.97826
G1 X70.254 Y34.583 E3.02546
G1 X71.289 Y32.531 E3.12579
G1 X72.149 Y31.19 E3.19533
G1 X73.032 Y30.028 E3.25904
G1 X75.056 Y27.989 E3.38446
G1 X76.427 Y26.905 E3.46076
G1 X78.718 Y25.534 E3.57731
G1 X79.811 Y25.028 E3.62989
G1 X81.871 Y24.301 E3.72525
G1 X82.953 Y24.03 E3.77394
G1 X85.254 Y23.695 E3.87545
G1 X86.415 Y23.625 E3.92623
G1 X97.702 Y23.645 E4.41895
G1 X98.967 Y23.762 E4.47441
G1 X100.216 Y23.963 E4.52963
G1 X102.66 Y24.616 E4.64006
G1 X103.444 Y24.918 E4.67674
G1 X105.322 Y25.816 E4.76761
G1 X106.467 Y26.491 E4.82564
G1 X107.658 Y27.335 E4.88936
G1 X108.523 Y28.038 E4.93802
G1 X110.534 Y30.108 E5.064
G1 X111.281 Y31.081 E5.11755
G1 X112.32 Y32.732 E5.20271
G1 X113.154 Y34.387 E5.28361
G1 X113.949 Y36.619 E5.38704
G1 X114.22 Y37.702 E5.43578
G1 X114.555 Y40.003 E5.53728
G1 X114.625 Y41.158 E5.5878
G1 X114.625 Y51.926 E6.05786
G1 X114.576 Y52.897 E6.1003
G1 X114.357 Y54.557 E6.1734
G1 X114.123 Y55.695 E6.22411
G1 X113.712 Y57.117 E6.28873
G1 X113.005 Y58.942 E6.37417
G1 X111.991 Y60.836 E6.46795
G1 X111.135 Y62.108 E6.53488
G1 X110.474 Y62.914 E6.58039
G1 X111.774 Y62.588 E6.6389
G1 X114.075 Y62.253 E6.7404
G1 X115.236 Y62.183 E6.79118
G1 X126.523 Y62.203 E7.2839
G1 X127.788 Y62.32 E7.33936
G1 X129.037 Y62.521 E7.39458
G1 X131.481 Y63.174 E7.50501
G1 X132.265 Y63.476 E7.54169
G1 X134.19 Y64.398 E7.63487
G1 X135.169 Y64.972 E7.68441
G1 X136.895 Y66.224 E7.77749
G1 X137.9 Y67.113 E7.83606
G1 X139.419 Y68.746 E7.93342
G1 X140.288 Y69.9 E7.99648
G1 X141.453 Y71.867 E8.09628
G1 X142.091 Y73.243 E8.16249
G1 X142.76 Y75.147 E8.25059
G1 X143.047 Y76.294 E8.30221
G1 X143.376 Y78.561 E8.40221
G1 X143.446 Y79.716 E8.45272
G1 X143.446 Y90.484 E8.92278
G1 X143.397 Y91.455 E8.96523
G1 X143.178 Y93.117 E9.03841
G1 X142.937 Y94.283 E9.09038
G1 X142.532 Y95.668 E9.15338
G1 X141.798 Y97.554 E9.24172
G1 X140.499 Y99.907 E9.35905
G1 X139.582 Y101.161 E9.42687
G1 X138.35 Y102.56 E9.50825
G1 X137.105 Y103.718 E9.58247
G1 X135.557 Y104.889 E9.6672
G1 X134.189 Y105.725 E9.73719
G1 X132.411 Y106.565 E9.82303
G1 X130.386 Y107.278 E9.91675
G1 X129.436 Y107.516 E9.95951
G1 X127.102 Y107.86 E10.0625
G1 X125.906 Y107.933 E10.1148
G1 X114.665 Y107.914 E10.60552
G1 X112.982 Y107.757 E10.67931
G1 X112.125 Y107.604 E10.71731
G1 X109.837 Y106.99 E10.82072
G1 X107.982 Y106.257 E10.90779
G1 X107.248 Y105.887 E10.94368
G1 X105.669 Y104.935 E11.02416
G1 X104.888 Y104.335 E11.06716
G1 X103.892 Y105.284 E11.12721
G1 X102.919 Y106.031 E11.18076
G1 X101.268 Y107.07 E11.26592
G1 X99.613 Y107.904 E11.34682
G1 X97.381 Y108.699 E11.45025
G1 X96.297 Y108.97 E11.49903
G1 X93.996 Y109.305 E11.60054
G1 X92.835 Y109.375 E11.65131
G1 X81.625 Y109.357 E12.14067
G1 X79.926 Y109.199 E12.21516
G1 X79.068 Y109.046 E12.25321
G1 X76.59 Y108.384 E12.36517
G1 X75.806 Y108.082 E12.40185
G1 X73.846 Y107.133 E12.49691
G1 X72.404 Y106.243 E12.57089
G1 X71.772 Y105.758 E12.60566
G1 X71.392 Y106.049 E12.62656
G1 X69.768 Y107.07 E12.7103
G1 X68.113 Y107.904 E12.7912
G1 X65.881 Y108.699 E12.89463
G1 X64.797 Y108.97 E12.94341
G1 X62.496 Y109.305 E13.04492
G1 X61.335 Y109.375 E13.09569
G1 X50.125 Y109.357 E13.58505
G1 X48.426 Y109.199 E13.65954
G1 X47.568 Y109.046 E13.69759
G1 X45.09 Y108.384 E13.80955
G1 X44.306 Y108.082 E13.84623
G1 X42.314 Y107.116 E13.94287
G1 X40.885 Y106.229 E14.0163
G1 X39.064 Y104.806 E14.11718
G1 X37.486 Y103.191 E14.21575
G1 X36.405 Y101.823 E14.29186
G1 X35.034 Y99.532 E14.40842
G1 X34.527 Y98.437 E14.46109
G1 X33.801 Y96.379 E14.55636
G1 X33.53 Y95.297 E14.60505
G1 X33.195 Y92.997 E14.70651
G1 X33.125 Y91.836 E14.75729
G1 X33.147 Y80.529 E15.25088
G1 X33.249 Y79.434 E15.29889
G1 X33.466 Y78.053 E15.35992
G1 X34.115 Y75.592 E15.47102
G1 X34.504 Y74.583 E15.51823
G1 X35.539 Y72.531 E15.61856
G1 X36.399 Y71.19 E15.6881
G1 X37.282 Y70.028 E15.75181
G1 X39.306 Y67.989 E15.87723
G1 X40.677 Y66.905 E15.95353
G0 F3600 X40.894 Y67.18
G1 F2250 X43.115 Y65.852 E16.06649
G1 X44.208 Y65.346 E16.11907
G1 X46.206 Y64.641 E16.21156
G1 X47.288 Y64.37 E16.26025
G1 X49.525 Y64.044 E16.35894
G1 X50.664 Y63.975 E16.40875
G1 X61.951 Y63.995 E16.90147
G1 X63.161 Y64.108 E16.95452
G1 X64.41 Y64.309 E17.00975
G1 X66.784 Y64.943 E17.11702
G1 X67.568 Y65.245 E17.15369
G1 X69.394 Y66.118 E17.24205
G1 X70.539 Y66.793 E17.30007
G1 X71.775 Y67.669 E17.3662
G1 X72.394 Y67.18 E17.40064
G1 X74.615 Y65.852 E17.5136
G1 X75.94 Y65.241 E17.5773
G1 X75.03 Y64.53 E17.62771
G1 X73.511 Y62.974 E17.72264
G1 X72.43 Y61.606 E17.79875
G1 X71.102 Y59.385 E17.91172
G1 X70.595 Y58.29 E17.96439
G1 X69.891 Y56.294 E18.05679
G1 X69.62 Y55.212 E18.10548
G1 X69.294 Y52.976 E18.20412
G1 X69.225 Y51.837 E18.25393
G1 X69.246 Y40.561 E18.74618
G1 X69.345 Y39.488 E18.79322
G1 X69.562 Y38.107 E18.85424
G1 X70.192 Y35.718 E18.9621
G1 X70.581 Y34.709 E19.0093
G1 X71.601 Y32.689 E19.10809
G1 X72.428 Y31.402 E19.17487
G1 X73.311 Y30.24 E19.23858
G1 X75.273 Y28.264 E19.36014
G1 X76.644 Y27.18 E19.43644
G1 X78.865 Y25.852 E19.5494
G1 X79.958 Y25.346 E19.60198
G1 X81.956 Y24.641 E19.69447
G1 X83.038 Y24.37 E19.74316
G1 X85.275 Y24.044 E19.84185
G1 X86.414 Y23.975 E19.89166
G1 X97.701 Y23.995 E20.38438
G1 X98.911 Y24.108 E20.43744
G1 X100.16 Y24.309 E20.49266
G1 X102.534 Y24.943 E20.59993
G1 X103.318 Y25.245 E20.6366
G1 X105.144 Y26.118 E20.72496
G1 X106.289 Y26.793 E20.78298
G1 X107.437 Y27.607 E20.84441
G1 X108.302 Y28.31 E20.89307
G1 X110.256 Y30.321 E21.01548
G1 X111.003 Y31.294 E21.06903
G1 X112.007 Y32.89 E21.15134
G1 X112.841 Y34.545 E21.23224
G1 X113.609 Y36.704 E21.33227
G1 X113.88 Y37.787 E21.38101
G1 X114.206 Y40.024 E21.47969
G1 X114.275 Y41.158 E21.52929
G1 X114.275 Y51.908 E21.99857
G1 X114.226 Y52.879 E22.04101
G1 X114.014 Y54.487 E22.11181
G1 X113.78 Y55.625 E22.16253
G1 X113.386 Y56.991 E22.22459
G1 X112.696 Y58.777 E22.30818
G1 X111.682 Y60.671 E22.40196
G1 X110.845 Y61.912 E22.4673
G1 X109.678 Y63.331 E22.54751
G1 X109.258 Y63.734 E22.57292
G1 X110.777 Y63.199 E22.64322
G1 X111.859 Y62.928 E22.69191
G1 X114.096 Y62.602 E22.7906
G1 X115.235 Y62.533 E22.84041
G1 X126.522 Y62.553 E23.33313
G1 X127.732 Y62.666 E23.38618
G1 X128.981 Y62.867 E23.44141
G1 X131.355 Y63.501 E23.54868
G1 X132.139 Y63.803 E23.58535
G1 X134.013 Y64.7 E23.67605
G1 X134.992 Y65.274 E23.72559
G1 X136.663 Y66.486 E23.8157
G1 X137.668 Y67.375 E23.87428
G1 X139.139 Y68.957 E23.96858
G1 X140.008 Y70.111 E24.03164
G1 X141.135 Y72.014 E24.12819
G1 X141.773 Y73.39 E24.1944
G1 X142.42 Y75.232 E24.27963
G1 X142.707 Y76.379 E24.33124
G1 X143.027 Y78.582 E24.42842
G1 X143.096 Y79.716 E24.47802
G1 X143.096 Y90.466 E24.9473
G1 X143.047 Y91.437 E24.98974
G1 X142.835 Y93.046 E25.06058
G1 X142.594 Y94.212 E25.11256
G1 X142.206 Y95.541 E25.173
G1 X141.472 Y97.427 E25.26134
G1 X140.216 Y99.7 E25.37471
G1 X139.299 Y100.954 E25.44253
G1 X138.087 Y102.329 E25.52254
G1 X136.894 Y103.439 E25.59368
G1 X135.374 Y104.59 E25.67691
G1 X134.006 Y105.426 E25.7469
G1 X132.295 Y106.235 E25.82952
G1 X130.301 Y106.938 E25.92181
G1 X129.351 Y107.176 E25.96457
G1 X127.081 Y107.511 E26.06473
G1 X125.907 Y107.583 E26.11608
G1 X114.697 Y107.565 E26.60544
G1 X113.044 Y107.412 E26.67791
G1 X112.187 Y107.259 E26.71591
G1 X109.928 Y106.652 E26.81802
G1 X108.14 Y105.944 E26.90197
G1 X107.406 Y105.574 E26.93786
G1 X105.882 Y104.657 E27.0155
G1 X104.863 Y103.875 E27.07157
G1 X103.679 Y105.006 E27.14305
G1 X102.706 Y105.753 E27.1966
G1 X101.11 Y106.757 E27.27891
G1 X99.455 Y107.591 E27.35981
G1 X97.296 Y108.359 E27.45985
G1 X96.212 Y108.63 E27.50862
G1 X93.975 Y108.956 E27.60731
G1 X92.836 Y109.025 E27.65712
G1 X81.626 Y109.007 E28.14648
G1 X79.987 Y108.854 E28.21834
G1 X79.129 Y108.701 E28.25639
G1 X76.716 Y108.057 E28.36541
G1 X75.932 Y107.755 E28.40209
G1 X74.03 Y106.835 E28.49432
G1 X72.617 Y105.965 E28.56676
G1 X71.772 Y105.316 E28.61327
G1 X71.179 Y105.771 E28.6459
G1 X69.61 Y106.757 E28.7268
G1 X67.955 Y107.591 E28.8077
G1 X65.796 Y108.359 E28.90773
G1 X64.712 Y108.63 E28.95651
G1 X62.475 Y108.956 E29.05519
G1 X61.336 Y109.025 E29.10501
G1 X50.126 Y109.007 E29.59437
G1 X48.487 Y108.854 E29.66623
G1 X47.629 Y108.701 E29.70427
G1 X45.216 Y108.057 E29.8133
G1 X44.432 Y107.755 E29.84997
G1 X42.467 Y106.801 E29.94533
G1 X41.101 Y105.953 E30.01552
G1 X39.28 Y104.53 E30.1164
G1 X37.761 Y102.974 E30.21133
G1 X36.68 Y101.606 E30.28744
G1 X35.352 Y99.385 E30.40041
G1 X34.845 Y98.29 E30.45308
G1 X34.141 Y96.294 E30.54548
G1 X33.87 Y95.212 E30.59417
G1 X33.544 Y92.976 E30.69281
G1 X33.475 Y91.837 E30.74263
G1 X33.496 Y80.561 E31.23487
G1 X33.595 Y79.488 E31.28191
G1 X33.812 Y78.107 E31.34293
G1 X34.442 Y75.718 E31.45079
G1 X34.831 Y74.709 E31.49799
G1 X35.851 Y72.689 E31.59678
G1 X36.678 Y71.402 E31.66356
G1 X37.561 Y70.24 E31.72727
G1 X39.523 Y68.264 E31.84883
G1 X40.894 Y67.18 E31.92513
G0 F3600 X41.111 Y67.455
G1 F2250 X43.262 Y66.17 E32.03451
G1 X44.355 Y65.664 E32.08709
G1 X46.291 Y64.981 E32.1767
G1 X47.373 Y64.71 E32.2254
G1 X49.546 Y64.393 E32.32126
G1 X50.663 Y64.325 E32.37011
G1 X61.919 Y64.344 E32.86148
G1 X63.105 Y64.454 E32.91348
G1 X64.354 Y64.655 E32.9687
G1 X66.658 Y65.27 E33.0728
G1 X67.442 Y65.572 E33.10948
G1 X69.216 Y66.42 E33.19531
G1 X70.361 Y67.095 E33.25334
G1 X71.466 Y67.879 E33.31248
G1 X71.766 Y68.123 E33.32936
G1 X72.611 Y67.455 E33.37639
G1 X74.762 Y66.17 E33.48576
G1 X75.855 Y65.664 E33.53834
G1 X76.678 Y65.373 E33.57645
G1 X75.246 Y64.254 E33.65579
G1 X73.786 Y62.757 E33.74707
G1 X72.705 Y61.389 E33.82318
G1 X71.42 Y59.238 E33.93256
G1 X70.913 Y58.143 E33.98524
G1 X70.231 Y56.209 E34.07476
G1 X69.96 Y55.127 E34.12345
G1 X69.643 Y52.955 E34.21927
G1 X69.575 Y51.838 E34.26812
G1 X69.595 Y40.593 E34.75901
G1 X69.691 Y39.542 E34.80509
G1 X69.908 Y38.161 E34.86611
G1 X70.519 Y35.844 E34.97071
G1 X70.908 Y34.835 E35.01792
G1 X71.896 Y32.878 E35.11362
G1 X72.707 Y31.614 E35.17918
G1 X73.59 Y30.452 E35.24289
G1 X75.49 Y28.539 E35.36059
G1 X76.861 Y27.455 E35.43689
G1 X79.012 Y26.17 E35.54627
G1 X80.105 Y25.664 E35.59885
G1 X82.041 Y24.981 E35.68847
G1 X83.123 Y24.71 E35.73716
G1 X85.296 Y24.393 E35.83302
G1 X86.413 Y24.325 E35.88187
G1 X97.669 Y24.344 E36.37324
G1 X98.855 Y24.454 E36.42524
G1 X100.104 Y24.655 E36.48046
G1 X102.408 Y25.27 E36.58457
G1 X103.192 Y25.572 E36.62124
G1 X104.966 Y26.42 E36.70708
G1 X106.111 Y27.095 E36.7651
G1 X107.216 Y27.879 E36.82424
G1 X108.081 Y28.582 E36.8729
G1 X109.978 Y30.534 E36.99173
G1 X110.725 Y31.507 E37.04528
G1 X111.694 Y33.048 E37.12474
G1 X112.528 Y34.703 E37.20564
G1 X113.269 Y36.789 E37.30228
G1 X113.54 Y37.872 E37.35101
G1 X113.857 Y40.045 E37.44688
G1 X113.925 Y41.158 E37.49556
G1 X113.925 Y51.89 E37.96405
G1 X113.876 Y52.861 E38.00649
G1 X113.671 Y54.417 E38.075
G1 X113.437 Y55.555 E38.12572
G1 X113.059 Y56.865 E38.18524
G1 X112.387 Y58.612 E38.26695
G1 X111.373 Y60.506 E38.36074
G1 X110.574 Y61.69 E38.42309
G1 X109.436 Y63.078 E38.50144
G1 X107.716 Y64.728 E38.60549
G1 X107.352 Y65.008 E38.62554
G1 X107.833 Y64.728 E38.64984
G1 X108.926 Y64.222 E38.70241
G1 X110.862 Y63.539 E38.79203
G1 X111.944 Y63.268 E38.84073
G1 X114.117 Y62.951 E38.93659
G1 X115.234 Y62.883 E38.98544
G1 X126.49 Y62.902 E39.47681
G1 X127.676 Y63.012 E39.52881
G1 X128.925 Y63.213 E39.58403
G1 X131.229 Y63.828 E39.68813
G1 X132.013 Y64.13 E39.72481
G1 X133.836 Y65.002 E39.81302
G1 X134.815 Y65.576 E39.86257
G1 X136.431 Y66.748 E39.94971
G1 X137.412 Y67.614 E40.00683
G1 X138.859 Y69.168 E40.09953
G1 X139.728 Y70.322 E40.16259
G1 X140.817 Y72.161 E40.25589
G1 X141.455 Y73.537 E40.3221
G1 X142.08 Y75.317 E40.40445
G1 X142.367 Y76.464 E40.45607
G1 X142.678 Y78.603 E40.55043
G1 X142.746 Y79.716 E40.5991
G1 X142.746 Y90.448 E41.0676
G1 X142.697 Y91.419 E41.11004
G1 X142.492 Y92.975 E41.17855
G1 X142.251 Y94.141 E41.23053
G1 X141.88 Y95.414 E41.28841
G1 X141.165 Y97.258 E41.37475
G1 X139.933 Y99.493 E41.48616
G1 X139.016 Y100.747 E41.55397
G1 X137.848 Y102.073 E41.63111
G1 X136.682 Y103.16 E41.7007
G1 X135.191 Y104.291 E41.7824
G1 X133.823 Y105.127 E41.85238
G1 X132.146 Y105.918 E41.93333
G1 X130.216 Y106.598 E42.02266
G1 X129.266 Y106.836 E42.06541
G1 X127.059 Y107.162 E42.1628
G1 X125.908 Y107.233 E42.21314
G1 X114.698 Y107.215 E42.7025
G1 X113.106 Y107.067 E42.7723
G1 X112.249 Y106.914 E42.8103
G1 X110.057 Y106.326 E42.90937
G1 X108.298 Y105.631 E42.99194
G1 X107.564 Y105.261 E43.02782
G1 X106.063 Y104.357 E43.10431
G1 X104.838 Y103.415 E43.17177
G1 X103.466 Y104.728 E43.25467
G1 X102.493 Y105.475 E43.30822
G1 X100.952 Y106.444 E43.38768
G1 X99.297 Y107.278 E43.46859
G1 X97.211 Y108.019 E43.56522
G1 X96.127 Y108.29 E43.614
G1 X93.954 Y108.607 E43.70986
G1 X92.837 Y108.675 E43.75871
G1 X81.658 Y108.658 E44.24672
G1 X80.048 Y108.509 E44.31731
G1 X79.19 Y108.356 E44.35535
G1 X76.842 Y107.73 E44.46143
G1 X76.058 Y107.428 E44.49811
G1 X74.183 Y106.52 E44.58905
G1 X72.83 Y105.687 E44.65841
G1 X71.772 Y104.875 E44.71663
G1 X70.966 Y105.493 E44.76097
G1 X69.452 Y106.444 E44.83902
G1 X67.797 Y107.278 E44.91992
G1 X65.711 Y108.019 E45.01656
G1 X64.627 Y108.29 E45.06533
G1 X62.454 Y108.607 E45.1612
G1 X61.337 Y108.675 E45.21005
G1 X50.158 Y108.658 E45.69806
G1 X48.548 Y108.509 E45.76864
G1 X47.69 Y108.356 E45.80669
G1 X45.342 Y107.73 E45.91277
G1 X44.558 Y107.428 E45.94944
G1 X42.62 Y106.486 E46.04351
G1 X41.317 Y105.677 E46.11046
G1 X39.496 Y104.254 E46.21135
G1 X38.036 Y102.757 E46.30263
G1 X36.955 Y101.389 E46.37875
G1 X35.67 Y99.238 E46.48812
G1 X35.163 Y98.143 E46.5408
G1 X34.481 Y96.209 E46.63032
G1 X34.21 Y95.127 E46.67902
G1 X33.893 Y92.955 E46.77484
G1 X33.825 Y91.838 E46.82369
G1 X33.845 Y80.593 E47.31458
G1 X33.941 Y79.542 E47.36065
G1 X34.158 Y78.161 E47.42167
G1 X34.769 Y75.844 E47.52628
G1 X35.158 Y74.835 E47.57349
G1 X36.146 Y72.878 E47.66919
G1 X36.957 Y71.614 E47.73475
G1 X37.84 Y70.452 E47.79846
G1 X39.74 Y68.539 E47.91616
G1 X41.111 Y67.455 E47.99245
G1 F1500 E41.49245
G0 F3600 X102.598 Y67.618
G1 F1500 E47.99245
G1 F2250 X103.262 Y68.12 E48.02879
G1 X103.697 Y67.646 E48.05688
G1 X104.581 Y66.856 E48.10863
G1 X105.007 Y66.542 E48.13173
G1 X103.547 Y67.278 E48.20311
G1 X102.598 Y67.618 E48.24711
G0 F3600 X102.745 Y68.151
G1 F2250 X103.297 Y68.6 E48.27818
G1 X103.931 Y67.907 E48.31918
G1 X104.789 Y67.138 E48.36947
G1 X106.284 Y66.037 E48.45053
G1 X107.98 Y65.046 E48.53628
G1 X109.073 Y64.54 E48.58885
G1 X110.947 Y63.879 E48.6756
G1 X112.029 Y63.608 E48.72429
G1 X114.138 Y63.3 E48.81734
G1 X115.233 Y63.233 E48.86523
G1 X126.458 Y63.251 E49.35524
G1 X127.62 Y63.358 E49.40618
G1 X128.869 Y63.559 E49.46141
G1 X131.103 Y64.155 E49.56234
G1 X131.887 Y64.457 E49.59902
G1 X133.659 Y65.304 E49.68476
G1 X134.638 Y65.878 E49.7343
G1 X136.199 Y67.01 E49.81847
G1 X137.18 Y67.876 E49.8756
G1 X138.579 Y69.379 E49.96523
G1 X139.448 Y70.533 E50.0283
G1 X140.499 Y72.308 E50.11835
G1 X141.137 Y73.684 E50.18456
