;FLAVOR:Marlin
;TIME:1821
;Filament used: 2.13347m
;Layer height: 0.15
;MINX:53.765
;MINY:52.773
;MINZ:0.3
;MAXX:121.234
;MAXY:120.226
;MAXZ:6
;TARGET_MACHINE.NAME:Unknown
;Generated with Cura_SteamEngine 5.10.0
M104 S200
M105
M109 S200
G28 ;Home
G1 Z15.0 F6000 ;Move the platform down 15mm
;Prime the extruder
G92 E0
G1 F200 E3
G92 E0
M82 ;absolute extrusion mode
G92 E0
G92 E0
G1 F1500 E-6.5
;LAYER_COUNT:39
;LAYER:0
M107
G0 F3600 X64.1 Y62.203 Z0.3
;TYPE:SKIRT
G1 F1500 E0
G1 F2550 X65.304 Y61.097 E0.08156
G1 X66.559 Y60.053 E0.16301
G1 X67.984 Y58.989 E0.25173
G1 X69.364 Y58.057 E0.33481
G1 X70.783 Y57.199 E0.41754
G1 X72.22 Y56.423 E0.49902
G1 X73.613 Y55.754 E0.57612
G1 X75.354 Y55.027 E0.67024
G1 X76.737 Y54.525 E0.74365
G1 X78.44 Y54.004 E0.8325
G1 X80.19 Y53.573 E0.92241
G1 X81.87 Y53.238 E1.00788
G1 X83.502 Y53.006 E1.09012
G1 X85.224 Y52.837 E1.17644
G1 X86.854 Y52.774 E1.25782
G1 X88.156 Y52.773 E1.32278
G1 X90.235 Y52.877 E1.42663
G1 X91.571 Y53.013 E1.49363
G1 X93.572 Y53.316 E1.5946
G1 X95.093 Y53.633 E1.67211
G1 X96.822 Y54.086 E1.76128
G1 X98.429 Y54.585 E1.84523
G1 X99.941 Y55.14 E1.92559
G1 X101.477 Y55.799 E2.00898
G1 X103.071 Y56.572 E2.09736
G1 X104.454 Y57.335 E2.17616
G1 X105.958 Y58.262 E2.2643
G1 X107.155 Y59.078 E2.33658
G1 X108.632 Y60.201 E2.42915
G1 X109.786 Y61.172 E2.50439
G1 X111.202 Y62.493 E2.601
G1 X112.232 Y63.555 E2.67481
G1 X113.466 Y64.955 E2.76792
G1 X114.319 Y66.023 E2.83611
G1 X115.431 Y67.583 E2.93169
G1 X116.397 Y69.086 E3.02082
G1 X117.178 Y70.451 E3.09928
G1 X117.879 Y71.83 E3.17646
G1 X118.664 Y73.589 E3.27256
G1 X119.268 Y75.148 E3.35597
G1 X119.769 Y76.664 E3.43563
G1 X120.223 Y78.308 E3.52072
G1 X120.601 Y80.014 E3.60789
G1 X120.885 Y81.682 E3.69231
G1 X121.086 Y83.354 E3.77633
G1 X121.203 Y85.041 E3.86069
G1 X121.234 Y86.719 E3.94442
G1 X121.182 Y88.39 E4.02783
G1 X121.055 Y90.001 E4.10845
G1 X120.827 Y91.712 E4.19457
G1 X120.561 Y93.216 E4.27077
G1 X120.131 Y95.037 E4.36412
G1 X119.673 Y96.633 E4.44696
G1 X119.125 Y98.248 E4.53204
G1 X118.571 Y99.639 E4.60674
G1 X117.831 Y101.267 E4.69596
G1 X117.104 Y102.676 E4.77506
G1 X116.181 Y104.261 E4.86657
G1 X115.295 Y105.625 E4.94771
G1 X114.384 Y106.883 E5.0252
G1 X113.217 Y108.331 E5.11798
G1 X112.161 Y109.517 E5.19721
G1 X110.912 Y110.78 E5.28583
G1 X109.673 Y111.931 E5.3702
G1 X108.577 Y112.846 E5.44143
G1 X107.069 Y113.98 E5.53556
G1 X105.686 Y114.913 E5.61879
G1 X104.232 Y115.791 E5.70353
G1 X102.743 Y116.595 E5.78796
G1 X101.322 Y117.275 E5.86655
G1 X99.674 Y117.957 E5.95553
G1 X98.095 Y118.523 E6.03922
G1 X96.454 Y119.031 E6.12492
G1 X95.192 Y119.352 E6.18989
G1 X93.131 Y119.762 E6.29472
G1 X91.5 Y119.994 E6.37691
G1 X89.782 Y120.163 E6.46304
G1 X88.155 Y120.226 E6.54427
G1 X86.465 Y120.209 E6.62859
G1 X84.763 Y120.123 E6.71361
G1 X83.269 Y119.963 E6.78857
G1 X81.451 Y119.684 E6.88034
G1 X79.913 Y119.372 E6.95863
G1 X78.314 Y118.962 E7.04099
G1 X76.569 Y118.416 E7.13221
G1 X75.248 Y117.935 E7.20234
G1 X73.498 Y117.194 E7.29716
G1 X72.027 Y116.477 E7.3788
G1 X70.465 Y115.613 E7.46785
G1 X69.05 Y114.739 E7.55083
G1 X67.728 Y113.832 E7.63081
G1 X66.319 Y112.761 E7.71911
G1 X65.273 Y111.884 E7.78721
G1 X63.798 Y110.506 E7.88792
G1 X62.755 Y109.431 E7.96264
G1 X61.533 Y108.045 E8.05483
G1 X60.692 Y106.992 E8.12206
G1 X59.558 Y105.396 E8.21974
G1 X58.607 Y103.917 E8.30747
G1 X57.845 Y102.587 E8.38394
G1 X57.017 Y100.947 E8.4756
G1 X56.37 Y99.501 E8.55463
G1 X55.739 Y97.873 E8.64174
G1 X55.228 Y96.332 E8.72274
G1 X54.786 Y94.732 E8.80555
G1 X54.4 Y92.989 E8.89462
G1 X54.115 Y91.318 E8.97919
G1 X53.914 Y89.645 E9.06325
G1 X53.797 Y87.964 E9.14732
G1 X53.765 Y86.275 E9.2316
G1 X53.818 Y84.615 E9.31446
G1 X53.944 Y82.993 E9.39563
G1 X54.173 Y81.277 E9.482
G1 X54.474 Y79.596 E9.5672
G1 X54.805 Y78.172 E9.64013
G1 X55.327 Y76.367 E9.73388
G1 X55.861 Y74.791 E9.81689
G1 X56.453 Y73.308 E9.89656
G1 X57.194 Y71.682 E9.98571
G1 X57.945 Y70.226 E10.06744
G1 X58.768 Y68.816 E10.14889
G1 X59.712 Y67.361 E10.23542
G1 X60.559 Y66.187 E10.30764
G1 X61.764 Y64.69 E10.40352
G1 X62.776 Y63.55 E10.47957
G1 X64.1 Y62.203 E10.5738
G0 F3600 X64.371 Y62.497
G1 F2550 X65.56 Y61.404 E10.65438
G1 X66.798 Y60.373 E10.73475
G1 X68.208 Y59.32 E10.82255
G1 X69.571 Y58.399 E10.90462
G1 X70.973 Y57.551 E10.98637
G1 X72.393 Y56.784 E11.06688
G1 X73.786 Y56.115 E11.14398
G1 X75.49 Y55.403 E11.23612
G1 X76.854 Y54.908 E11.30851
G1 X78.557 Y54.387 E11.39736
G1 X80.268 Y53.965 E11.48528
G1 X81.926 Y53.634 E11.56963
G1 X83.541 Y53.404 E11.65101
G1 X85.24 Y53.237 E11.73619
G1 X86.854 Y53.174 E11.81677
G1 X88.156 Y53.173 E11.88173
G1 X90.194 Y53.275 E11.98353
G1 X91.53 Y53.411 E12.05053
G1 X93.49 Y53.708 E12.14943
G1 X95.011 Y54.025 E12.22694
G1 X96.703 Y54.468 E12.3142
G1 X98.31 Y54.967 E12.39815
G1 X99.783 Y55.508 E12.47644
G1 X101.302 Y56.159 E12.55889
G1 X102.896 Y56.932 E12.64727
G1 X104.244 Y57.675 E12.72406
G1 X105.733 Y58.593 E12.81133
G1 X106.913 Y59.397 E12.88257
G1 X108.374 Y60.507 E12.97411
G1 X109.528 Y61.478 E13.04935
G1 X110.915 Y62.772 E13.14399
G1 X111.932 Y63.82 E13.21685
G1 X113.153 Y65.205 E13.30896
G1 X114.006 Y66.273 E13.37715
G1 X115.105 Y67.815 E13.47162
G1 X116.05 Y69.285 E13.55881
G1 X116.821 Y70.632 E13.63624
G1 X117.522 Y72.011 E13.71342
G1 X118.291 Y73.733 E13.80751
G1 X118.888 Y75.274 E13.88996
G1 X119.383 Y76.771 E13.96862
G1 X119.832 Y78.395 E14.05268
G1 X120.21 Y80.101 E14.13986
G1 X120.488 Y81.73 E14.2223
G1 X120.687 Y83.382 E14.30532
G1 X120.803 Y85.048 E14.38864
G1 X120.834 Y86.707 E14.47142
G1 X120.783 Y88.359 E14.55388
G1 X120.656 Y89.97 E14.6345
G1 X120.433 Y91.642 E14.71865
G1 X120.167 Y93.146 E14.79485
G1 X119.747 Y94.927 E14.88614
G1 X119.294 Y96.505 E14.96805
G1 X118.753 Y98.1 E15.05208
G1 X118.207 Y99.473 E15.1258
G1 X117.467 Y101.101 E15.21501
G1 X116.758 Y102.475 E15.29215
G1 X115.846 Y104.043 E15.38265
G1 X114.971 Y105.39 E15.46279
G1 X114.06 Y106.648 E15.54028
G1 X112.918 Y108.065 E15.63107
G1 X111.862 Y109.251 E15.7103
G1 X110.64 Y110.487 E15.79701
G1 X109.416 Y111.624 E15.88036
G1 X108.337 Y112.526 E15.95052
G1 X106.845 Y113.648 E16.04366
G1 X105.462 Y114.581 E16.12689
G1 X104.042 Y115.439 E16.20966
G1 X102.57 Y116.234 E16.29312
G1 X101.169 Y116.905 E16.37062
G1 X99.539 Y117.58 E16.45864
G1 X97.96 Y118.146 E16.54233
G1 X96.355 Y118.643 E16.62615
G1 X95.093 Y118.964 E16.69112
G1 X93.075 Y119.366 E16.79377
G1 X91.461 Y119.596 E16.87511
G1 X89.766 Y119.763 E16.96008
G1 X88.159 Y119.826 E17.04032
G1 X86.485 Y119.809 E17.12384
G1 X84.805 Y119.725 E17.20776
G1 X83.33 Y119.568 E17.28176
G1 X81.531 Y119.292 E17.37257
G1 X79.993 Y118.98 E17.45086
G1 X78.433 Y118.58 E17.53121
G1 X76.706 Y118.04 E17.62148
G1 X75.385 Y117.559 E17.69162
G1 X73.673 Y116.834 E17.78437
G1 X72.202 Y116.117 E17.86602
G1 X70.675 Y115.273 E17.95306
G1 X69.276 Y114.409 E18.03509
G1 X67.97 Y113.513 E18.11411
G1 X66.576 Y112.454 E18.20145
G1 X65.53 Y111.577 E18.26955
G1 X64.085 Y110.227 E18.36821
G1 X63.042 Y109.152 E18.44294
G1 X61.846 Y107.795 E18.53318
G1 X61.005 Y106.742 E18.60041
G1 X59.884 Y105.164 E18.69698
G1 X58.954 Y103.718 E18.78276
G1 X58.202 Y102.407 E18.85816
G1 X57.382 Y100.784 E18.94888
G1 X56.743 Y99.356 E19.02693
G1 X56.119 Y97.747 E19.11303
G1 X55.614 Y96.225 E19.19303
G1 X55.177 Y94.646 E19.27477
G1 X54.791 Y92.903 E19.36383
G1 X54.512 Y91.27 E19.44648
G1 X54.313 Y89.617 E19.52955
G1 X54.197 Y87.956 E19.61262
G1 X54.165 Y86.288 E19.69585
G1 X54.217 Y84.646 E19.77781
G1 X54.343 Y83.024 E19.85898
G1 X54.567 Y81.347 E19.94339
G1 X54.864 Y79.687 E20.02752
G1 X55.195 Y78.263 E20.10046
G1 X55.706 Y76.495 E20.19227
G1 X56.24 Y74.919 E20.27529
G1 X56.817 Y73.474 E20.35292
G1 X57.55 Y71.865 E20.44113
G1 X58.291 Y70.428 E20.52179
G1 X59.104 Y69.034 E20.6023
G1 X60.048 Y67.579 E20.68883
G1 X60.871 Y66.438 E20.75902
G1 X62.063 Y64.956 E20.8539
G1 X63.075 Y63.816 E20.92996
G1 X64.371 Y62.497 E21.02221
G0 F3600 X64.642 Y62.791
G1 F2550 X65.816 Y61.711 E21.1018
G1 X67.037 Y60.693 E21.18111
G1 X68.432 Y59.651 E21.26797
G1 X69.778 Y58.741 E21.34903
G1 X71.163 Y57.903 E21.4298
G1 X72.566 Y57.145 E21.50935
G1 X73.959 Y56.476 E21.58645
G1 X75.627 Y55.779 E21.67664
G1 X76.971 Y55.291 E21.74798
G1 X78.674 Y54.77 E21.83683
G1 X80.346 Y54.357 E21.92275
G1 X81.982 Y54.03 E22.00598
G1 X83.58 Y53.802 E22.08652
G1 X85.256 Y53.637 E22.17054
G1 X86.854 Y53.574 E22.25032
G1 X88.156 Y53.573 E22.31528
G1 X90.153 Y53.673 E22.41504
G1 X91.489 Y53.809 E22.48203
G1 X93.408 Y54.1 E22.57887
G1 X94.929 Y54.417 E22.65638
G1 X96.585 Y54.85 E22.74178
G1 X98.172 Y55.342 E22.82467
G1 X99.625 Y55.876 E22.9019
G1 X101.144 Y56.527 E22.98435
G1 X102.703 Y57.282 E23.07077
G1 X104.034 Y58.015 E23.14658
G1 X105.508 Y58.924 E23.23298
G1 X106.688 Y59.728 E23.30421
G1 X108.116 Y60.813 E23.39369
G1 X109.27 Y61.784 E23.46893
G1 X110.628 Y63.051 E23.56159
G1 X111.632 Y64.085 E23.63349
G1 X112.84 Y65.455 E23.72462
G1 X113.693 Y66.523 E23.79281
G1 X114.779 Y68.047 E23.88617
G1 X115.703 Y69.484 E23.97141
G1 X116.464 Y70.813 E24.04781
G1 X117.165 Y72.192 E24.12499
G1 X117.918 Y73.878 E24.21711
G1 X118.508 Y75.4 E24.29855
G1 X118.997 Y76.878 E24.37622
G1 X119.446 Y78.502 E24.46028
G1 X119.816 Y80.168 E24.54542
G1 X120.091 Y81.778 E24.62691
G1 X120.288 Y83.41 E24.70892
G1 X120.403 Y85.056 E24.79124
G1 X120.434 Y86.695 E24.87302
G1 X120.384 Y88.328 E24.95453
G1 X120.257 Y89.939 E25.03516
G1 X120.039 Y91.572 E25.11735
G1 X119.773 Y93.076 E25.19355
G1 X119.363 Y94.817 E25.28278
G1 X118.915 Y96.377 E25.36376
G1 X118.381 Y97.952 E25.44673
G1 X117.843 Y99.307 E25.51946
G1 X117.103 Y100.935 E25.60868
G1 X116.412 Y102.274 E25.68386
G1 X115.51 Y103.825 E25.77337
G1 X114.647 Y105.155 E25.85247
G1 X113.736 Y106.413 E25.92996
G1 X112.619 Y107.799 E26.01877
G1 X111.577 Y108.97 E26.09697
G1 X110.368 Y110.194 E26.1828
G1 X109.159 Y111.317 E26.26512
G1 X108.096 Y112.206 E26.33426
G1 X106.621 Y113.316 E26.42636
G1 X105.238 Y114.249 E26.50959
G1 X103.852 Y115.087 E26.59039
G1 X102.397 Y115.873 E26.6729
G1 X101.016 Y116.535 E26.7493
G1 X99.404 Y117.203 E26.83636
G1 X97.825 Y117.769 E26.92004
G1 X96.256 Y118.255 E27.00199
G1 X94.994 Y118.576 E27.06696
G1 X93.018 Y118.97 E27.16748
G1 X91.422 Y119.198 E27.24791
G1 X89.75 Y119.363 E27.33173
G1 X88.163 Y119.426 E27.41097
G1 X86.505 Y119.41 E27.49369
G1 X84.847 Y119.327 E27.57652
G1 X83.391 Y119.173 E27.64956
G1 X81.611 Y118.9 E27.7394
G1 X80.073 Y118.588 E27.8177
G1 X78.552 Y118.198 E27.89604
G1 X76.843 Y117.664 E27.98536
G1 X75.522 Y117.183 E28.0555
G1 X73.848 Y116.474 E28.1462
G1 X72.377 Y115.757 E28.22784
G1 X70.885 Y114.933 E28.31288
G1 X69.502 Y114.079 E28.39397
G1 X68.212 Y113.195 E28.47199
G1 X66.833 Y112.147 E28.5584
G1 X65.787 Y111.27 E28.6265
G1 X64.372 Y109.949 E28.72308
G1 X63.342 Y108.887 E28.79689
G1 X62.159 Y107.545 E28.88614
G1 X61.318 Y106.492 E28.95337
G1 X60.21 Y104.932 E29.04883
G1 X59.301 Y103.519 E29.13266
G1 X58.559 Y102.226 E29.20703
G1 X57.747 Y100.621 E29.29677
G1 X57.116 Y99.211 E29.37384
G1 X56.499 Y97.621 E29.45893
G1 X56 Y96.118 E29.53794
G1 X55.563 Y94.539 E29.61967
G1 X55.185 Y92.836 E29.7067
G1 X54.909 Y91.222 E29.7884
G1 X54.712 Y89.589 E29.87046
G1 X54.597 Y87.948 E29.95253
G1 X54.565 Y86.301 E30.03471
G1 X54.616 Y84.677 E30.11577
G1 X54.74 Y83.077 E30.19584
G1 X54.961 Y81.417 E30.27939
G1 X55.254 Y79.778 E30.36245
G1 X55.585 Y78.354 E30.43539
G1 X56.085 Y76.623 E30.52528
G1 X56.619 Y75.047 E30.6083
G1 X57.181 Y73.64 E30.68389
G1 X57.906 Y72.048 E30.77116
G1 X58.647 Y70.611 E30.85182
G1 X59.44 Y69.252 E30.93032
G1 X60.384 Y67.797 E31.01685
G1 X61.183 Y66.689 E31.085
G1 X62.362 Y65.222 E31.1789
G1 X63.374 Y64.082 E31.25495
G1 X64.642 Y62.791 E31.34523
G0 F3600 X64.913 Y63.085
G1 F2550 X66.072 Y62.018 E31.42383
G1 X67.277 Y61.013 E31.50211
G1 X68.656 Y59.982 E31.58801
G1 X69.985 Y59.083 E31.66806
G1 X71.353 Y58.255 E31.74784
G1 X72.739 Y57.506 E31.82644
G1 X74.132 Y56.837 E31.90353
G1 X75.763 Y56.155 E31.99173
G1 X77.088 Y55.674 E32.06206
G1 X78.791 Y55.153 E32.15091
G1 X80.424 Y54.749 E32.23483
G1 X82.039 Y54.426 E32.317
G1 X83.619 Y54.2 E32.39663
G1 X85.272 Y54.037 E32.4795
G1 X86.854 Y53.974 E32.55849
G1 X88.156 Y53.973 E32.62344
G1 X90.112 Y54.071 E32.72115
G1 X91.448 Y54.207 E32.78815
G1 X93.327 Y54.492 E32.88297
G1 X94.828 Y54.804 E32.95945
G1 X96.467 Y55.232 E33.04396
G1 X98.034 Y55.718 E33.12582
G1 X99.467 Y56.244 E33.20197
G1 X100.986 Y56.895 E33.28442
G1 X102.51 Y57.632 E33.36888
G1 X103.824 Y58.355 E33.4437
G1 X105.283 Y59.255 E33.52923
G1 X106.463 Y60.059 E33.60046
G1 X107.858 Y61.119 E33.68787
G1 X109.012 Y62.09 E33.76312
G1 X110.341 Y63.33 E33.8538
G1 X111.345 Y64.364 E33.9257
G1 X112.527 Y65.705 E34.01488
G1 X113.38 Y66.773 E34.08308
G1 X114.453 Y68.279 E34.17533
G1 X115.356 Y69.683 E34.25861
G1 X116.107 Y70.994 E34.33399
G1 X116.808 Y72.373 E34.41117
G1 X117.545 Y74.023 E34.50133
G1 X118.128 Y75.526 E34.58175
G1 X118.611 Y76.985 E34.65843
G1 X119.06 Y78.609 E34.74249
G1 X119.422 Y80.235 E34.8256
G1 X119.694 Y81.826 E34.90612
G1 X119.889 Y83.438 E34.98713
G1 X120.003 Y85.064 E35.06845
G1 X120.034 Y86.683 E35.14924
G1 X119.985 Y88.297 E35.2298
G1 X119.858 Y89.908 E35.31042
G1 X119.645 Y91.503 E35.39071
G1 X119.384 Y92.984 E35.46573
G1 X118.979 Y94.707 E35.55403
G1 X118.536 Y96.249 E35.63408
G1 X118.009 Y97.804 E35.71599
G1 X117.471 Y99.159 E35.78873
G1 X116.748 Y100.752 E35.876
G1 X116.066 Y102.073 E35.95017
G1 X115.174 Y103.607 E36.0387
G1 X114.311 Y104.937 E36.1178
G1 X113.425 Y106.162 E36.19323
G1 X112.32 Y107.533 E36.28108
G1 X111.292 Y108.689 E36.35826
G1 X110.096 Y109.901 E36.44321
G1 X108.902 Y111.01 E36.52451
G1 X107.855 Y111.886 E36.59261
G1 X106.397 Y112.984 E36.68367
G1 X105.014 Y113.917 E36.7669
G1 X103.662 Y114.735 E36.84574
G1 X102.224 Y115.512 E36.92729
G1 X100.863 Y116.165 E37.0026
G1 X99.251 Y116.833 E37.08965
G1 X97.707 Y117.387 E37.17149
G1 X96.157 Y117.867 E37.25244
G1 X94.895 Y118.188 E37.31741
G1 X92.961 Y118.574 E37.4158
G1 X91.383 Y118.8 E37.49533
G1 X89.734 Y118.963 E37.578
G1 X88.167 Y119.026 E37.65624
G1 X86.525 Y119.011 E37.73816
G1 X84.889 Y118.929 E37.81989
G1 X83.452 Y118.778 E37.89197
G1 X81.691 Y118.508 E37.98086
G1 X80.153 Y118.196 E38.05915
G1 X78.671 Y117.816 E38.13548
G1 X76.98 Y117.288 E38.22386
G1 X75.659 Y116.807 E38.294
G1 X74.023 Y116.114 E38.38264
G1 X72.552 Y115.397 E38.46428
G1 X71.095 Y114.593 E38.54731
G1 X69.728 Y113.749 E38.62746
G1 X68.454 Y112.876 E38.70451
G1 X67.09 Y111.84 E38.78996
G1 X66.044 Y110.963 E38.85806
G1 X64.659 Y109.67 E38.95259
G1 X63.642 Y108.622 E39.02545
G1 X62.472 Y107.295 E39.11371
G1 X61.631 Y106.242 E39.18094
G1 X60.536 Y104.7 E39.2753
G1 X59.648 Y103.32 E39.35717
G1 X58.916 Y102.045 E39.43052
G1 X58.112 Y100.458 E39.51927
G1 X57.489 Y99.066 E39.59536
G1 X56.879 Y97.495 E39.67944
G1 X56.386 Y96.011 E39.75745
G1 X55.949 Y94.432 E39.83919
G1 X55.579 Y92.768 E39.92424
G1 X55.306 Y91.174 E40.00492
G1 X55.111 Y89.561 E40.08598
G1 X54.997 Y87.94 E40.16705
G1 X54.965 Y86.313 E40.24824
G1 X55.015 Y84.708 E40.32835
G1 X55.139 Y83.108 E40.40841
G1 X55.355 Y81.487 E40.49
G1 X55.644 Y79.869 E40.572
G1 X55.975 Y78.445 E40.64494
G1 X56.464 Y76.751 E40.7329
G1 X56.991 Y75.195 E40.81486
G1 X57.545 Y73.806 E40.88947
G1 X58.262 Y72.231 E40.97581
G1 X59.003 Y70.794 E41.05647
G1 X59.776 Y69.47 E41.13296
G1 X60.709 Y68.031 E41.21852
G1 X61.495 Y66.94 E41.2856
G1 X62.674 Y65.473 E41.3795
G1 X63.659 Y64.362 E41.45357
G1 X64.913 Y63.085 E41.54287
G0 F3600 X65.184 Y63.379
G1 F2550 X66.328 Y62.325 E41.62047
G1 X67.517 Y61.333 E41.69773
G1 X68.88 Y60.313 E41.78266
G1 X70.192 Y59.425 E41.8617
G1 X71.543 Y58.607 E41.94049
G1 X72.912 Y57.867 E42.01813
G1 X74.305 Y57.198 E42.09523
G1 X75.9 Y56.531 E42.18148
G1 X77.205 Y56.057 E42.25075
G1 X78.908 Y55.536 E42.3396
G1 X80.503 Y55.141 E42.42158
G1 X82.096 Y54.822 E42.50263
G1 X83.658 Y54.598 E42.58136
G1 X85.288 Y54.437 E42.66307
G1 X86.854 Y54.374 E42.74126
G1 X88.156 Y54.373 E42.80622
G1 X90.071 Y54.469 E42.90188
G1 X91.407 Y54.605 E42.96888
G1 X93.246 Y54.884 E43.06168
G1 X94.727 Y55.191 E43.13713
G1 X96.349 Y55.614 E43.22076
G1 X97.896 Y56.093 E43.30156
G1 X99.309 Y56.612 E43.37666
