;FLAVOR:Marlin
;TIME:116
;Filament used: 0.191273m
;Layer height: 0.3
;MINX:121
;MINY:96
;MINZ:0.3
;MAXX:148.963
;MAXY:124
;MAXZ:3
;TARGET_MACHINE.NAME:Unknown
;Generated with Cura_SteamEngine 5.10.0
M104 S205
M105
M109 S205
G28 ;Home
G1 Z15.0 F6000 ;Move the platform down 15mm
;Prime the extruder
G92 E0
G1 F200 E3
G92 E0
M82 ;absolute extrusion mode
G92 E0
G92 E0
G1 F1500 E-6.5
;LAYER_COUNT:10
;LAYER:0
M107
G0 F3600 X121.858 Y97.549 Z0.3
;TYPE:SKIRT
G1 F1500 E0
G1 F2400 X122.284 Y97.084 E0.02989
G1 X122.779 Y96.691 E0.05985
G1 X123.325 Y96.382 E0.08958
G1 X123.857 Y96.18 E0.11655
G1 X124.516 Y96.04 E0.14848
G1 X124.961 Y96.003 E0.16965
G1 X144.353 Y96 E1.08874
G1 X145.061 Y96.012 E1.1223
G1 X145.72 Y96.084 E1.15372
G1 X146.269 Y96.23 E1.18065
G1 X146.79 Y96.452 E1.20749
G1 X147.43 Y96.862 E1.24351
G1 X147.894 Y97.288 E1.27337
G1 X148.249 Y97.73 E1.30024
G1 X148.596 Y98.335 E1.33329
G1 X148.815 Y98.929 E1.3633
G1 X148.937 Y99.548 E1.3932
G1 X148.963 Y100.116 E1.42015
G1 X148.908 Y100.679 E1.44696
G1 X148.709 Y101.414 E1.48305
G1 X148.442 Y101.985 E1.51293
G1 X148.036 Y102.585 E1.54726
G1 X145.916 Y104.845 E1.69413
G1 X144.07 Y106.931 E1.82615
G1 X142.382 Y108.951 E1.95092
G1 X140.672 Y111.118 E2.08175
G1 X139.067 Y113.276 E2.20922
G1 X137.504 Y115.506 E2.33828
G1 X135.998 Y117.786 E2.46779
G1 X134.559 Y120.109 E2.5973
G1 X133.411 Y122.065 E2.7048
G1 X133.082 Y122.528 E2.73172
G1 X132.598 Y123.026 E2.76463
G1 X132.194 Y123.33 E2.7886
G1 X131.523 Y123.685 E2.82457
G1 X130.977 Y123.872 E2.85193
G1 X130.008 Y124 E2.89825
G1 X125.656 Y124 E3.10452
G1 X124.924 Y123.989 E3.13922
G1 X124.262 Y123.919 E3.17077
G1 X123.653 Y123.752 E3.2007
G1 X123.078 Y123.491 E3.23063
G1 X122.551 Y123.144 E3.26053
G1 X122.085 Y122.717 E3.29049
G1 X121.692 Y122.222 E3.32044
G1 X121.382 Y121.673 E3.35033
G1 X121.163 Y121.081 E3.38024
G1 X121.04 Y120.486 E3.40904
G1 X121.003 Y120.033 E3.43058
G1 X121 Y100.621 E4.35063
G1 X121.011 Y99.921 E4.38381
G1 X121.082 Y99.259 E4.41536
G1 X121.249 Y98.652 E4.4452
G1 X121.509 Y98.077 E4.47511
G1 X121.858 Y97.549 E4.50511
G0 F3600 X122.155 Y97.817
G1 F2400 X121.845 Y98.295 E4.53211
G1 X121.615 Y98.814 E4.55902
G1 X121.469 Y99.362 E4.5859
G1 X121.409 Y99.961 E4.61443
G1 X121.4 Y100.626 E4.64595
G1 X121.402 Y120 E5.56419
G1 X121.439 Y120.453 E5.58573
G1 X121.554 Y120.999 E5.61218
G1 X121.756 Y121.531 E5.63915
G1 X122.039 Y122.023 E5.66605
G1 X122.396 Y122.466 E5.69302
G1 X122.819 Y122.847 E5.72
G1 X123.295 Y123.155 E5.74687
G1 X123.815 Y123.386 E5.77384
G1 X124.365 Y123.532 E5.80081
G1 X124.963 Y123.591 E5.82929
G1 X125.661 Y123.6 E5.86237
G1 X130.008 Y123.6 E6.0684
G1 X130.882 Y123.481 E6.11021
G1 X131.394 Y123.306 E6.13585
G1 X131.953 Y123.01 E6.16583
G1 X132.357 Y122.706 E6.1898
G1 X132.794 Y122.251 E6.2197
G1 X133.083 Y121.836 E6.24367
G1 X134.219 Y119.898 E6.35014
G1 X135.664 Y117.566 E6.48016
G1 X137.176 Y115.276 E6.61022
G1 X138.739 Y113.046 E6.73929
G1 X140.358 Y110.87 E6.86784
G1 X142.068 Y108.703 E6.99867
G1 X143.77 Y106.666 E7.12448
G1 X145.624 Y104.571 E7.25707
G1 X147.744 Y102.311 E7.40394
G1 X148.109 Y101.763 E7.43514
G1 X148.346 Y101.247 E7.46206
G1 X148.51 Y100.637 E7.492
G1 X148.563 Y100.134 E7.51597
G1 X148.537 Y99.566 E7.54292
G1 X148.423 Y99.009 E7.56986
G1 X148.222 Y98.476 E7.59686
G1 X147.904 Y97.932 E7.62673
G1 X147.584 Y97.541 E7.65067
G1 X147.162 Y97.159 E7.67765
G1 X146.63 Y96.819 E7.70758
G1 X146.166 Y96.617 E7.73156
G1 X145.617 Y96.471 E7.75849
G1 X145.02 Y96.41 E7.78693
G1 X144.347 Y96.4 E7.81883
G1 X124.994 Y96.402 E8.73608
G1 X124.549 Y96.439 E8.75724
G1 X123.942 Y96.571 E8.78668
G1 X123.471 Y96.755 E8.81065
G1 X122.978 Y97.038 E8.83759
G1 X122.535 Y97.395 E8.86456
G1 X122.155 Y97.817 E8.89147
G0 F3600 X122.454 Y98.082
G1 F2400 X122.789 Y97.704 E8.91541
G1 X123.18 Y97.383 E8.93939
G1 X123.617 Y97.128 E8.96337
G1 X124.088 Y96.944 E8.98733
G1 X124.582 Y96.838 E9.01128
G1 X125.027 Y96.801 E9.03244
G1 X144.341 Y96.8 E9.94785
G1 X145.014 Y96.81 E9.97975
G1 X145.517 Y96.858 E10.00369
G1 X146.006 Y96.984 E10.02763
G1 X146.47 Y97.186 E10.05161
G1 X146.896 Y97.458 E10.07557
G1 X147.274 Y97.794 E10.09954
G1 X147.594 Y98.185 E10.12349
G1 X147.849 Y98.621 E10.14742
G1 X148.032 Y99.093 E10.17142
G1 X148.138 Y99.587 E10.19536
G1 X148.165 Y100.092 E10.21933
G1 X148.112 Y100.595 E10.24331
G1 X147.981 Y101.083 E10.26725
G1 X147.774 Y101.544 E10.2912
G1 X147.452 Y102.037 E10.31911
G1 X145.332 Y104.297 E10.46598
G1 X143.47 Y106.401 E10.59914
G1 X141.761 Y108.446 E10.72546
G1 X140.044 Y110.622 E10.85683
G1 X138.411 Y112.816 E10.98646
G1 X136.848 Y115.046 E11.11552
G1 X135.33 Y117.346 E11.24614
G1 X133.879 Y119.687 E11.37667
G1 X132.755 Y121.607 E11.48212
G1 X132.466 Y122.022 E11.50609
G1 X132.116 Y122.386 E11.53002
G1 X131.712 Y122.69 E11.55399
G1 X131.265 Y122.927 E11.57797
G1 X130.787 Y123.09 E11.6019
G1 X130.008 Y123.2 E11.63919
G1 X125.666 Y123.2 E11.84498
G1 X124.968 Y123.191 E11.87807
G1 X124.464 Y123.144 E11.90206
G1 X123.974 Y123.019 E11.92603
G1 X123.51 Y122.818 E11.94999
G1 X123.084 Y122.547 E11.97392
G1 X122.705 Y122.212 E11.9979
G1 X122.384 Y121.821 E12.02187
G1 X122.129 Y121.385 E12.04581
G1 X121.945 Y120.914 E12.06978
G1 X121.838 Y120.42 E12.09373
G1 X121.801 Y119.967 E12.11528
G1 X121.8 Y100.631 E13.03172
G1 X121.809 Y99.966 E13.06324
G1 X121.856 Y99.462 E13.08723
G1 X121.982 Y98.973 E13.11116
G1 X122.183 Y98.509 E13.13513
G1 X122.454 Y98.082 E13.1591
G1 F1500 E6.6591
;MESH:axis_test_arrow.stl
G0 F3600 X124.335 Y100.424
G0 X125.424 Y100.424
G0 X135.91 Y104.789
G0 X135.563 Y104.789
;TYPE:WALL-INNER
G1 F1500 E13.1591
G1 F2400 X135.6 Y105 E13.16925
G1 X135.601 Y108.546 E13.33732
G1 X143.548 Y100.6 E13.86995
G1 X125.6 Y100.6 E14.72061
G1 X125.6 Y119.4 E15.61165
G1 X129.4 Y119.4 E15.79175
G1 X129.4 Y104.888 E16.47956
G1 X129.484 Y104.692 E16.48967
G1 X129.692 Y104.484 E16.50361
G1 X130 Y104.4 E16.51874
G1 X135 Y104.4 E16.75572
G1 X135.193 Y104.431 E16.76498
G1 X135.358 Y104.518 E16.77382
G1 X135.563 Y104.789 E16.78993
G0 F3600 X135.2 Y105
;TYPE:WALL-OUTER
G1 F2400 X135.201 Y109.511 E17.00373
G1 X144.513 Y100.2 E17.62786
G1 X125.2 Y100.2 E18.54321
G1 X125.2 Y119.8 E19.47217
G1 X129.8 Y119.8 E19.69019
G1 X129.8 Y104.961 E20.39349
G1 X129.961 Y104.8 E20.40428
G1 X135.051 Y104.8 E20.64553
G1 X135.16 Y104.878 E20.65188
G1 X135.2 Y105 E20.65797
G0 F3600 X135.2 Y105.2
G0 X135.925 Y104.687
;TYPE:SKIN
G1 F2400 X135.776 Y104.403 E20.67317
G1 X135.612 Y104.232 E20.6844
G1 X135.339 Y104.081 E20.69918
G1 X135.028 Y104.022 E20.71419
G1 X129.973 Y104.021 E20.95377
G1 X129.753 Y104.05 E20.96429
G1 X129.458 Y104.186 E20.97968
G1 X129.186 Y104.458 E20.99792
G1 X129.063 Y104.709 E21.01116
G1 X129.021 Y104.973 E21.02383
G1 X129.02 Y119.02 E21.6896
G1 X125.98 Y119.02 E21.83368
G1 X125.98 Y100.98 E22.6887
G1 X142.625 Y100.981 E23.4776
G1 X135.981 Y107.627 E23.923
G1 X135.977 Y104.967 E24.04907
G1 X135.925 Y104.687 E24.06257
G0 F3600 X142.027 Y101.298
G1 F2400 X141.91 Y101.181 E24.07041
G0 F3600 X141.745 Y101.581
G1 F2400 X141.344 Y101.181 E24.09726
G0 F3600 X140.779 Y101.181
G1 F2400 X141.462 Y101.864 E24.14304
G0 F3600 X141.179 Y102.147
G1 F2400 X140.213 Y101.181 E24.20779
G0 F3600 X139.647 Y101.181
G1 F2400 X140.896 Y102.429 E24.29147
G0 F3600 X140.613 Y102.712
G1 F2400 X139.082 Y101.181 E24.39409
G0 F3600 X138.516 Y101.181
G1 F2400 X140.33 Y102.995 E24.51568
G0 F3600 X140.047 Y103.278
G1 F2400 X137.95 Y101.181 E24.65624
G0 F3600 X137.384 Y101.181
G1 F2400 X139.765 Y103.561 E24.8158
G0 F3600 X139.482 Y103.844
G1 F2400 X136.819 Y101.181 E24.99429
G0 F3600 X136.253 Y101.181
G1 F2400 X139.199 Y104.126 E25.19172
G0 F3600 X138.916 Y104.409
G1 F2400 X135.687 Y101.181 E25.40812
G0 F3600 X135.122 Y101.181
G1 F2400 X138.633 Y104.692 E25.64345
G0 F3600 X138.35 Y104.975
G1 F2400 X134.556 Y101.181 E25.89776
G0 F3600 X133.99 Y101.181
G1 F2400 X138.068 Y105.258 E26.17106
G0 F3600 X137.785 Y105.541
G1 F2400 X133.425 Y101.181 E26.4633
G0 F3600 X132.859 Y101.181
G1 F2400 X137.502 Y105.823 E26.77448
G0 F3600 X137.219 Y106.106
G1 F2400 X136.18 Y105.068 E26.84408
G0 F3600 X136.18 Y105.633
G1 F2400 X136.936 Y106.389 E26.89476
G0 F3600 X136.653 Y106.672
G1 F2400 X136.18 Y106.199 E26.92646
G0 F3600 X136.18 Y106.765
G1 F2400 X136.37 Y106.955 E26.9392
G0 F3600 X135.838 Y104.162
G0 X134.936 Y103.824
G1 F2400 X132.293 Y101.181 E27.11635
G0 F3600 X131.728 Y101.181
G1 F2400 X134.371 Y103.824 E27.29351
G0 F3600 X133.805 Y103.824
G1 F2400 X131.162 Y101.181 E27.47066
G0 F3600 X130.596 Y101.181
G1 F2400 X133.239 Y103.824 E27.64781
G0 F3600 X132.674 Y103.824
G1 F2400 X130.031 Y101.181 E27.82497
G0 F3600 X129.465 Y101.181
G1 F2400 X132.107 Y103.823 E28.00205
G0 F3600 X131.542 Y103.823
G1 F2400 X128.899 Y101.181 E28.17917
G0 F3600 X128.334 Y101.181
G1 F2400 X130.976 Y103.823 E28.35626
G0 F3600 X130.41 Y103.823
G1 F2400 X127.768 Y101.181 E28.53335
G0 F3600 X127.202 Y101.181
G1 F2400 X129.856 Y103.834 E28.71121
G0 F3600 X129.428 Y103.972
G1 F2400 X126.636 Y101.181 E28.89831
G0 F3600 X126.18 Y101.29
G1 F2400 X129.13 Y104.24 E29.09605
G0 F3600 X128.906 Y104.582
G1 F2400 X126.18 Y101.855 E29.2788
G0 F3600 X126.18 Y102.421
G1 F2400 X128.823 Y105.064 E29.45595
G0 F3600 X128.823 Y105.63
G1 F2400 X126.18 Y102.987 E29.6331
G0 F3600 X126.18 Y103.552
G1 F2400 X128.823 Y106.195 E29.81026
G0 F3600 X128.823 Y106.761
G1 F2400 X126.18 Y104.118 E29.98741
G0 F3600 X126.18 Y104.684
G1 F2400 X128.823 Y107.327 E30.16457
G0 F3600 X128.823 Y107.892
G1 F2400 X126.18 Y105.249 E30.34172
G0 F3600 X126.18 Y105.815
G1 F2400 X128.822 Y108.457 E30.51881
G0 F3600 X128.822 Y109.023
G1 F2400 X126.18 Y106.381 E30.69589
G0 F3600 X126.18 Y106.946
G1 F2400 X128.822 Y109.589 E30.87302
G0 F3600 X128.822 Y110.155
G1 F2400 X126.18 Y107.512 E31.05014
G0 F3600 X126.18 Y108.078
G1 F2400 X128.822 Y110.72 E31.22722
G0 F3600 X128.822 Y111.286
G1 F2400 X126.18 Y108.643 E31.40434
G0 F3600 X126.18 Y109.209
G1 F2400 X128.822 Y111.852 E31.58146
G0 F3600 X128.821 Y112.417
G1 F2400 X126.18 Y109.775 E31.75852
G0 F3600 X126.18 Y110.34
G1 F2400 X128.821 Y112.982 E31.93557
G0 F3600 X128.821 Y113.548
G1 F2400 X126.18 Y110.906 E32.11262
G0 F3600 X126.18 Y111.472
G1 F2400 X128.821 Y114.114 E32.28968
G0 F3600 X128.821 Y114.679
G1 F2400 X126.18 Y112.038 E32.4667
G0 F3600 X126.18 Y112.603
M104 S200
G1 F2400 X128.821 Y115.245 E32.64375
G0 F3600 X128.821 Y115.81
G1 F2400 X126.18 Y113.169 E32.82077
G0 F3600 X126.18 Y113.735
G1 F2400 X128.821 Y116.376 E32.99779
G0 F3600 X128.821 Y116.941
G1 F2400 X126.18 Y114.3 E33.17481
G0 F3600 X126.18 Y114.866
G1 F2400 X128.821 Y117.507 E33.35183
G0 F3600 X128.821 Y118.073
G1 F2400 X126.18 Y115.432 E33.52885
G0 F3600 X126.18 Y115.997
G1 F2400 X128.821 Y118.638 E33.70587
G0 F3600 X128.437 Y118.82
G1 F2400 X126.18 Y116.563 E33.85715
G0 F3600 X126.18 Y117.129
G1 F2400 X127.871 Y118.82 E33.9705
G0 F3600 X127.305 Y118.82
G1 F2400 X126.18 Y117.694 E34.04594
G0 F3600 X126.18 Y118.26
G1 F2400 X126.74 Y118.82 E34.08347
G0 F3600 X126.74 Y118.79
G1 F1500 E27.58347
;MESH:NONMESH
G0 F600 X126.74 Y118.79 Z0.6
G0 F3600 X125.424 Y100.424
G0 X124.335 Y100.424
G0 X122.454 Y98.082
;TIME_ELAPSED:25.670614
;LAYER:1
M106 S255
;TYPE:SKIRT
G1 F1500 E34.08347
G1 F2400 X122.789 Y97.704 E34.10741
G1 X123.18 Y97.383 E34.13139
G1 X123.617 Y97.128 E34.15537
G1 X124.088 Y96.944 E34.17933
G1 X124.582 Y96.838 E34.20328
G1 X125.027 Y96.801 E34.22444
G1 X144.341 Y96.8 E35.13984
G1 X145.014 Y96.81 E35.17174
G1 X145.517 Y96.858 E35.19569
G1 X146.006 Y96.984 E35.21963
G1 X146.47 Y97.186 E35.24361
G1 X146.896 Y97.458 E35.26757
G1 X147.274 Y97.794 E35.29154
G1 X147.594 Y98.185 E35.31548
G1 X147.849 Y98.621 E35.33942
G1 X148.032 Y99.093 E35.36342
G1 X148.138 Y99.587 E35.38736
G1 X148.165 Y100.092 E35.41133
G1 X148.112 Y100.595 E35.4353
G1 X147.981 Y101.083 E35.45925
G1 X147.774 Y101.544 E35.4832
G1 X147.452 Y102.037 E35.51111
G1 X145.332 Y104.297 E35.65798
G1 X143.47 Y106.401 E35.79114
G1 X141.761 Y108.446 E35.91745
G1 X140.044 Y110.622 E36.04883
G1 X138.411 Y112.816 E36.17846
G1 X136.848 Y115.046 E36.30752
G1 X135.33 Y117.346 E36.43814
G1 X133.879 Y119.687 E36.56867
G1 X132.755 Y121.607 E36.67412
G1 X132.466 Y122.022 E36.69809
G1 X132.116 Y122.386 E36.72202
G1 X131.712 Y122.69 E36.74599
G1 X131.265 Y122.927 E36.76996
G1 X130.787 Y123.09 E36.7939
G1 X130.008 Y123.2 E36.83119
G1 X125.666 Y123.2 E37.03698
G1 X124.968 Y123.191 E37.07007
G1 X124.464 Y123.144 E37.09406
G1 X123.974 Y123.019 E37.11802
G1 X123.51 Y122.818 E37.14199
G1 X123.084 Y122.547 E37.16592
G1 X122.705 Y122.212 E37.18989
G1 X122.384 Y121.821 E37.21387
G1 X122.129 Y121.385 E37.23781
G1 X121.945 Y120.914 E37.26178
G1 X121.838 Y120.42 E37.28573
G1 X121.801 Y119.967 E37.30728
G1 X121.8 Y100.631 E38.22372
G1 X121.809 Y99.966 E38.25524
G1 X121.856 Y99.462 E38.27923
G1 X121.982 Y98.973 E38.30316
G1 X122.183 Y98.509 E38.32713
G1 X122.454 Y98.082 E38.3511
G1 F1500 E31.8511
;MESH:axis_test_arrow.stl
G0 F5400 X124.335 Y100.424
G0 X125.424 Y100.424
G0 X135.91 Y104.789
G0 X135.563 Y104.789
;TYPE:WALL-INNER
G1 F1500 E38.3511
G1 F3600 X135.6 Y105 E38.36125
G1 X135.601 Y108.546 E38.52932
G1 X143.548 Y100.6 E39.06195
G1 X125.6 Y100.6 E39.91261
G1 X125.6 Y119.4 E40.80365
G1 X129.4 Y119.4 E40.98375
G1 X129.4 Y104.888 E41.67156
G1 X129.484 Y104.692 E41.68167
G1 X129.692 Y104.484 E41.69561
G1 X130 Y104.4 E41.71074
G1 X135 Y104.4 E41.94772
G1 X135.193 Y104.431 E41.95698
G1 X135.358 Y104.518 E41.96582
G1 X135.563 Y104.789 E41.98193
G0 F5400 X135.2 Y105
;TYPE:WALL-OUTER
G1 F2400 X135.201 Y109.511 E42.19573
G1 X144.513 Y100.2 E42.81986
G1 X125.2 Y100.2 E43.73521
G1 X125.2 Y119.8 E44.66417
G1 X129.8 Y119.8 E44.88219
G1 X129.8 Y104.961 E45.58549
G1 X129.961 Y104.8 E45.59628
G1 X135.051 Y104.8 E45.83753
G1 X135.16 Y104.878 E45.84388
G1 X135.2 Y105 E45.84997
G0 F5400 X135.2 Y105.2
G0 X135.925 Y104.687
;TYPE:SKIN
G1 F2400 X135.776 Y104.403 E45.86517
G1 X135.612 Y104.232 E45.8764
G1 X135.339 Y104.081 E45.89118
G1 X135.028 Y104.022 E45.90618
G1 X129.973 Y104.021 E46.14577
G1 X129.753 Y104.05 E46.15629
G1 X129.458 Y104.186 E46.17168
G1 X129.186 Y104.458 E46.18991
G1 X129.063 Y104.709 E46.20316
G1 X129.021 Y104.973 E46.21583
G1 X129.02 Y119.02 E46.8816
G1 X125.98 Y119.02 E47.02568
G1 X125.98 Y100.98 E47.8807
G1 X142.625 Y100.981 E48.6696
G1 X135.981 Y107.627 E49.115
G1 X135.977 Y104.967 E49.24107
G1 X135.925 Y104.687 E49.25457
G0 F5400 X126.18 Y101.791
G1 F2400 X126.791 Y101.18 E49.29552
G0 F5400 X127.357 Y101.18
G1 F2400 X126.18 Y102.357 E49.37442
G0 F5400 X126.18 Y102.922
G1 F2400 X127.923 Y101.18 E49.49121
G0 F5400 X128.488 Y101.18
G1 F2400 X126.18 Y103.488 E49.64591
G0 F5400 X126.18 Y104.054
G1 F2400 X129.054 Y101.18 E49.83855
G0 F5400 X129.62 Y101.18
G1 F2400 X126.18 Y104.619 E50.06909
G0 F5400 X126.18 Y105.185
G1 F2400 X130.185 Y101.18 E50.33754
G0 F5400 X130.751 Y101.18
G1 F2400 X126.18 Y105.751 E50.64392
G0 F5400 X126.18 Y106.316
G1 F2400 X131.317 Y101.18 E50.98821
G0 F5400 X131.882 Y101.18
G1 F2400 X126.18 Y106.882 E51.3704
G0 F5400 X126.18 Y107.448
G1 F2400 X128.853 Y104.775 E51.54956
G0 F5400 X128.822 Y105.372
G1 F2400 X126.18 Y108.013 E51.72662
G0 F5400 X126.18 Y108.579
G1 F2400 X128.822 Y105.937 E51.9037
G0 F5400 X128.822 Y106.503
G1 F2400 X126.18 Y109.145 E52.08079
G0 F5400 X126.18 Y109.71
G1 F2400 X128.822 Y107.069 E52.25784
G0 F5400 X128.822 Y107.634
G1 F2400 X126.18 Y110.276 E52.43493
G0 F5400 X126.18 Y110.842
G1 F2400 X128.822 Y108.2 E52.61202
G0 F5400 X128.821 Y108.766
G1 F2400 X126.18 Y111.408 E52.78907
G0 F5400 X126.18 Y111.973
G1 F2400 X128.821 Y109.332 E52.96609
G0 F5400 X128.821 Y109.898
G1 F2400 X126.18 Y112.539 E53.14311
G0 F5400 X126.18 Y113.105
G1 F2400 X128.821 Y110.464 E53.32013
G0 F5400 X128.821 Y111.029
G1 F2400 X126.18 Y113.67 E53.49715
G0 F5400 X126.18 Y114.236
G1 F2400 X128.821 Y111.595 E53.67417
G0 F5400 X128.821 Y112.161
G1 F2400 X126.18 Y114.802 E53.85119
G0 F5400 X126.18 Y115.367
G1 F2400 X128.821 Y112.727 E54.02818
G0 F5400 X128.821 Y113.293
G1 F2400 X126.18 Y115.933 E54.20516
G0 F5400 X126.18 Y116.499
G1 F2400 X128.821 Y113.858 E54.38218
G0 F5400 X128.821 Y114.424
G1 F2400 X126.18 Y117.064 E54.55917
