;FLAVOR:Marlin
;TIME:3243
;Filament used: 4.03655m
;Layer height: 0.2
;MINX:53.765
;MINY:52.773
;MINZ:0.3
;MAXX:161.796
;MAXY:160.788
;MAXZ:5.9
;TARGET_MACHINE.NAME:Unknown
;Generated with Cura_SteamEngine 5.10.0
M104 S200
M105
M109 S200
G28 ;Home
G1 Z15.0 F6000 ;Move the platform down 15mm
;Prime the extruder
G92 E0
G1 F200 E3
G92 E0
M82 ;absolute extrusion mode
G92 E0
G92 E0
G1 F1500 E-6.5
;LAYER_COUNT:29
;LAYER:0
M107
G0 F3600 X62.829 Y63.492 Z0.3
;TYPE:SKIRT
G1 F1500 E0
G1 F2250 X64.088 Y62.221 E0.08925
G1 X65.334 Y61.068 E0.17395
G1 X66.492 Y60.103 E0.24915
G1 X67.974 Y58.992 E0.34156
G1 X69.378 Y58.049 E0.42594
G1 X70.804 Y57.192 E0.50894
G1 X72.294 Y56.386 E0.59346
G1 X73.813 Y55.669 E0.67726
G1 X75.341 Y55.037 E0.75975
G1 X76.905 Y54.476 E0.84265
G1 X78.546 Y53.969 E0.92834
G1 X79.806 Y53.648 E0.99321
G1 X81.827 Y53.244 E1.09603
G1 X83.235 Y53.031 E1.16707
G1 X85.219 Y52.837 E1.26653
G1 X86.854 Y52.773 E1.34816
G1 X88.536 Y52.774 E1.43208
G1 X89.838 Y52.838 E1.49711
G1 X91.895 Y53.047 E1.60026
G1 X93.242 Y53.251 E1.66823
G1 X95.145 Y53.637 E1.76511
G1 X96.565 Y54.001 E1.83824
G1 X98.353 Y54.556 E1.93164
G1 X99.898 Y55.124 E2.01377
G1 X101.445 Y55.783 E2.09766
G1 X103.052 Y56.567 E2.18687
G1 X104.411 Y57.309 E2.26411
G1 X105.948 Y58.256 E2.35418
G1 X107.33 Y59.208 E2.43791
G1 X108.665 Y60.229 E2.52175
G1 X109.964 Y61.338 E2.60697
G1 X111.19 Y62.477 E2.69046
G1 X112.23 Y63.549 E2.76497
G1 X113.462 Y64.966 E2.85865
G1 X114.519 Y66.303 E2.94368
G1 X115.431 Y67.583 E3.02209
G1 X116.397 Y69.086 E3.11123
G1 X117.178 Y70.451 E3.18969
G1 X117.879 Y71.83 E3.26686
G1 X118.664 Y73.59 E3.36301
G1 X119.268 Y75.15 E3.44647
G1 X119.774 Y76.682 E3.52696
G1 X120.223 Y78.306 E3.61102
G1 X120.601 Y80.01 E3.6981
G1 X120.886 Y81.682 E3.78272
G1 X121.087 Y83.361 E3.86708
G1 X121.202 Y85.033 E3.9507
G1 X121.235 Y86.725 E4.03513
G1 X121.182 Y88.394 E4.11844
G1 X121.047 Y90.08 E4.20282
G1 X120.828 Y91.724 E4.28557
G1 X120.555 Y93.261 E4.36345
G1 X120.332 Y94.217 E4.41242
G1 X122.436 Y93.798 E4.51945
G1 X124.093 Y93.566 E4.60293
G1 X125.733 Y93.413 E4.6851
G1 X127.333 Y93.333 E4.76503
G1 X128.978 Y93.346 E4.8471
G1 X130.792 Y93.437 E4.93771
G1 X132.246 Y93.586 E5.01063
G1 X134.055 Y93.86 E5.10191
G1 X135.65 Y94.192 E5.18319
G1 X137.392 Y94.646 E5.27301
G1 X138.912 Y95.118 E5.35241
G1 X140.498 Y95.701 E5.43671
G1 X142.099 Y96.387 E5.52361
G1 X143.596 Y97.119 E5.60675
G1 X145.01 Y97.891 E5.68712
G1 X146.548 Y98.839 E5.77726
G1 X147.799 Y99.7 E5.85302
G1 X149.243 Y100.799 E5.94356
G1 X150.241 Y101.635 E6.00851
G1 X151.765 Y103.052 E6.11233
G1 X152.745 Y104.061 E6.1825
G1 X154.029 Y105.53 E6.27984
G1 X155.082 Y106.867 E6.36475
G1 X155.982 Y108.131 E6.44216
G1 X156.954 Y109.645 E6.53192
G1 X157.746 Y111.028 E6.61143
G1 X158.457 Y112.426 E6.68968
G1 X159.226 Y114.15 E6.78386
G1 X159.829 Y115.706 E6.86712
G1 X160.327 Y117.208 E6.94606
G1 X160.78 Y118.85 E7.03104
G1 X161.162 Y120.575 E7.11919
G1 X161.446 Y122.242 E7.20355
G1 X161.647 Y123.913 E7.28752
G1 X161.764 Y125.595 E7.37164
G1 X161.796 Y127.28 E7.45572
G1 X161.744 Y128.969 E7.54002
G1 X161.607 Y130.637 E7.62352
G1 X161.389 Y132.277 E7.70606
G1 X161.092 Y133.95 E7.79083
G1 X160.756 Y135.389 E7.86455
G1 X160.234 Y137.194 E7.9583
G1 X159.686 Y138.809 E8.04338
G1 X159.149 Y140.161 E8.11596
G1 X158.378 Y141.86 E8.20904
G1 X157.666 Y143.241 E8.28656
G1 X156.735 Y144.833 E8.37857
G1 X155.859 Y146.182 E8.45881
G1 X155.004 Y147.371 E8.53188
G1 X153.816 Y148.853 E8.62664
G1 X152.831 Y149.967 E8.70083
G1 X151.466 Y151.352 E8.79784
G1 X150.243 Y152.478 E8.88078
G1 X148.955 Y153.544 E8.96419
G1 X147.588 Y154.568 E9.04941
G1 X146.167 Y155.523 E9.13482
G1 X144.772 Y156.362 E9.21604
G1 X143.285 Y157.166 E9.30037
G1 X141.747 Y157.892 E9.38522
G1 X140.219 Y158.524 E9.46772
G1 X138.655 Y159.085 E9.55062
G1 X137.015 Y159.592 E9.63626
G1 X135.754 Y159.913 E9.70117
G1 X133.699 Y160.322 E9.80571
G1 X132.057 Y160.556 E9.88846
G1 X130.34 Y160.724 E9.97453
G1 X128.667 Y160.788 E10.05805
G1 X127.024 Y160.77 E10.14003
G1 X125.343 Y160.685 E10.224
G1 X123.666 Y160.515 E10.3081
G1 X122.338 Y160.314 E10.37511
G1 X120.397 Y159.92 E10.47392
G1 X119.016 Y159.566 E10.54504
G1 X117.189 Y158.999 E10.64048
G1 X115.682 Y158.445 E10.72058
G1 X114.095 Y157.769 E10.80664
G1 X112.525 Y157.003 E10.8938
G1 X111.075 Y156.211 E10.97623
G1 X109.675 Y155.348 E11.05828
G1 X108.211 Y154.338 E11.14701
G1 X106.916 Y153.345 E11.22843
G1 X105.596 Y152.221 E11.31492
G1 X104.354 Y151.068 E11.39947
G1 X103.376 Y150.06 E11.46954
G1 X102.078 Y148.575 E11.56794
G1 X101.038 Y147.254 E11.65182
G1 X100.135 Y145.986 E11.72948
G1 X99.166 Y144.471 E11.8192
G1 X98.334 Y143.016 E11.90282
G1 X97.69 Y141.749 E11.97373
G1 X96.899 Y139.976 E12.07059
G1 X96.294 Y138.416 E12.15407
G1 X95.793 Y136.905 E12.23349
G1 X95.337 Y135.254 E12.31894
G1 X94.959 Y133.55 E12.40602
G1 X94.674 Y131.875 E12.49078
G1 X94.474 Y130.2 E12.57494
G1 X94.359 Y128.532 E12.65836
G1 X94.325 Y126.831 E12.74324
G1 X94.379 Y125.163 E12.8265
G1 X94.514 Y123.495 E12.90999
G1 X94.717 Y121.913 E12.98956
G1 X95.038 Y120.167 E13.07813
G1 X95.23 Y119.344 E13.12029
G1 X93.133 Y119.763 E13.22698
G1 X91.502 Y119.995 E13.30917
G1 X89.797 Y120.163 E13.39464
G1 X88.201 Y120.227 E13.47433
G1 X86.464 Y120.209 E13.561
G1 X84.781 Y120.124 E13.64507
G1 X83.105 Y119.954 E13.72911
G1 X81.778 Y119.753 E13.79607
G1 X79.836 Y119.359 E13.89493
G1 X78.455 Y119.005 E13.96606
G1 X76.634 Y118.44 E14.06118
G1 X75.066 Y117.864 E14.14452
G1 X73.569 Y117.226 E14.22571
G1 X71.943 Y116.433 E14.31596
G1 X70.518 Y115.65 E14.39708
G1 X69.113 Y114.781 E14.4795
G1 X67.64 Y113.768 E14.56869
G1 X66.384 Y112.81 E14.6475
G1 X65.035 Y111.66 E14.73594
G1 X63.796 Y110.507 E14.82038
G1 X62.802 Y109.484 E14.89154
G1 X61.533 Y108.033 E14.98771
G1 X60.491 Y106.711 E15.07169
G1 X59.519 Y105.342 E15.15545
G1 X58.602 Y103.919 E15.23991
G1 X57.902 Y102.7 E15.31004
G1 X57.055 Y101.034 E15.40328
G1 X56.36 Y99.474 E15.48849
G1 X55.73 Y97.837 E15.57599
G1 X55.208 Y96.241 E15.65977
G1 X54.774 Y94.672 E15.74099
G1 X54.396 Y92.967 E15.82812
G1 X54.115 Y91.32 E15.91147
G1 X53.913 Y89.641 E15.99584
G1 X53.797 Y87.964 E16.07971
G1 X53.765 Y86.281 E16.16369
G1 X53.817 Y84.6 E16.24759
G1 X53.949 Y82.956 E16.32988
G1 X54.172 Y81.284 E16.41403
G1 X54.469 Y79.611 E16.4988
G1 X54.805 Y78.172 E16.57253
G1 X55.327 Y76.367 E16.66627
G1 X55.854 Y74.811 E16.74823
G1 X56.461 Y73.29 E16.82993
G1 X57.17 Y71.733 E16.91529
G1 X57.955 Y70.21 E17.00077
G1 X58.782 Y68.794 E17.08258
G1 X59.693 Y67.4 E17.16566
G1 X60.738 Y65.963 E17.2543
G1 X61.741 Y64.718 E17.33407
G1 X62.829 Y63.492 E17.41584
G0 F3600 X63.128 Y63.758
G1 F2250 X64.36 Y62.514 E17.50319
G1 X65.59 Y61.375 E17.58683
G1 X66.732 Y60.423 E17.661
G1 X68.197 Y59.324 E17.75237
G1 X69.584 Y58.392 E17.83574
G1 X70.994 Y57.544 E17.91783
G1 X72.465 Y56.748 E18.00127
G1 X73.966 Y56.039 E18.08409
G1 X75.476 Y55.414 E18.16562
G1 X77.04 Y54.853 E18.24852
G1 X78.645 Y54.357 E18.33233
G1 X79.905 Y54.036 E18.3972
G1 X81.887 Y53.64 E18.49804
G1 X83.295 Y53.427 E18.56908
G1 X85.235 Y53.237 E18.66633
G1 X86.854 Y53.173 E18.74717
G1 X88.516 Y53.174 E18.83008
G1 X89.818 Y53.238 E18.89512
G1 X91.835 Y53.442 E18.99626
G1 X93.162 Y53.643 E19.06322
G1 X95.065 Y54.029 E19.16009
G1 X96.446 Y54.383 E19.23122
G1 X98.234 Y54.938 E19.32462
G1 X99.741 Y55.492 E19.40473
G1 X101.288 Y56.151 E19.48862
G1 X102.86 Y56.918 E19.57588
G1 X104.201 Y57.65 E19.6521
G1 X105.738 Y58.597 E19.74217
G1 X107.087 Y59.526 E19.82389
G1 X108.405 Y60.533 E19.90664
G1 X109.692 Y61.631 E19.99104
G1 X110.903 Y62.756 E20.0735
G1 X111.943 Y63.828 E20.14802
G1 X113.148 Y65.214 E20.23965
G1 X114.193 Y66.535 E20.32368
G1 X115.105 Y67.815 E20.40209
G1 X116.05 Y69.285 E20.48928
G1 X116.821 Y70.632 E20.56671
G1 X117.522 Y72.011 E20.64389
G1 X118.291 Y73.734 E20.73802
G1 X118.888 Y75.276 E20.82051
G1 X119.388 Y76.789 E20.90001
G1 X119.832 Y78.393 E20.98305
G1 X120.21 Y80.097 E21.07013
G1 X120.489 Y81.73 E21.15278
G1 X120.688 Y83.389 E21.23614
G1 X120.802 Y85.041 E21.31875
G1 X120.835 Y86.712 E21.40214
G1 X120.783 Y88.362 E21.4845
G1 X120.65 Y90.027 E21.56783
G1 X120.434 Y91.654 E21.64971
G1 X120.165 Y93.17 E21.72653
G1 X119.788 Y94.783 E21.80917
G1 X120.83 Y94.525 E21.86272
G1 X122.492 Y94.194 E21.94727
G1 X124.13 Y93.964 E22.02979
G1 X125.753 Y93.813 E22.11111
G1 X127.353 Y93.733 E22.19104
G1 X128.958 Y93.745 E22.27111
G1 X130.751 Y93.835 E22.36068
G1 X132.205 Y93.984 E22.4336
G1 X133.973 Y94.252 E22.52281
G1 X135.568 Y94.584 E22.60409
G1 X137.273 Y95.028 E22.69199
G1 X138.793 Y95.5 E22.7714
G1 X140.34 Y96.069 E22.85363
G1 X141.941 Y96.755 E22.94053
G1 X143.404 Y97.47 E23.02177
G1 X144.818 Y98.242 E23.10214
G1 X146.321 Y99.169 E23.19024
G1 X147.572 Y100.03 E23.26601
G1 X148.986 Y101.106 E23.35466
G1 X149.984 Y101.942 E23.41961
G1 X151.478 Y103.331 E23.52138
G1 X152.458 Y104.34 E23.59156
G1 X153.715 Y105.777 E23.68681
G1 X154.756 Y107.099 E23.77076
G1 X155.645 Y108.347 E23.8472
G1 X156.607 Y109.844 E23.93598
G1 X157.389 Y111.209 E24.01446
G1 X158.1 Y112.607 E24.09271
G1 X158.853 Y114.295 E24.18492
G1 X159.449 Y115.832 E24.26717
G1 X159.941 Y117.315 E24.34512
G1 X160.389 Y118.936 E24.42902
G1 X160.771 Y120.661 E24.51717
G1 X161.049 Y122.29 E24.59962
G1 X161.248 Y123.941 E24.68258
G1 X161.364 Y125.603 E24.7657
G1 X161.396 Y127.268 E24.84878
G1 X161.345 Y128.936 E24.93204
G1 X161.21 Y130.584 E25.01453
G1 X160.995 Y132.207 E25.09621
G1 X160.702 Y133.859 E25.17992
G1 X160.366 Y135.298 E25.25364
G1 X159.855 Y137.066 E25.34546
G1 X159.314 Y138.661 E25.42948
G1 X158.777 Y140.013 E25.50206
G1 X158.022 Y141.677 E25.59322
G1 X157.31 Y143.058 E25.67074
G1 X156.399 Y144.615 E25.76074
G1 X155.534 Y145.948 E25.84002
G1 X154.679 Y147.137 E25.91308
G1 X153.516 Y148.588 E26.00586
G1 X152.546 Y149.686 E26.07895
G1 X151.195 Y151.058 E26.17501
G1 X149.988 Y152.17 E26.25689
G1 X148.715 Y153.224 E26.33935
G1 X147.365 Y154.236 E26.42352
G1 X145.961 Y155.18 E26.50793
G1 X144.582 Y156.01 E26.58823
G1 X143.114 Y156.804 E26.67149
G1 X141.594 Y157.522 E26.75536
G1 X140.084 Y158.147 E26.83689
G1 X138.52 Y158.708 E26.91979
G1 X136.916 Y159.204 E27.00355
G1 X135.655 Y159.525 E27.06847
G1 X133.642 Y159.926 E27.17087
G1 X132.018 Y160.158 E27.25271
G1 X130.325 Y160.324 E27.33758
G1 X128.671 Y160.388 E27.42016
G1 X127.044 Y160.371 E27.50134
G1 X125.383 Y160.287 E27.58431
G1 X123.726 Y160.12 E27.6674
G1 X122.418 Y159.922 E27.7334
G1 X120.477 Y159.528 E27.83221
G1 X119.135 Y159.184 E27.90133
G1 X117.308 Y158.617 E27.99677
G1 X115.839 Y158.077 E28.07485
G1 X114.252 Y157.401 E28.16091
G1 X112.717 Y156.652 E28.24612
G1 X111.285 Y155.87 E28.32752
G1 X109.885 Y155.007 E28.40957
G1 X108.454 Y154.02 E28.4963
G1 X107.175 Y153.04 E28.57669
G1 X105.868 Y151.928 E28.6623
G1 X104.641 Y150.789 E28.74583
G1 X103.663 Y149.781 E28.8159
G1 X102.392 Y148.327 E28.91224
G1 X101.364 Y147.022 E28.99513
G1 X100.472 Y145.77 E29.07182
G1 X99.513 Y144.272 E29.16056
G1 X98.691 Y142.835 E29.24315
G1 X98.047 Y141.568 E29.31406
G1 X97.272 Y139.831 E29.40895
G1 X96.674 Y138.29 E29.49142
G1 X96.179 Y136.798 E29.56984
G1 X95.728 Y135.167 E29.65427
G1 X95.35 Y133.463 E29.74135
G1 X95.071 Y131.828 E29.8241
G1 X94.873 Y130.172 E29.9073
G1 X94.759 Y128.524 E29.98972
G1 X94.725 Y126.844 E30.07355
G1 X94.778 Y125.195 E30.15586
G1 X94.911 Y123.546 E30.2384
G1 X95.114 Y121.964 E30.31797
G1 X95.427 Y120.258 E30.40451
G1 X95.773 Y118.778 E30.48034
G1 X94.733 Y119.036 E30.53379
G1 X93.077 Y119.367 E30.61805
G1 X91.463 Y119.597 E30.69938
G1 X89.781 Y119.763 E30.78371
G1 X88.205 Y119.827 E30.8624
G1 X86.484 Y119.81 E30.94826
G1 X84.821 Y119.726 E31.03134
G1 X83.165 Y119.559 E31.11437
G1 X81.858 Y119.361 E31.18032
G1 X79.916 Y118.967 E31.27918
G1 X78.574 Y118.623 E31.3483
G1 X76.753 Y118.058 E31.44342
G1 X75.223 Y117.496 E31.52474
G1 X73.744 Y116.866 E31.60495
G1 X72.136 Y116.082 E31.6942
G1 X70.711 Y115.299 E31.77532
G1 X69.34 Y114.451 E31.85574
G1 X67.883 Y113.45 E31.94393
G1 X66.627 Y112.492 E32.02274
G1 X65.307 Y111.367 E32.10927
G1 X64.083 Y110.228 E32.19269
G1 X63.089 Y109.205 E32.26385
G1 X61.847 Y107.785 E32.35797
G1 X60.817 Y106.479 E32.44095
G1 X59.855 Y105.125 E32.52381
G1 X58.949 Y103.72 E32.60722
G1 X58.259 Y102.519 E32.67632
G1 X57.412 Y100.853 E32.76957
G1 X56.733 Y99.33 E32.85276
G1 X56.11 Y97.713 E32.93921
G1 X55.594 Y96.134 E33.02209
G1 X55.16 Y94.565 E33.1033
G1 X54.79 Y92.9 E33.1884
G1 X54.512 Y91.272 E33.27079
G1 X54.312 Y89.613 E33.35416
G1 X54.197 Y87.956 E33.43703
G1 X54.165 Y86.293 E33.52001
G1 X54.216 Y84.632 E33.60292
G1 X54.348 Y82.988 E33.6852
G1 X54.566 Y81.354 E33.76744
G1 X54.859 Y79.702 E33.85115
G1 X55.195 Y78.263 E33.92487
G1 X55.706 Y76.495 E34.01669
G1 X56.233 Y74.939 E34.09865
G1 X56.825 Y73.456 E34.17831
G1 X57.526 Y71.916 E34.26273
G1 X58.311 Y70.393 E34.34821
G1 X59.117 Y69.013 E34.42794
G1 X60.028 Y67.619 E34.51102
G1 X61.05 Y66.214 E34.5977
G1 X62.04 Y64.984 E34.67648
G1 X63.128 Y63.758 E34.75825
G0 F3600 X63.427 Y64.024
G1 F2250 X64.632 Y62.807 E34.8437
G1 X65.846 Y61.682 E34.92627
G1 X66.972 Y60.743 E34.99942
G1 X68.42 Y59.656 E35.08975
G1 X69.79 Y58.735 E35.17211
G1 X71.184 Y57.896 E35.25328
G1 X72.636 Y57.11 E35.33565
G1 X74.119 Y56.409 E35.41749
G1 X75.611 Y55.791 E35.49806
G1 X77.175 Y55.23 E35.58095
G1 X78.744 Y54.745 E35.66289
G1 X80.004 Y54.424 E35.72776
G1 X81.947 Y54.036 E35.82661
G1 X83.355 Y53.823 E35.89765
G1 X85.251 Y53.637 E35.9927
G1 X86.854 Y53.573 E36.07273
G1 X88.496 Y53.574 E36.15465
G1 X89.798 Y53.638 E36.21969
G1 X91.775 Y53.837 E36.31882
G1 X93.082 Y54.035 E36.38477
G1 X94.985 Y54.421 E36.48165
G1 X96.327 Y54.765 E36.55076
G1 X98.115 Y55.32 E36.64417
G1 X99.584 Y55.86 E36.72225
G1 X101.131 Y56.519 E36.80614
G1 X102.668 Y57.269 E36.89146
G1 X104.009 Y58.001 E36.96769
G1 X105.511 Y58.927 E37.05572
G1 X106.844 Y59.844 E37.13644
G1 X108.145 Y60.837 E37.21809
G1 X109.42 Y61.924 E37.30168
G1 X110.616 Y63.034 E37.38309
G1 X111.641 Y64.091 E37.45654
G1 X112.834 Y65.462 E37.54721
G1 X113.867 Y66.767 E37.63025
G1 X114.779 Y68.047 E37.70866
G1 X115.703 Y69.484 E37.79389
G1 X116.464 Y70.813 E37.8703
G1 X117.165 Y72.192 E37.94748
G1 X117.918 Y73.878 E38.0396
G1 X118.508 Y75.401 E38.12108
G1 X119.002 Y76.896 E38.19964
G1 X119.446 Y78.5 E38.28267
G1 X119.816 Y80.164 E38.36771
G1 X120.092 Y81.778 E38.44941
G1 X120.289 Y83.417 E38.53176
G1 X120.402 Y85.049 E38.61338
G1 X120.435 Y86.699 E38.69571
G1 X120.384 Y88.33 E38.77713
G1 X120.253 Y89.975 E38.85945
G1 X120.04 Y91.584 E38.94043
G1 X119.771 Y93.1 E39.01724
G1 X119.371 Y94.811 E39.10491
G1 X119.222 Y95.335 E39.13209
G1 X120.908 Y94.917 E39.21875
G1 X122.548 Y94.59 E39.30218
G1 X124.167 Y94.362 E39.38375
G1 X125.773 Y94.213 E39.46422
G1 X127.373 Y94.133 E39.54414
G1 X128.938 Y94.144 E39.62222
G1 X130.71 Y94.233 E39.71074
G1 X132.164 Y94.382 E39.78366
G1 X133.892 Y94.644 E39.87085
G1 X135.467 Y94.971 E39.9511
G1 X137.154 Y95.41 E40.03807
G1 X138.674 Y95.882 E40.11748
G1 X140.183 Y96.437 E40.19769
G1 X141.765 Y97.114 E40.28354
G1 X143.212 Y97.821 E40.36389
G1 X144.608 Y98.583 E40.44324
G1 X146.094 Y99.499 E40.53033
G1 X147.345 Y100.36 E40.60609
G1 X148.729 Y101.413 E40.69285
G1 X149.727 Y102.249 E40.7578
G1 X151.191 Y103.61 E40.85753
G1 X152.171 Y104.619 E40.92771
G1 X153.401 Y106.025 E41.0209
G1 X154.43 Y107.331 E41.10386
G1 X155.319 Y108.579 E41.1803
G1 X156.26 Y110.043 E41.26713
G1 X157.032 Y111.39 E41.34458
G1 X157.743 Y112.788 E41.42283
G1 X158.48 Y114.44 E41.51308
G1 X159.069 Y115.958 E41.59431
G1 X159.555 Y117.422 E41.67127
G1 X160.003 Y119.043 E41.75518
G1 X160.377 Y120.728 E41.84129
G1 X160.652 Y122.338 E41.92277
G1 X160.849 Y123.969 E42.00474
G1 X160.964 Y125.611 E42.08686
G1 X160.996 Y127.256 E42.16894
G1 X160.946 Y128.903 E42.25115
G1 X160.813 Y130.532 E42.33269
G1 X160.601 Y132.137 E42.41346
G1 X160.312 Y133.768 E42.4961
G1 X159.976 Y135.207 E42.56982
G1 X159.476 Y136.938 E42.65971
G1 X158.942 Y138.513 E42.74268
G1 X158.405 Y139.865 E42.81526
G1 X157.666 Y141.494 E42.9045
G1 X156.954 Y142.875 E42.98202
G1 X156.064 Y144.397 E43.06998
G1 X155.209 Y145.714 E43.14832
G1 X154.354 Y146.903 E43.22138
