;FLAVOR:Marlin
;TIME:3074
;Filament used: 3.88784m
;Layer height: 0.2
;MINX:33.2
;MINY:32.2
;MINZ:0.3
;MAXX:141.8
;MAXY:109.3
;MAXZ:13.5
;TARGET_MACHINE.NAME:Unknown
;Generated with Cura_SteamEngine 5.10.0
M104 S200
M105
M109 S200
G28 ;Home
G1 Z15.0 F6000 ;Move the platform down 15mm
;Prime the extruder
G92 E0
G1 F200 E3
G92 E0
M82 ;absolute extrusion mode
G92 E0
G92 E0
G1 F1500 E-6.5
;LAYER_COUNT:67
;LAYER:0
M107
G0 F3600 X41.012 Y66.763 Z0.3
;TYPE:SKIRT
G1 F1500 E0
G1 F2250 X42.646 Y65.785 E0.09501
G1 X44.27 Y65.022 E0.18453
G1 X45.643 Y64.53 E0.25729
G1 X47.924 Y63.97 E0.37447
G1 X49.222 Y63.787 E0.43987
G1 X50.074 Y63.719 E0.48251
G1 X61.918 Y63.718 E1.07341
G1 X62.943 Y63.804 E1.12472
G1 X64.455 Y64.045 E1.20111
G1 X65.253 Y64.252 E1.24224
G1 X64.97 Y63.102 E1.30133
G1 X64.826 Y62.129 E1.3504
G1 X64.7 Y60.323 E1.44072
G1 X64.717 Y49.138 E1.99874
G1 X64.827 Y47.87 E2.06224
G1 X64.995 Y46.778 E2.11736
G1 X65.644 Y44.255 E2.24733
G1 X66.112 Y43.031 E2.31271
G1 X67.079 Y41.1 E2.42045
G1 X67.72 Y40.081 E2.48051
G1 X69.141 Y38.236 E2.5967
G1 X70.824 Y36.577 E2.7146
G1 X72.512 Y35.263 E2.82132
G1 X74.146 Y34.285 E2.91633
G1 X75.77 Y33.522 E3.00584
G1 X77.143 Y33.03 E3.07861
G1 X79.424 Y32.47 E3.19579
G1 X80.722 Y32.287 E3.26119
G1 X81.574 Y32.219 E3.30383
G1 X92.834 Y32.2 E3.86559
G1 X94.609 Y32.328 E3.95438
G1 X95.995 Y32.553 E4.02443
G1 X98.254 Y33.147 E4.14096
G1 X99.298 Y33.548 E4.19676
G1 X100.925 Y34.326 E4.28673
G1 X102.298 Y35.131 E4.36614
G1 X103.107 Y35.703 E4.41557
G1 X104.429 Y36.786 E4.50083
G1 X105.98 Y38.369 E4.61139
G1 X107.047 Y39.734 E4.69783
G1 X107.842 Y40.985 E4.77178
G1 X109.006 Y43.308 E4.90141
G1 X109.426 Y44.484 E4.96371
G1 X110.03 Y46.923 E5.08907
G1 X110.213 Y48.22 E5.15442
G1 X110.281 Y49.073 E5.19711
G1 X110.3 Y60.026 E5.74356
G1 X110.195 Y61.944 E5.83939
G1 X110.118 Y62.54 E5.86937
G1 X109.77 Y64.25 E5.95643
G1 X110.885 Y63.977 E6.0137
G1 X112.222 Y63.787 E6.08108
G1 X113.074 Y63.719 E6.12372
G1 X124.918 Y63.718 E6.71462
G1 X125.943 Y63.804 E6.76594
G1 X127.455 Y64.045 E6.84232
G1 X129.796 Y64.661 E6.96309
G1 X130.798 Y65.048 E7.01668
G1 X132.425 Y65.826 E7.10665
G1 X133.798 Y66.631 E7.18606
G1 X134.607 Y67.203 E7.23549
G1 X135.929 Y68.286 E7.32075
G1 X137.48 Y69.869 E7.43132
G1 X138.547 Y71.234 E7.51775
G1 X139.342 Y72.485 E7.5917
G1 X140.506 Y74.808 E7.72133
G1 X140.926 Y75.984 E7.78363
G1 X141.53 Y78.423 E7.90899
G1 X141.713 Y79.72 E7.97434
G1 X141.781 Y80.573 E8.01703
G1 X141.8 Y91.526 E8.56348
G1 X141.695 Y93.444 E8.65931
G1 X141.618 Y94.04 E8.68929
G1 X141.202 Y96.078 E8.79307
G1 X140.94 Y96.956 E8.83878
G1 X140.103 Y99.092 E8.95323
G1 X139.22 Y100.72 E9.04563
G1 X138.122 Y102.332 E9.14294
G1 X137.276 Y103.362 E9.20944
G1 X135.563 Y105.039 E9.32904
G1 X134.266 Y106.047 E9.41099
G1 X133.015 Y106.842 E9.48494
G1 X130.692 Y108.006 E9.61457
G1 X129.516 Y108.426 E9.67687
G1 X127.102 Y109.03 E9.80101
G1 X126.129 Y109.174 E9.85009
G1 X124.322 Y109.3 E9.94046
G1 X113.087 Y109.28 E10.50097
G1 X112.169 Y109.212 E10.5469
G1 X110.088 Y108.858 E10.65221
G1 X108.405 Y108.403 E10.73919
G1 X106.985 Y107.856 E10.81511
G1 X105.481 Y107.122 E10.8986
G1 X103.936 Y106.171 E10.98912
G1 X103.269 Y105.659 E11.03107
G1 X102.766 Y106.047 E11.06276
G1 X101.515 Y106.842 E11.13671
G1 X99.192 Y108.006 E11.26634
G1 X98.016 Y108.426 E11.32864
G1 X95.602 Y109.03 E11.45279
G1 X94.629 Y109.174 E11.50186
G1 X92.852 Y109.299 E11.59073
G1 X81.587 Y109.28 E12.15275
G1 X80.669 Y109.212 E12.19867
G1 X78.588 Y108.858 E12.30398
G1 X76.905 Y108.403 E12.39096
G1 X75.485 Y107.856 E12.46688
G1 X73.981 Y107.122 E12.55038
G1 X72.436 Y106.171 E12.64089
G1 X71.769 Y105.659 E12.68284
G1 X71.266 Y106.047 E12.71453
G1 X70.015 Y106.842 E12.78848
G1 X67.692 Y108.006 E12.91811
G1 X66.516 Y108.426 E12.98041
G1 X64.102 Y109.03 E13.10456
G1 X63.129 Y109.174 E13.15363
G1 X61.352 Y109.299 E13.24251
G1 X50.087 Y109.28 E13.80452
G1 X49.169 Y109.212 E13.85044
G1 X47.087 Y108.857 E13.95581
G1 X45.367 Y108.392 E14.04471
G1 X44.082 Y107.9 E14.11335
G1 X42.519 Y107.142 E14.20002
G1 X40.827 Y106.097 E14.29923
G1 X39.181 Y104.816 E14.40329
G1 X37.854 Y103.492 E14.49681
G1 X36.282 Y101.509 E14.62306
G1 X35.237 Y99.758 E14.72479
G1 X34.536 Y98.264 E14.80713
G1 X34.019 Y96.817 E14.88379
G1 X33.47 Y94.602 E14.99764
G1 X33.326 Y93.629 E15.04671
G1 X33.2 Y91.823 E15.13703
G1 X33.217 Y80.638 E15.69505
G1 X33.327 Y79.37 E15.75855
G1 X33.495 Y78.278 E15.81367
G1 X34.144 Y75.755 E15.94364
G1 X34.612 Y74.531 E16.00902
G1 X35.579 Y72.6 E16.11676
G1 X36.22 Y71.581 E16.17682
G1 X37.641 Y69.736 E16.29301
G1 X39.324 Y68.077 E16.41091
G1 X41.012 Y66.763 E16.51763
G0 F3600 X41.258 Y67.079
G1 F2250 X42.816 Y66.147 E16.6082
G1 X44.405 Y65.399 E16.69582
G1 X45.778 Y64.907 E16.76859
G1 X47.98 Y64.366 E16.88171
G1 X49.254 Y64.186 E16.94591
G1 X50.106 Y64.118 E16.98855
G1 X61.885 Y64.117 E17.5762
G1 X62.91 Y64.203 E17.62752
G1 X64.354 Y64.432 E17.70046
G1 X65.802 Y64.808 E17.7751
G1 X65.366 Y63.043 E17.8658
G1 X65.222 Y62.07 E17.91487
G1 X65.1 Y60.324 E18.00219
G1 X65.117 Y49.139 E18.56022
G1 X65.222 Y47.93 E18.62076
G1 X65.382 Y46.877 E18.6739
G1 X66.018 Y44.398 E18.80158
G1 X66.486 Y43.174 E18.86696
G1 X67.418 Y41.313 E18.9708
G1 X68.059 Y40.294 E19.03086
G1 X69.422 Y38.521 E19.14243
G1 X71.07 Y36.893 E19.258
G1 X72.758 Y35.579 E19.36472
G1 X74.316 Y34.647 E19.4553
G1 X75.905 Y33.899 E19.54292
G1 X77.278 Y33.407 E19.61568
G1 X79.48 Y32.866 E19.72881
G1 X80.754 Y32.686 E19.793
G1 X81.606 Y32.618 E19.83564
G1 X92.835 Y32.6 E20.39586
G1 X94.545 Y32.723 E20.48139
G1 X95.893 Y32.94 E20.54951
G1 X98.152 Y33.534 E20.66604
G1 X99.125 Y33.909 E20.71807
G1 X100.752 Y34.687 E20.80804
G1 X102.067 Y35.458 E20.88409
G1 X102.876 Y36.03 E20.93352
G1 X104.143 Y37.066 E21.01517
G1 X105.694 Y38.649 E21.12574
G1 X106.709 Y39.949 E21.20802
G1 X107.504 Y41.2 E21.28197
G1 X108.629 Y43.443 E21.40716
G1 X109.049 Y44.619 E21.46946
G1 X109.634 Y46.979 E21.59077
G1 X109.814 Y48.252 E21.65491
G1 X109.882 Y49.105 E21.6976
G1 X109.9 Y60.027 E22.2425
G1 X109.798 Y61.893 E22.33574
G1 X109.721 Y62.489 E22.36572
G1 X109.318 Y64.464 E22.46628
G1 X109.219 Y64.797 E22.48362
G1 X110.98 Y64.366 E22.57406
G1 X112.254 Y64.186 E22.63826
G1 X113.106 Y64.118 E22.6809
G1 X124.885 Y64.117 E23.26855
G1 X125.91 Y64.203 E23.31987
G1 X127.354 Y64.432 E23.39281
G1 X129.652 Y65.034 E23.51133
G1 X130.625 Y65.409 E23.56335
G1 X132.252 Y66.187 E23.65333
G1 X133.567 Y66.958 E23.72938
G1 X134.376 Y67.53 E23.77881
G1 X135.643 Y68.566 E23.86046
G1 X137.194 Y70.149 E23.97103
G1 X138.209 Y71.449 E24.05331
G1 X139.004 Y72.7 E24.12726
G1 X140.129 Y74.943 E24.25245
G1 X140.549 Y76.119 E24.31475
G1 X141.134 Y78.479 E24.43606
G1 X141.314 Y79.752 E24.5002
G1 X141.382 Y80.605 E24.54289
G1 X141.4 Y91.527 E25.08779
G1 X141.298 Y93.393 E25.18102
G1 X141.221 Y93.989 E25.21101
G1 X140.818 Y95.964 E25.31157
G1 X140.567 Y96.811 E25.35564
G1 X139.751 Y98.901 E25.46758
G1 X138.868 Y100.529 E25.55998
G1 X137.812 Y102.079 E25.65355
G1 X136.996 Y103.076 E25.71783
G1 X135.317 Y104.723 E25.83516
G1 X134.051 Y105.709 E25.91522
G1 X132.8 Y106.504 E25.98917
G1 X130.557 Y107.629 E26.11436
G1 X129.381 Y108.049 E26.17666
G1 X127.043 Y108.634 E26.2969
G1 X126.07 Y108.778 E26.34597
G1 X124.323 Y108.9 E26.43334
G1 X113.117 Y108.881 E26.99241
G1 X112.199 Y108.813 E27.03834
G1 X110.192 Y108.472 E27.1399
G1 X108.549 Y108.03 E27.22479
G1 X107.129 Y107.483 E27.30071
G1 X105.691 Y106.781 E27.38054
G1 X104.146 Y105.83 E27.47105
G1 X103.268 Y105.153 E27.52637
G1 X102.551 Y105.709 E27.57163
G1 X101.3 Y106.504 E27.64558
G1 X99.057 Y107.629 E27.77077
G1 X97.881 Y108.049 E27.83307
G1 X95.543 Y108.634 E27.95331
G1 X94.57 Y108.778 E28.00238
G1 X92.853 Y108.899 E28.08826
G1 X81.617 Y108.881 E28.64882
G1 X80.699 Y108.813 E28.69475
G1 X78.692 Y108.472 E28.79631
G1 X77.049 Y108.03 E28.8812
G1 X75.629 Y107.483 E28.95712
G1 X74.191 Y106.781 E29.03695
G1 X72.646 Y105.83 E29.12746
G1 X71.768 Y105.153 E29.18277
G1 X71.051 Y105.709 E29.22804
G1 X69.8 Y106.504 E29.30199
G1 X67.557 Y107.629 E29.42718
G1 X66.381 Y108.049 E29.48948
G1 X64.043 Y108.634 E29.60972
G1 X63.07 Y108.778 E29.65879
G1 X61.353 Y108.899 E29.74467
G1 X50.117 Y108.881 E30.30523
G1 X49.199 Y108.813 E30.35116
G1 X47.191 Y108.471 E30.45278
G1 X45.51 Y108.018 E30.53964
G1 X44.225 Y107.526 E30.60828
G1 X42.729 Y106.801 E30.69122
G1 X41.073 Y105.781 E30.78826
G1 X39.427 Y104.5 E30.89231
G1 X38.167 Y103.243 E30.98111
G1 X36.625 Y101.304 E31.10471
G1 X35.599 Y99.588 E31.20445
G1 X34.913 Y98.129 E31.28489
G1 X34.396 Y96.682 E31.36155
G1 X33.866 Y94.543 E31.47149
G1 X33.722 Y93.57 E31.52056
G1 X33.6 Y91.824 E31.60788
G1 X33.617 Y80.639 E32.1659
G1 X33.722 Y79.43 E32.22645
G1 X33.882 Y78.377 E32.27959
G1 X34.518 Y75.898 E32.40727
G1 X34.986 Y74.674 E32.47265
G1 X35.918 Y72.813 E32.57648
G1 X36.559 Y71.794 E32.63654
G1 X37.922 Y70.021 E32.74812
G1 X39.57 Y68.393 E32.86369
G1 X41.258 Y67.079 E32.97041
G0 F3600 X41.504 Y67.395
G1 F2250 X43.021 Y66.491 E33.05851
G1 X44.54 Y65.776 E33.14227
G1 X45.913 Y65.284 E33.21504
G1 X48.036 Y64.762 E33.32411
G1 X49.286 Y64.585 E33.38709
G1 X50.138 Y64.517 E33.42974
G1 X61.852 Y64.516 E34.01415
G1 X62.877 Y64.602 E34.06547
G1 X64.253 Y64.819 E34.13496
G1 X66.39 Y65.374 E34.24512
G1 X66.273 Y65.047 E34.26244
G1 X65.762 Y62.984 E34.36848
G1 X65.618 Y62.011 E34.41755
G1 X65.5 Y60.325 E34.50187
G1 X65.516 Y49.173 E35.05825
G1 X65.618 Y47.989 E35.11753
G1 X65.77 Y46.976 E35.16864
G1 X66.392 Y44.541 E35.29402
G1 X66.86 Y43.317 E35.3594
G1 X67.757 Y41.526 E35.45933
G1 X68.398 Y40.507 E35.51939
G1 X69.703 Y38.805 E35.62639
G1 X71.316 Y37.209 E35.7396
G1 X73.004 Y35.895 E35.84632
G1 X74.521 Y34.991 E35.93443
G1 X76.04 Y34.276 E36.01818
G1 X77.413 Y33.784 E36.09095
G1 X79.536 Y33.262 E36.20002
G1 X80.786 Y33.085 E36.26301
G1 X81.638 Y33.017 E36.30565
G1 X92.836 Y33 E36.86432
G1 X94.482 Y33.118 E36.94665
G1 X95.792 Y33.327 E37.01283
G1 X98.008 Y33.907 E37.12711
G1 X98.952 Y34.27 E37.17757
G1 X100.579 Y35.048 E37.26754
G1 X101.836 Y35.785 E37.34024
G1 X102.645 Y36.357 E37.38967
G1 X103.857 Y37.346 E37.46772
G1 X105.408 Y38.929 E37.57828
G1 X106.371 Y40.164 E37.65641
G1 X107.166 Y41.415 E37.73036
G1 X108.252 Y43.578 E37.85111
G1 X108.672 Y44.754 E37.91341
G1 X109.238 Y47.035 E38.03066
G1 X109.415 Y48.284 E38.0936
G1 X109.483 Y49.137 E38.13629
G1 X109.5 Y60.028 E38.67965
G1 X109.401 Y61.842 E38.77028
G1 X109.324 Y62.438 E38.80026
G1 X108.934 Y64.35 E38.89762
G1 X108.627 Y65.386 E38.95152
G1 X108.913 Y65.284 E38.96667
G1 X111.036 Y64.762 E39.07575
G1 X112.286 Y64.585 E39.13873
G1 X113.138 Y64.517 E39.18137
G1 X124.852 Y64.516 E39.76579
G1 X125.877 Y64.602 E39.8171
G1 X127.253 Y64.819 E39.8866
G1 X129.508 Y65.407 E40.00286
G1 X130.452 Y65.77 E40.05332
G1 X132.079 Y66.548 E40.1433
G1 X133.336 Y67.285 E40.21599
G1 X134.145 Y67.857 E40.26542
G1 X135.357 Y68.846 E40.34347
G1 X136.908 Y70.429 E40.45403
G1 X137.871 Y71.664 E40.53217
G1 X138.666 Y72.915 E40.60611
G1 X139.752 Y75.078 E40.72686
G1 X140.172 Y76.254 E40.78917
G1 X140.738 Y78.535 E40.90642
G1 X140.915 Y79.784 E40.96935
G1 X140.983 Y80.637 E41.01204
G1 X141 Y91.528 E41.5554
G1 X140.901 Y93.342 E41.64603
G1 X140.824 Y93.938 E41.67601
G1 X140.434 Y95.85 E41.77337
G1 X140.183 Y96.697 E41.81744
G1 X139.399 Y98.71 E41.92522
G1 X138.516 Y100.338 E42.01762
G1 X137.502 Y101.826 E42.10745
G1 X136.686 Y102.823 E42.17173
G1 X135.071 Y104.408 E42.28462
G1 X133.836 Y105.371 E42.36275
G1 X132.585 Y106.166 E42.4367
G1 X130.422 Y107.252 E42.55745
G1 X129.246 Y107.672 E42.61975
G1 X126.984 Y108.238 E42.73609
G1 X126.011 Y108.382 E42.78516
G1 X124.324 Y108.5 E42.86953
G1 X113.147 Y108.482 E43.42715
G1 X112.229 Y108.414 E43.47308
G1 X110.295 Y108.086 E43.57094
G1 X108.693 Y107.657 E43.65368
G1 X107.304 Y107.123 E43.72792
G1 X105.901 Y106.44 E43.80577
G1 X104.356 Y105.489 E43.89629
G1 X103.267 Y104.646 E43.96499
G1 X102.336 Y105.371 E44.02386
G1 X101.085 Y106.166 E44.09781
G1 X98.922 Y107.252 E44.21856
G1 X97.746 Y107.672 E44.28086
G1 X95.484 Y108.238 E44.39719
G1 X94.511 Y108.382 E44.44627
G1 X92.854 Y108.499 E44.52914
G1 X81.647 Y108.482 E45.08826
G1 X80.729 Y108.414 E45.13418
G1 X78.795 Y108.086 E45.23205
G1 X77.193 Y107.657 E45.31479
G1 X75.804 Y107.123 E45.38903
G1 X74.401 Y106.44 E45.46688
G1 X72.856 Y105.489 E45.55739
G1 X71.767 Y104.646 E45.6261
G1 X70.836 Y105.371 E45.68497
G1 X69.585 Y106.166 E45.75892
G1 X67.422 Y107.252 E45.87967
G1 X66.246 Y107.672 E45.94197
G1 X63.984 Y108.238 E46.0583
G1 X63.011 Y108.382 E46.10737
G1 X61.354 Y108.499 E46.19025
G1 X50.147 Y108.482 E46.74937
G1 X49.229 Y108.414 E46.79529
G1 X47.295 Y108.085 E46.89317
G1 X45.653 Y107.644 E46.97799
G1 X44.368 Y107.152 E47.04664
G1 X42.938 Y106.46 E47.12589
G1 X41.319 Y105.465 E47.2207
G1 X39.673 Y104.184 E47.32476
G1 X38.48 Y102.994 E47.40882
G1 X36.968 Y101.098 E47.52981
G1 X35.961 Y99.417 E47.62757
G1 X35.29 Y97.994 E47.70606
G1 X34.773 Y96.547 E47.78273
G1 X34.262 Y94.484 E47.88876
G1 X34.118 Y93.511 E47.93783
G1 X34 Y91.825 E48.02215
G1 X34.016 Y80.673 E48.57853
G1 X34.118 Y79.489 E48.63782
G1 X34.27 Y78.476 E48.68892
G1 X34.892 Y76.041 E48.8143
G1 X35.36 Y74.817 E48.87968
G1 X36.257 Y73.026 E48.97962
G1 X36.898 Y72.007 E49.03968
G1 X38.203 Y70.305 E49.14668
G1 X39.816 Y68.709 E49.25988
G1 X41.504 Y67.395 E49.36661
G0 F3600 X41.709 Y67.739
G1 F2250 X43.226 Y66.835 E49.45471
G1 X44.675 Y66.153 E49.53461
G1 X46.048 Y65.661 E49.60737
G1 X48.092 Y65.158 E49.71239
G1 X49.318 Y64.984 E49.77417
G1 X50.17 Y64.916 E49.81681
G1 X61.819 Y64.915 E50.39798
G1 X62.844 Y65.001 E50.4493
G1 X64.152 Y65.206 E50.51535
G1 X66.365 Y65.781 E50.62942
G1 X67.055 Y66.045 E50.66628
G1 X66.65 Y64.912 E50.72631
G1 X66.158 Y62.925 E50.82843
G1 X66.014 Y61.952 E50.87751
G1 X65.9 Y60.326 E50.95883
G1 X65.916 Y49.174 E51.5152
G1 X66.014 Y48.048 E51.57159
G1 X66.158 Y47.075 E51.62066
G1 X66.766 Y44.684 E51.74375
G1 X67.234 Y43.46 E51.80912
G1 X68.096 Y41.739 E51.90515
G1 X68.737 Y40.72 E51.96521
G1 X70.02 Y39.049 E52.07032
G1 X71.562 Y37.524 E52.17852
G1 X73.209 Y36.239 E52.28274
G1 X74.726 Y35.335 E52.37084
G1 X76.175 Y34.653 E52.45074
G1 X77.548 Y34.161 E52.5235
G1 X79.592 Y33.658 E52.62852
G1 X80.818 Y33.484 E52.6903
G1 X81.67 Y33.416 E52.73294
G1 X92.837 Y33.4 E53.29006
G1 X94.42 Y33.513 E53.36924
G1 X95.691 Y33.714 E53.43344
G1 X97.865 Y34.281 E53.54553
G1 X98.779 Y34.631 E53.59436
G1 X100.406 Y35.409 E53.68433
G1 X101.605 Y36.112 E53.75367
G1 X102.414 Y36.684 E53.80311
G1 X103.572 Y37.626 E53.87758
G1 X105.093 Y39.175 E53.98589
G1 X106.033 Y40.379 E54.06209
G1 X106.828 Y41.63 E54.13604
G1 X107.875 Y43.713 E54.25235
G1 X108.295 Y44.889 E54.31465
G1 X108.842 Y47.091 E54.42785
G1 X109.016 Y48.316 E54.48958
G1 X109.084 Y49.169 E54.53227
G1 X109.1 Y60.029 E55.07408
G1 X109.004 Y61.791 E55.16212
G1 X108.927 Y62.387 E55.1921
G1 X108.55 Y64.236 E55.28624
G1 X108.299 Y65.083 E55.33032
G1 X107.92 Y66.065 E55.38283
G1 X109.048 Y65.661 E55.44261
G1 X111.092 Y65.158 E55.54762
G1 X112.318 Y64.984 E55.6094
G1 X113.17 Y64.916 E55.65204
G1 X124.819 Y64.915 E56.23322
G1 X125.844 Y65.001 E56.28453
G1 X127.152 Y65.206 E56.35059
G1 X129.365 Y65.781 E56.46466
G1 X130.279 Y66.131 E56.51349
G1 X131.906 Y66.909 E56.60346
G1 X133.105 Y67.612 E56.6728
G1 X133.914 Y68.184 E56.72223
G1 X135.072 Y69.126 E56.79671
G1 X136.593 Y70.675 E56.90502
G1 X137.533 Y71.879 E56.98122
G1 X138.328 Y73.13 E57.05517
G1 X139.375 Y75.213 E57.17148
G1 X139.795 Y76.389 E57.23378
G1 X140.342 Y78.591 E57.34698
G1 X140.516 Y79.816 E57.40871
G1 X140.584 Y80.669 E57.4514
G1 X140.6 Y91.529 E57.99321
G1 X140.504 Y93.291 E58.08124
G1 X140.427 Y93.887 E58.11123
G1 X140.05 Y95.736 E58.20537
G1 X139.799 Y96.583 E58.24944
G1 X139.047 Y98.519 E58.35306
G1 X138.164 Y100.147 E58.44546
G1 X137.192 Y101.573 E58.53156
G1 X136.376 Y102.57 E58.59584
G1 X134.825 Y104.093 E58.70428
G1 X133.621 Y105.033 E58.78049
G1 X132.37 Y105.828 E58.85444
G1 X130.287 Y106.875 E58.97075
G1 X129.111 Y107.295 E59.03305
G1 X126.925 Y107.842 E59.14547
G1 X125.952 Y107.986 E59.19455
G1 X124.325 Y108.1 E59.27592
G1 X113.177 Y108.083 E59.83209
G1 X112.259 Y108.015 E59.87802
