;FLAVOR:Marlin
;TIME:1850
;Filament used: 2.1792m
;Layer height: 0.15
;MINX:53.766
;MINY:52.774
;MINZ:0.3
;MAXX:121.234
;MAXY:120.227
;MAXZ:6
;TARGET_MACHINE.NAME:Unknown
;Generated with Cura_SteamEngine 5.10.0
M104 S200
M105
M109 S200
G28 ;Home
G1 Z15.0 F6000 ;Move the platform down 15mm
;Prime the extruder
G92 E0
G1 F200 E3
G92 E0
M82 ;absolute extrusion mode
G92 E0
G92 E0
G1 F1500 E-6.5
;LAYER_COUNT:39
;LAYER:0
M107
G0 F3600 X64.088 Y62.22 Z0.3
;TYPE:SKIRT
G1 F1500 E0
G1 F2400 X65.327 Y61.069 E0.08437
G1 X66.422 Y60.154 E0.15556
G1 X67.914 Y59.032 E0.2487
G1 X69.329 Y58.077 E0.33387
G1 X70.765 Y57.209 E0.41758
G1 X72.22 Y56.423 E0.50008
G1 X73.613 Y55.754 E0.57718
G1 X75.354 Y55.027 E0.67131
G1 X76.737 Y54.525 E0.74471
G1 X78.44 Y54.004 E0.83356
G1 X80.19 Y53.573 E0.92348
G1 X81.868 Y53.238 E1.00885
G1 X83.495 Y53.006 E1.09084
G1 X85.173 Y52.838 E1.17497
G1 X86.464 Y52.774 E1.23946
G1 X88.175 Y52.774 E1.32482
G1 X90.232 Y52.877 E1.42757
G1 X91.61 Y53.018 E1.49668
G1 X93.563 Y53.315 E1.59524
G1 X95.049 Y53.618 E1.6709
G1 X96.686 Y54.038 E1.75522
G1 X98.432 Y54.584 E1.84648
G1 X99.775 Y55.077 E1.91786
G1 X101.565 Y55.84 E2.01494
G1 X103.056 Y56.566 E2.09767
G1 X104.522 Y57.38 E2.18133
G1 X105.955 Y58.264 E2.26533
G1 X107.365 Y59.235 E2.35074
G1 X108.646 Y60.217 E2.43127
G1 X109.968 Y61.34 E2.51781
G1 X111.171 Y62.461 E2.59985
G1 X112.253 Y63.58 E2.6775
G1 X113.481 Y64.986 E2.77064
G1 X114.508 Y66.29 E2.85345
G1 X115.422 Y67.572 E2.932
G1 X116.393 Y69.086 E3.02173
G1 X117.185 Y70.469 E3.10124
G1 X117.896 Y71.867 E3.17949
G1 X118.665 Y73.59 E3.27362
G1 X119.267 Y75.144 E3.35677
G1 X119.773 Y76.67 E3.43698
G1 X120.214 Y78.266 E3.51959
G1 X120.601 Y80.013 E3.60886
G1 X120.885 Y81.679 E3.69317
G1 X121.087 Y83.357 E3.77749
G1 X121.203 Y85.041 E3.86171
G1 X121.234 Y86.719 E3.94544
G1 X121.182 Y88.395 E4.02909
G1 X121.047 Y90.074 E4.11313
G1 X120.828 Y91.744 E4.19716
G1 X120.549 Y93.281 E4.27509
G1 X120.14 Y95.029 E4.36466
G1 X119.673 Y96.657 E4.44915
G1 X119.146 Y98.199 E4.53045
G1 X118.635 Y99.505 E4.60042
G1 X117.84 Y101.25 E4.69609
G1 X117.035 Y102.811 E4.78371
G1 X116.272 Y104.119 E4.85926
G1 X115.266 Y105.672 E4.95157
G1 X114.453 Y106.799 E5.0209
G1 X113.224 Y108.325 E5.11866
G1 X112.238 Y109.436 E5.19277
G1 X110.9 Y110.798 E5.28802
G1 X109.71 Y111.891 E5.36863
G1 X108.426 Y112.96 E5.45199
G1 X107.022 Y114.009 E5.53942
G1 X105.687 Y114.91 E5.61978
G1 X104.173 Y115.823 E5.70798
G1 X102.694 Y116.616 E5.79171
G1 X101.216 Y117.317 E5.87332
G1 X99.625 Y117.979 E5.95929
G1 X98.142 Y118.509 E6.03786
G1 X96.499 Y119.011 E6.12357
G1 X94.812 Y119.427 E6.21026
G1 X93.125 Y119.763 E6.29607
G1 X91.492 Y119.994 E6.37836
G1 X89.746 Y120.162 E6.46587
G1 X88.276 Y120.209 E6.53924
G1 X86.807 Y120.227 E6.61254
G1 X84.764 Y120.124 E6.71459
G1 X83.428 Y119.988 E6.78159
G1 X81.437 Y119.685 E6.88206
G1 X79.951 Y119.382 E6.95773
G1 X78.314 Y118.962 E7.04204
G1 X76.569 Y118.416 E7.13326
G1 X75.323 Y117.962 E7.19942
G1 X73.423 Y117.153 E7.30245
G1 X71.947 Y116.432 E7.3844
G1 X70.466 Y115.618 E7.46872
G1 X69.145 Y114.802 E7.54618
G1 X67.642 Y113.77 E7.63714
G1 X66.42 Y112.84 E7.71375
G1 X65.036 Y111.661 E7.80446
G1 X63.809 Y110.522 E7.88798
G1 X62.815 Y109.499 E7.95915
G1 X61.532 Y108.03 E8.05645
G1 X60.48 Y106.694 E8.14129
G1 X59.554 Y105.393 E8.22096
G1 X58.606 Y103.912 E8.30869
G1 X57.794 Y102.493 E8.39025
G1 X57.121 Y101.17 E8.46431
G1 X56.337 Y99.413 E8.56029
G1 X55.733 Y97.855 E8.64366
G1 X55.232 Y96.343 E8.72313
G1 X54.781 Y94.711 E8.8076
G1 X54.4 Y92.991 E8.89549
G1 X54.115 Y91.319 E8.98011
G1 X53.913 Y89.637 E9.06463
G1 X53.798 Y87.963 E9.14834
G1 X53.766 Y86.286 E9.23202
G1 X53.817 Y84.599 E9.31623
G1 X53.951 Y82.936 E9.39946
G1 X54.173 Y81.269 E9.48336
G1 X54.454 Y79.703 E9.56274
G1 X54.859 Y77.976 E9.65124
G1 X55.284 Y76.482 E9.72873
G1 X55.855 Y74.812 E9.81678
G1 X56.453 Y73.309 E9.89748
G1 X57.178 Y71.715 E9.98485
G1 X57.896 Y70.324 E10.06295
G1 X58.819 Y68.739 E10.15445
G1 X59.705 Y67.375 E10.2356
G1 X60.616 Y66.117 E10.31309
G1 X61.783 Y64.669 E10.40587
G1 X62.839 Y63.483 E10.4851
G1 X64.088 Y62.22 E10.57372
G0 F3600 X64.36 Y62.513
G1 F2400 X65.584 Y61.376 E10.65706
G1 X66.663 Y60.474 E10.72723
G1 X68.138 Y59.364 E10.81932
G1 X69.553 Y58.409 E10.90449
G1 X70.955 Y57.561 E10.98624
G1 X72.393 Y56.784 E11.06778
G1 X73.786 Y56.115 E11.14488
G1 X75.49 Y55.403 E11.23702
G1 X76.854 Y54.908 E11.30941
G1 X78.557 Y54.387 E11.39826
G1 X80.268 Y53.965 E11.48618
G1 X81.925 Y53.634 E11.57048
G1 X83.535 Y53.404 E11.65162
G1 X85.193 Y53.238 E11.73475
G1 X86.484 Y53.174 E11.79924
G1 X88.175 Y53.174 E11.8836
G1 X90.191 Y53.275 E11.98431
G1 X91.569 Y53.416 E12.05341
G1 X93.483 Y53.707 E12.15
G1 X94.969 Y54.01 E12.22566
G1 X96.567 Y54.42 E12.30797
G1 X98.294 Y54.96 E12.39824
G1 X99.618 Y55.445 E12.46859
G1 X101.39 Y56.2 E12.56469
G1 X102.862 Y56.916 E12.64635
G1 X104.312 Y57.72 E12.72907
G1 X105.728 Y58.594 E12.81209
G1 X107.122 Y59.553 E12.8965
G1 X108.387 Y60.522 E12.976
G1 X109.695 Y61.633 E13.06162
G1 X110.883 Y62.739 E13.1426
G1 X111.965 Y63.858 E13.22026
G1 X113.167 Y65.233 E13.31137
G1 X114.182 Y66.522 E13.39322
G1 X115.085 Y67.788 E13.47081
G1 X116.046 Y69.285 E13.55956
G1 X116.828 Y70.65 E13.63804
G1 X117.539 Y72.048 E13.71629
G1 X118.292 Y73.735 E13.80846
G1 X118.887 Y75.27 E13.89059
G1 X119.387 Y76.777 E13.96981
G1 X119.823 Y78.353 E14.05139
G1 X120.21 Y80.1 E14.14066
G1 X120.488 Y81.727 E14.223
G1 X120.688 Y83.385 E14.30632
G1 X120.803 Y85.048 E14.38949
G1 X120.834 Y86.707 E14.47227
G1 X120.783 Y88.363 E14.55493
G1 X120.65 Y90.022 E14.63796
G1 X120.434 Y91.673 E14.72103
G1 X120.155 Y93.21 E14.79897
G1 X119.755 Y94.919 E14.88653
G1 X119.294 Y96.528 E14.97004
G1 X118.773 Y98.053 E15.05044
G1 X118.262 Y99.359 E15.1204
G1 X117.484 Y101.067 E15.21404
G1 X116.689 Y102.609 E15.30059
G1 X115.926 Y103.917 E15.37614
G1 X114.941 Y105.438 E15.46654
G1 X114.141 Y106.548 E15.53481
G1 X112.925 Y108.059 E15.63157
G1 X111.939 Y109.17 E15.70568
G1 X110.629 Y110.503 E15.79892
G1 X109.439 Y111.596 E15.87953
G1 X108.186 Y112.64 E15.9609
G1 X106.798 Y113.678 E16.04737
G1 X105.48 Y114.568 E16.12671
G1 X103.984 Y115.471 E16.21389
G1 X102.523 Y116.255 E16.29661
G1 X101.062 Y116.948 E16.37729
G1 X99.49 Y117.602 E16.46223
G1 X98.025 Y118.126 E16.53985
G1 X96.382 Y118.628 E16.62556
G1 X94.734 Y119.035 E16.71025
G1 X93.069 Y119.367 E16.79496
G1 X91.454 Y119.596 E16.87634
G1 X89.733 Y119.762 E16.96259
G1 X88.267 Y119.81 E17.03577
G1 X86.827 Y119.827 E17.10762
G1 X84.805 Y119.726 E17.20862
G1 X83.469 Y119.59 E17.27562
G1 X81.517 Y119.293 E17.37413
G1 X80.031 Y118.99 E17.44979
G1 X78.433 Y118.58 E17.5321
G1 X76.706 Y118.04 E17.62237
G1 X75.48 Y117.594 E17.68746
G1 X73.599 Y116.794 E17.78944
G1 X72.14 Y116.081 E17.87045
G1 X70.659 Y115.267 E17.95477
G1 X69.371 Y114.472 E18.03028
G1 X67.884 Y113.452 E18.12024
G1 X66.679 Y112.535 E18.19579
G1 X65.308 Y111.368 E18.28561
G1 X64.096 Y110.243 E18.36811
G1 X63.102 Y109.22 E18.43927
G1 X61.846 Y107.783 E18.53449
G1 X60.806 Y106.462 E18.61837
G1 X59.891 Y105.177 E18.69707
G1 X58.953 Y103.713 E18.78382
G1 X58.151 Y102.312 E18.86435
G1 X57.478 Y100.989 E18.93841
G1 X56.71 Y99.268 E19.03243
G1 X56.113 Y97.729 E19.11479
G1 X55.618 Y96.236 E19.19326
G1 X55.172 Y94.624 E19.2767
G1 X54.791 Y92.904 E19.36459
G1 X54.512 Y91.271 E19.44725
G1 X54.312 Y89.609 E19.53076
G1 X54.198 Y87.955 E19.61348
G1 X54.166 Y86.298 E19.69616
G1 X54.216 Y84.631 E19.77936
G1 X54.35 Y82.968 E19.8626
G1 X54.567 Y81.34 E19.94454
G1 X54.848 Y79.774 E20.02392
G1 X55.244 Y78.085 E20.11047
G1 X55.663 Y76.611 E20.18692
G1 X56.227 Y74.96 E20.27396
G1 X56.817 Y73.475 E20.35368
G1 X57.542 Y71.881 E20.44104
G1 X58.242 Y70.525 E20.51718
G1 X59.154 Y68.957 E20.60767
G1 X60.029 Y67.61 E20.68781
G1 X60.94 Y66.352 E20.7653
G1 X62.082 Y64.935 E20.8561
G1 X63.138 Y63.749 E20.93532
G1 X64.36 Y62.513 E21.02204
G0 F3600 X64.632 Y62.806
G1 F2400 X65.841 Y61.683 E21.10436
G1 X66.904 Y60.794 E21.17349
G1 X68.362 Y59.696 E21.26455
G1 X69.777 Y58.741 E21.34972
G1 X71.145 Y57.913 E21.4295
G1 X72.566 Y57.145 E21.51009
G1 X73.959 Y56.476 E21.58718
G1 X75.627 Y55.779 E21.67737
G1 X76.971 Y55.291 E21.74871
G1 X78.674 Y54.77 E21.83756
G1 X80.346 Y54.357 E21.92348
G1 X81.982 Y54.03 E22.00672
G1 X83.575 Y53.802 E22.087
G1 X85.213 Y53.638 E22.16913
G1 X86.504 Y53.574 E22.23362
G1 X88.175 Y53.574 E22.31698
G1 X90.15 Y53.673 E22.41564
G1 X91.528 Y53.814 E22.48475
G1 X93.403 Y54.099 E22.57937
G1 X94.889 Y54.402 E22.65503
G1 X96.448 Y54.802 E22.73533
G1 X98.157 Y55.336 E22.82466
G1 X99.461 Y55.813 E22.89393
G1 X101.215 Y56.56 E22.98904
G1 X102.668 Y57.266 E23.06964
G1 X104.102 Y58.06 E23.15141
G1 X105.501 Y58.924 E23.23345
G1 X106.879 Y59.871 E23.31686
G1 X108.128 Y60.827 E23.39534
G1 X109.422 Y61.926 E23.48004
G1 X110.61 Y63.032 E23.56101
G1 X111.664 Y64.121 E23.63662
G1 X112.853 Y65.48 E23.72671
G1 X113.856 Y66.754 E23.80761
G1 X114.748 Y68.004 E23.88422
G1 X115.699 Y69.484 E23.97199
G1 X116.471 Y70.831 E24.04944
G1 X117.182 Y72.229 E24.12769
G1 X117.919 Y73.88 E24.21789
G1 X118.507 Y75.396 E24.29902
G1 X119.001 Y76.884 E24.37724
G1 X119.437 Y78.46 E24.45882
G1 X119.816 Y80.167 E24.54606
G1 X120.091 Y81.775 E24.62744
G1 X120.289 Y83.413 E24.70976
G1 X120.403 Y85.056 E24.79192
G1 X120.434 Y86.695 E24.87371
G1 X120.384 Y88.331 E24.95537
G1 X120.253 Y89.97 E25.0374
G1 X120.04 Y91.602 E25.11951
G1 X119.765 Y93.119 E25.19643
G1 X119.37 Y94.809 E25.28301
G1 X118.915 Y96.399 E25.36552
G1 X118.4 Y97.907 E25.44502
G1 X117.889 Y99.213 E25.51499
G1 X117.128 Y100.884 E25.6066
G1 X116.343 Y102.407 E25.69208
G1 X115.58 Y103.715 E25.76763
G1 X114.617 Y105.204 E25.85609
G1 X113.829 Y106.297 E25.92332
G1 X112.626 Y107.793 E26.01909
G1 X111.64 Y108.904 E26.0932
G1 X110.358 Y110.209 E26.18447
G1 X109.183 Y111.289 E26.26409
G1 X107.946 Y112.32 E26.34443
G1 X106.574 Y113.347 E26.42993
G1 X105.273 Y114.226 E26.50826
G1 X103.795 Y115.119 E26.59442
G1 X102.352 Y115.894 E26.67613
G1 X100.908 Y116.579 E26.75587
G1 X99.355 Y117.225 E26.83978
G1 X97.908 Y117.743 E26.91646
G1 X96.265 Y118.245 E27.00217
G1 X94.656 Y118.643 E27.08487
G1 X93.013 Y118.971 E27.16845
G1 X91.415 Y119.198 E27.24898
G1 X89.72 Y119.362 E27.33394
G1 X88.259 Y119.411 E27.40687
G1 X86.823 Y119.427 E27.47851
G1 X84.846 Y119.328 E27.57727
G1 X83.51 Y119.192 E27.64427
G1 X81.597 Y118.901 E27.74081
G1 X80.111 Y118.598 E27.81647
G1 X78.552 Y118.198 E27.89677
G1 X76.843 Y117.664 E27.98609
G1 X75.617 Y117.218 E28.05118
G1 X73.775 Y116.435 E28.15104
G1 X72.332 Y115.73 E28.23116
G1 X70.869 Y114.927 E28.31442
G1 X69.597 Y114.142 E28.38899
G1 X68.126 Y113.134 E28.47796
G1 X66.938 Y112.23 E28.55244
G1 X65.58 Y111.075 E28.64138
G1 X64.383 Y109.964 E28.72286
G1 X63.389 Y108.941 E28.79402
G1 X62.16 Y107.535 E28.88719
G1 X61.132 Y106.23 E28.97007
G1 X60.228 Y104.961 E29.0478
G1 X59.3 Y103.514 E29.13356
G1 X58.508 Y102.131 E29.21307
G1 X57.835 Y100.808 E29.28713
G1 X57.083 Y99.123 E29.37918
G1 X56.493 Y97.603 E29.46053
G1 X56.004 Y96.129 E29.53801
G1 X55.558 Y94.517 E29.62145
G1 X55.185 Y92.837 E29.70731
G1 X54.909 Y91.223 E29.789
G1 X54.711 Y89.581 E29.87151
G1 X54.598 Y87.947 E29.95323
G1 X54.566 Y86.31 E30.03491
G1 X54.615 Y84.663 E30.11712
G1 X54.747 Y83.021 E30.1993
G1 X54.961 Y81.411 E30.28033
G1 X55.242 Y79.845 E30.35971
G1 X55.629 Y78.194 E30.44431
G1 X56.048 Y76.72 E30.52076
G1 X56.599 Y75.108 E30.60575
G1 X57.181 Y73.641 E30.68449
G1 X57.898 Y72.064 E30.77092
G1 X58.588 Y70.726 E30.84603
G1 X59.49 Y69.175 E30.93554
G1 X60.353 Y67.845 E31.01464
G1 X61.264 Y66.587 E31.09213
G1 X62.381 Y65.201 E31.18094
G1 X63.423 Y64.03 E31.25914
G1 X64.632 Y62.806 E31.34497
G0 F3600 X64.904 Y63.099
G1 F2400 X66.098 Y61.99 E31.42627
G1 X67.145 Y61.114 E31.49438
G1 X68.603 Y60.016 E31.58544
G1 X69.984 Y59.083 E31.66859
G1 X71.335 Y58.265 E31.74738
G1 X72.739 Y57.506 E31.82701
G1 X74.132 Y56.837 E31.9041
G1 X75.763 Y56.155 E31.9923
G1 X77.088 Y55.674 E32.06263
G1 X78.791 Y55.153 E32.15148
G1 X80.424 Y54.749 E32.2354
G1 X82.039 Y54.426 E32.31757
G1 X83.615 Y54.2 E32.397
G1 X85.233 Y54.038 E32.47813
G1 X86.524 Y53.974 E32.54262
G1 X88.175 Y53.974 E32.62498
G1 X90.109 Y54.071 E32.72159
G1 X91.487 Y54.212 E32.7907
G1 X93.323 Y54.491 E32.88335
G1 X94.809 Y54.794 E32.95901
G1 X96.329 Y55.184 E33.0373
G1 X98.02 Y55.712 E33.12568
G1 X99.304 Y56.181 E33.19388
G1 X101.04 Y56.92 E33.28801
G1 X102.474 Y57.616 E33.36754
G1 X103.892 Y58.4 E33.44837
G1 X105.275 Y59.254 E33.52947
G1 X106.636 Y60.189 E33.61185
G1 X107.869 Y61.132 E33.68929
G1 X109.149 Y62.219 E33.77307
G1 X110.337 Y63.325 E33.85405
G1 X111.363 Y64.384 E33.92761
G1 X112.539 Y65.728 E34.01671
G1 X113.53 Y66.986 E34.0966
G1 X114.422 Y68.236 E34.17322
G1 X115.352 Y69.683 E34.25903
G1 X116.114 Y71.012 E34.33546
G1 X116.825 Y72.41 E34.41371
G1 X117.546 Y74.025 E34.50195
G1 X118.127 Y75.522 E34.58206
G1 X118.615 Y76.991 E34.65929
G1 X119.051 Y78.567 E34.74087
G1 X119.422 Y80.234 E34.82607
G1 X119.694 Y81.823 E34.9065
G1 X119.89 Y83.441 E34.98781
G1 X120.003 Y85.064 E35.06898
G1 X120.034 Y86.683 E35.14977
G1 X119.985 Y88.299 E35.23043
G1 X119.856 Y89.918 E35.31145
G1 X119.646 Y91.531 E35.39261
G1 X119.371 Y93.048 E35.46952
G1 X118.985 Y94.699 E35.55411
G1 X118.536 Y96.27 E35.63563
G1 X118.027 Y97.761 E35.71423
G1 X117.516 Y99.067 E35.7842
G1 X116.764 Y100.718 E35.87471
G1 X115.997 Y102.205 E35.95818
G1 X115.234 Y103.513 E36.03373
G1 X114.292 Y104.97 E36.12029
G1 X113.517 Y106.046 E36.18645
G1 X112.327 Y107.527 E36.28123
G1 X111.341 Y108.638 E36.35534
G1 X110.087 Y109.915 E36.44463
G1 X108.927 Y110.982 E36.52326
G1 X107.706 Y112 E36.60257
G1 X106.35 Y113.016 E36.68711
G1 X105.066 Y113.884 E36.76443
G1 X103.606 Y114.767 E36.84956
G1 X102.181 Y115.533 E36.93027
G1 X100.754 Y116.21 E37.00907
G1 X99.22 Y116.848 E37.09195
G1 X97.791 Y117.36 E37.16769
G1 X96.148 Y117.862 E37.2534
G1 X94.578 Y118.251 E37.33409
G1 X92.957 Y118.575 E37.41656
G1 X91.376 Y118.8 E37.49624
G1 X89.706 Y118.962 E37.57994
G1 X88.251 Y119.012 E37.65258
G1 X86.819 Y119.027 E37.72402
G1 X84.887 Y118.93 E37.82053
G1 X83.551 Y118.794 E37.88753
G1 X81.677 Y118.509 E37.9821
G1 X80.191 Y118.206 E38.05776
G1 X78.671 Y117.816 E38.13605
G1 X76.98 Y117.288 E38.22443
G1 X75.754 Y116.842 E38.28952
G1 X73.951 Y116.076 E38.38725
G1 X72.524 Y115.379 E38.46648
G1 X71.079 Y114.587 E38.54869
G1 X69.823 Y113.812 E38.62232
G1 X68.368 Y112.816 E38.71029
G1 X67.197 Y111.925 E38.7837
G1 X65.852 Y110.782 E38.87176
G1 X64.67 Y109.685 E38.95222
G1 X63.676 Y108.662 E39.02338
G1 X62.474 Y107.288 E39.11446
G1 X61.458 Y105.998 E39.19638
G1 X60.565 Y104.745 E39.27314
G1 X59.647 Y103.315 E39.35792
G1 X58.865 Y101.95 E39.43641
G1 X58.192 Y100.627 E39.51046
G1 X57.456 Y98.978 E39.60055
G1 X56.873 Y97.477 E39.68089
G1 X56.39 Y96.022 E39.75737
G1 X55.944 Y94.41 E39.84082
G1 X55.579 Y92.769 E39.92469
G1 X55.306 Y91.175 E40.00537
G1 X55.11 Y89.553 E40.08688
G1 X54.998 Y87.939 E40.1676
G1 X54.966 Y86.322 E40.24829
G1 X55.014 Y84.695 E40.32949
G1 X55.144 Y83.074 E40.41062
G1 X55.355 Y81.482 E40.49074
G1 X55.636 Y79.916 E40.57012
G1 X56.014 Y78.303 E40.65277
G1 X56.433 Y76.829 E40.72922
G1 X56.971 Y75.256 E40.81216
G1 X57.553 Y73.789 E40.8909
G1 X58.253 Y72.247 E40.97539
G1 X58.934 Y70.927 E41.04949
G1 X59.826 Y69.393 E41.13802
G1 X60.689 Y68.063 E41.21712
G1 X61.575 Y66.838 E41.29255
G1 X62.68 Y65.467 E41.3804
G1 X63.708 Y64.311 E41.45757
G1 X64.904 Y63.099 E41.54253
G0 F3600 X65.176 Y63.392
G1 F2400 X66.355 Y62.297 E41.6228
G1 X67.386 Y61.434 E41.68988
G1 X68.844 Y60.336 E41.78094
G1 X70.191 Y59.425 E41.86207
G1 X71.525 Y58.617 E41.93988
G1 X72.912 Y57.867 E42.01854
G1 X74.305 Y57.198 E42.09564
G1 X75.9 Y56.531 E42.18189
G1 X77.205 Y56.057 E42.25116
G1 X78.908 Y55.536 E42.34001
G1 X80.503 Y55.141 E42.42199
G1 X82.096 Y54.822 E42.50304
G1 X83.655 Y54.598 E42.58162
G1 X85.253 Y54.438 E42.66174
G1 X86.544 Y54.374 E42.72623
G1 X88.175 Y54.374 E42.8076
G1 X90.068 Y54.469 E42.90216
G1 X91.446 Y54.61 E42.97127
G1 X93.243 Y54.883 E43.06195
G1 X94.729 Y55.186 E43.13761
G1 X96.21 Y55.566 E43.2139
G1 X97.883 Y56.088 E43.30133
G1 X99.147 Y56.549 E43.36845
G1 X100.865 Y57.28 E43.4616
