;FLAVOR:Marlin
;TIME:1878
;Filament used: 2.2053m
;Layer height: 0.15
;MINX:53.766
;MINY:52.774
;MINZ:0.3
;MAXX:121.235
;MAXY:120.226
;MAXZ:6
;TARGET_MACHINE.NAME:Unknown
;Generated with Cura_SteamEngine 5.10.0
M104 S200
M105
M109 S200
G28 ;Home
G1 Z15.0 F6000 ;Move the platform down 15mm
;Prime the extruder
G92 E0
G1 F200 E3
G92 E0
M82 ;absolute extrusion mode
G92 E0
G92 E0
G1 F1500 E-6.5
;LAYER_COUNT:39
;LAYER:0
M107
G0 F3600 X62.829 Y63.492 Z0.3
;TYPE:SKIRT
G1 F1500 E0
G1 F2550 X64.088 Y62.221 E0.08925
G1 X65.334 Y61.068 E0.17395
G1 X66.492 Y60.103 E0.24915
G1 X67.974 Y58.992 E0.34156
G1 X69.394 Y58.038 E0.42691
G1 X70.789 Y57.199 E0.50812
G1 X72.276 Y56.395 E0.59246
G1 X73.833 Y55.661 E0.67833
G1 X75.326 Y55.043 E0.75895
G1 X76.905 Y54.477 E0.84263
G1 X78.546 Y53.969 E0.92834
G1 X79.808 Y53.648 E0.9933
G1 X81.868 Y53.238 E1.09809
G1 X83.496 Y53.006 E1.18014
G1 X85.173 Y52.838 E1.26422
G1 X86.464 Y52.774 E1.32871
G1 X88.315 Y52.774 E1.42105
G1 X90.111 Y52.864 E1.51077
G1 X91.667 Y53.023 E1.5888
G1 X93.52 Y53.305 E1.68231
G1 X95.2 Y53.657 E1.76795
G1 X96.822 Y54.086 E1.85165
G1 X98.392 Y54.573 E1.93366
G1 X99.938 Y55.141 E2.01583
G1 X101.571 Y55.84 E2.10445
G1 X103.027 Y56.55 E2.18527
G1 X104.484 Y57.354 E2.26829
G1 X105.887 Y58.22 E2.35055
G1 X107.323 Y59.206 E2.43746
G1 X108.681 Y60.238 E2.52255
G1 X109.679 Y61.074 E2.5875
G1 X111.204 Y62.492 E2.69139
G1 X112.192 Y63.511 E2.7622
G1 X113.464 Y64.954 E2.85817
G1 X114.332 Y66.041 E2.92757
G1 X115.45 Y67.616 E3.02393
G1 X116.392 Y69.08 E3.11078
G1 X117.133 Y70.37 E3.185
G1 X117.951 Y71.978 E3.27501
G1 X118.655 Y73.551 E3.36099
G1 X119.243 Y75.069 E3.44221
G1 X119.773 Y76.669 E3.5263
G1 X120.22 Y78.289 E3.61014
G1 X120.597 Y79.989 E3.69701
G1 X120.885 Y81.681 E3.78264
G1 X121.087 Y83.361 E3.86706
G1 X121.202 Y85.033 E3.95067
G1 X121.235 Y86.725 E4.0351
G1 X121.182 Y88.385 E4.11796
G1 X121.056 Y90.007 E4.19913
G1 X120.827 Y91.723 E4.2855
G1 X120.558 Y93.237 E4.36222
G1 X120.134 Y95.034 E4.45433
G1 X119.673 Y96.64 E4.53769
G1 X119.141 Y98.216 E4.62068
G1 X118.651 Y99.469 E4.6878
G1 X117.848 Y101.234 E4.78454
G1 X117.104 Y102.676 E4.86549
G1 X116.181 Y104.261 E4.957
G1 X115.295 Y105.625 E5.03815
G1 X114.384 Y106.883 E5.11564
G1 X113.217 Y108.331 E5.20842
G1 X112.161 Y109.517 E5.28764
G1 X110.912 Y110.78 E5.37626
G1 X109.673 Y111.931 E5.46063
G1 X108.577 Y112.846 E5.53186
G1 X107.069 Y113.98 E5.626
G1 X105.686 Y114.913 E5.70923
G1 X104.232 Y115.791 E5.79397
G1 X102.743 Y116.595 E5.87839
G1 X101.322 Y117.275 E5.95699
G1 X99.674 Y117.957 E6.04597
G1 X98.095 Y118.523 E6.12965
G1 X96.454 Y119.031 E6.21535
G1 X95.192 Y119.352 E6.28032
G1 X93.13 Y119.762 E6.38521
G1 X91.498 Y119.994 E6.46745
G1 X89.788 Y120.162 E6.55317
G1 X88.157 Y120.226 E6.6346
G1 X86.465 Y120.209 E6.71902
G1 X84.763 Y120.123 E6.80404
G1 X83.269 Y119.963 E6.87901
G1 X81.453 Y119.684 E6.97067
G1 X79.894 Y119.367 E7.05004
G1 X78.336 Y118.968 E7.13028
G1 X76.658 Y118.446 E7.21795
G1 X75.103 Y117.874 E7.30061
G1 X73.492 Y117.187 E7.38799
G1 X72.071 Y116.504 E7.46665
G1 X70.512 Y115.643 E7.5555
G1 X69.043 Y114.735 E7.64166
G1 X67.769 Y113.866 E7.7186
G1 X66.338 Y112.77 E7.80852
G1 X65.022 Y111.647 E7.89483
G1 X63.8 Y110.507 E7.97821
G1 X62.792 Y109.47 E8.05036
G1 X61.519 Y108.014 E8.14685
G1 X60.503 Y106.725 E8.22873
G1 X59.52 Y105.339 E8.31351
G1 X58.607 Y103.92 E8.39769
G1 X57.887 Y102.667 E8.46979
G1 X57.04 Y101.002 E8.56298
G1 X56.345 Y99.449 E8.64787
G1 X55.757 Y97.931 E8.72908
G1 X55.221 Y96.311 E8.81422
G1 X54.79 Y94.752 E8.89491
G1 X54.4 Y92.992 E8.98485
G1 X54.114 Y91.314 E9.06977
G1 X53.914 Y89.641 E9.15383
G1 X53.798 Y87.963 E9.23775
G1 X53.766 Y86.281 E9.32168
G1 X53.818 Y84.603 E9.40543
G1 X53.953 Y82.929 E9.48922
G1 X54.172 Y81.256 E9.5734
G1 X54.447 Y79.739 E9.65032
G1 X54.86 Y77.977 E9.74061
G1 X55.291 Y76.463 E9.81914
G1 X55.848 Y74.834 E9.90503
G1 X56.452 Y73.312 E9.98672
G1 X57.183 Y71.698 E10.07512
G1 X57.836 Y70.432 E10.14619
G1 X58.826 Y68.732 E10.24434
G1 X59.705 Y67.384 E10.32462
G1 X60.738 Y65.963 E10.41227
G1 X61.741 Y64.718 E10.49203
G1 X62.829 Y63.492 E10.57381
G0 F3600 X63.128 Y63.758
G1 F2550 X64.36 Y62.514 E10.66116
G1 X65.59 Y61.375 E10.74479
G1 X66.732 Y60.423 E10.81897
G1 X68.197 Y59.324 E10.91034
G1 X69.6 Y58.381 E10.99467
G1 X70.979 Y57.551 E11.07497
G1 X72.447 Y56.757 E11.15824
G1 X73.986 Y56.031 E11.24313
G1 X75.461 Y55.42 E11.32279
G1 X77.04 Y54.854 E11.40647
G1 X78.645 Y54.357 E11.4903
G1 X79.907 Y54.036 E11.55526
G1 X81.925 Y53.634 E11.65792
G1 X83.536 Y53.404 E11.73911
G1 X85.193 Y53.238 E11.82219
G1 X86.484 Y53.174 E11.88668
G1 X88.315 Y53.174 E11.97802
G1 X90.07 Y53.262 E12.06569
G1 X91.626 Y53.421 E12.14373
G1 X93.438 Y53.696 E12.23516
G1 X95.098 Y54.044 E12.31978
G1 X96.703 Y54.468 E12.4026
G1 X98.273 Y54.955 E12.48461
G1 X99.781 Y55.509 E12.56476
G1 X101.396 Y56.2 E12.6524
G1 X102.852 Y56.91 E12.73322
G1 X104.274 Y57.694 E12.81423
G1 X105.661 Y58.55 E12.89554
G1 X107.081 Y59.525 E12.98148
G1 X108.424 Y60.545 E13.06561
G1 X109.422 Y61.381 E13.13057
G1 X110.917 Y62.771 E13.23241
G1 X111.892 Y63.776 E13.30227
G1 X113.151 Y65.204 E13.39725
G1 X114.019 Y66.291 E13.46665
G1 X115.114 Y67.833 E13.561
G1 X116.045 Y69.279 E13.6468
G1 X116.776 Y70.551 E13.71999
G1 X117.594 Y72.159 E13.81
G1 X118.282 Y73.696 E13.89401
G1 X118.863 Y75.195 E13.97422
G1 X119.387 Y76.776 E14.05732
G1 X119.829 Y78.376 E14.14013
G1 X120.206 Y80.076 E14.227
G1 X120.488 Y81.729 E14.31066
G1 X120.688 Y83.389 E14.39408
G1 X120.802 Y85.041 E14.47669
G1 X120.835 Y86.712 E14.56008
G1 X120.783 Y88.354 E14.64204
G1 X120.657 Y89.976 E14.7232
G1 X120.433 Y91.653 E14.80761
G1 X120.164 Y93.167 E14.88433
G1 X119.75 Y94.924 E14.97439
G1 X119.294 Y96.512 E15.05681
G1 X118.768 Y98.07 E15.13885
G1 X118.278 Y99.323 E15.20598
G1 X117.484 Y101.068 E15.30162
G1 X116.758 Y102.475 E15.38061
G1 X115.846 Y104.043 E15.47111
G1 X114.971 Y105.39 E15.55125
G1 X114.06 Y106.648 E15.62874
G1 X112.918 Y108.065 E15.71953
G1 X111.862 Y109.251 E15.79876
G1 X110.64 Y110.487 E15.88547
G1 X109.416 Y111.624 E15.96882
G1 X108.337 Y112.526 E16.03898
G1 X106.845 Y113.648 E16.13212
G1 X105.462 Y114.581 E16.21535
G1 X104.042 Y115.439 E16.29812
G1 X102.57 Y116.234 E16.38159
G1 X101.169 Y116.905 E16.45908
G1 X99.539 Y117.58 E16.5471
G1 X97.96 Y118.146 E16.63079
G1 X96.355 Y118.643 E16.71461
G1 X95.093 Y118.964 E16.77958
G1 X93.074 Y119.366 E16.88228
G1 X91.459 Y119.596 E16.96367
G1 X89.772 Y119.762 E17.04824
G1 X88.161 Y119.826 E17.12868
G1 X86.485 Y119.809 E17.2123
G1 X84.805 Y119.725 E17.29622
G1 X83.33 Y119.568 E17.37022
G1 X81.533 Y119.292 E17.46093
G1 X79.974 Y118.975 E17.5403
G1 X78.455 Y118.586 E17.61853
G1 X76.777 Y118.064 E17.7062
G1 X75.26 Y117.506 E17.78684
G1 X73.665 Y116.826 E17.87334
G1 X72.244 Y116.143 E17.952
G1 X70.722 Y115.303 E18.03873
G1 X69.268 Y114.405 E18.12399
G1 X68.012 Y113.548 E18.19985
G1 X66.598 Y112.466 E18.28868
G1 X65.295 Y111.355 E18.37411
G1 X64.087 Y110.228 E18.45653
G1 X63.079 Y109.191 E18.52868
G1 X61.833 Y107.766 E18.62312
G1 X60.817 Y106.477 E18.705
G1 X59.856 Y105.122 E18.78788
G1 X58.954 Y103.721 E18.87101
G1 X58.244 Y102.486 E18.94208
G1 X57.397 Y100.821 E19.03528
G1 X56.718 Y99.304 E19.1182
G1 X56.137 Y97.805 E19.1984
G1 X55.607 Y96.204 E19.28254
G1 X55.181 Y94.665 E19.36221
G1 X54.791 Y92.905 E19.45215
G1 X54.511 Y91.266 E19.5351
G1 X54.313 Y89.613 E19.61816
G1 X54.198 Y87.955 E19.70108
G1 X54.166 Y86.293 E19.78401
G1 X54.217 Y84.635 E19.86677
G1 X54.35 Y82.981 E19.94955
G1 X54.566 Y81.327 E20.03277
G1 X54.841 Y79.81 E20.10969
G1 X55.245 Y78.086 E20.19803
G1 X55.67 Y76.592 E20.27552
G1 X56.22 Y74.982 E20.3604
G1 X56.824 Y73.46 E20.44209
G1 X57.539 Y71.881 E20.52857
G1 X58.182 Y70.633 E20.59861
G1 X59.161 Y68.95 E20.69575
G1 X60.028 Y67.619 E20.775
G1 X61.05 Y66.214 E20.86168
G1 X62.04 Y64.984 E20.94045
G1 X63.128 Y63.758 E21.02223
G0 F3600 X63.427 Y64.024
G1 F2550 X64.632 Y62.807 E21.10767
G1 X65.846 Y61.682 E21.19025
G1 X66.972 Y60.743 E21.26339
G1 X68.42 Y59.656 E21.35372
G1 X69.806 Y58.724 E21.43705
G1 X71.169 Y57.903 E21.51643
G1 X72.618 Y57.119 E21.59863
G1 X74.139 Y56.401 E21.68254
G1 X75.596 Y55.797 E21.76123
G1 X77.175 Y55.231 E21.84492
G1 X78.744 Y54.745 E21.92686
G1 X80.006 Y54.424 E21.99183
G1 X81.982 Y54.03 E22.09235
G1 X83.576 Y53.802 E22.17269
G1 X85.213 Y53.638 E22.25477
G1 X86.504 Y53.574 E22.31925
G1 X88.315 Y53.574 E22.4096
G1 X90.029 Y53.66 E22.49522
G1 X91.585 Y53.819 E22.57326
G1 X93.356 Y54.087 E22.66262
G1 X94.996 Y54.431 E22.74622
G1 X96.584 Y54.85 E22.82816
G1 X98.154 Y55.337 E22.91017
G1 X99.624 Y55.877 E22.9883
G1 X101.221 Y56.56 E23.07495
G1 X102.677 Y57.27 E23.15577
G1 X104.064 Y58.034 E23.23477
G1 X105.435 Y58.88 E23.31514
G1 X106.839 Y59.843 E23.40008
G1 X108.167 Y60.852 E23.48329
G1 X109.165 Y61.688 E23.54824
G1 X110.63 Y63.05 E23.64804
G1 X111.605 Y64.055 E23.7179
G1 X112.838 Y65.454 E23.81093
G1 X113.706 Y66.541 E23.88033
G1 X114.778 Y68.05 E23.97268
G1 X115.698 Y69.478 E24.05743
G1 X116.419 Y70.732 E24.12959
G1 X117.237 Y72.34 E24.2196
G1 X117.909 Y73.841 E24.30165
G1 X118.483 Y75.321 E24.38084
G1 X119.001 Y76.883 E24.46294
G1 X119.438 Y78.463 E24.54473
G1 X119.815 Y80.163 E24.6316
G1 X120.091 Y81.777 E24.7133
G1 X120.289 Y83.417 E24.79571
G1 X120.402 Y85.049 E24.87733
G1 X120.435 Y86.699 E24.95966
G1 X120.384 Y88.323 E25.04072
G1 X120.26 Y89.923 E25.12079
G1 X120.039 Y91.583 E25.20434
G1 X119.77 Y93.097 E25.28105
G1 X119.366 Y94.814 E25.36905
G1 X118.915 Y96.384 E25.45055
G1 X118.395 Y97.924 E25.53164
G1 X117.905 Y99.177 E25.59876
G1 X117.12 Y100.902 E25.69332
G1 X116.412 Y102.274 E25.77034
G1 X115.51 Y103.825 E25.85986
G1 X114.647 Y105.155 E25.93895
G1 X113.736 Y106.413 E26.01644
G1 X112.619 Y107.799 E26.10525
G1 X111.577 Y108.97 E26.18346
G1 X110.368 Y110.194 E26.26929
G1 X109.159 Y111.317 E26.35161
G1 X108.096 Y112.206 E26.42075
G1 X106.621 Y113.316 E26.51284
G1 X105.238 Y114.249 E26.59607
G1 X103.852 Y115.087 E26.67688
G1 X102.397 Y115.873 E26.75938
G1 X101.016 Y116.535 E26.83579
G1 X99.404 Y117.203 E26.92284
G1 X97.825 Y117.769 E27.00653
G1 X96.256 Y118.255 E27.08848
G1 X94.994 Y118.576 E27.15344
G1 X93.018 Y118.97 E27.25397
G1 X91.42 Y119.198 E27.3345
G1 X89.756 Y119.362 E27.41792
G1 X88.165 Y119.426 E27.49736
G1 X86.505 Y119.41 E27.58018
G1 X84.847 Y119.327 E27.663
G1 X83.391 Y119.173 E27.73604
G1 X81.613 Y118.9 E27.82579
G1 X80.054 Y118.583 E27.90516
G1 X78.574 Y118.204 E27.98138
G1 X76.896 Y117.682 E28.06905
G1 X75.417 Y117.138 E28.14767
G1 X73.838 Y116.465 E28.23331
G1 X72.417 Y115.782 E28.31196
G1 X70.932 Y114.963 E28.39657
G1 X69.493 Y114.074 E28.48096
G1 X68.255 Y113.23 E28.55571
G1 X66.841 Y112.148 E28.64454
G1 X65.568 Y111.063 E28.72799
G1 X64.374 Y109.949 E28.80946
G1 X63.366 Y108.912 E28.88161
G1 X62.147 Y107.518 E28.974
G1 X61.131 Y106.229 E29.05588
G1 X60.192 Y104.905 E29.13686
G1 X59.301 Y103.522 E29.21894
G1 X58.601 Y102.305 E29.28898
G1 X57.754 Y100.64 E29.38218
G1 X57.091 Y99.159 E29.46313
G1 X56.517 Y97.679 E29.54233
G1 X55.993 Y96.097 E29.62547
G1 X55.567 Y94.558 E29.70514
G1 X55.185 Y92.838 E29.79304
G1 X54.908 Y91.218 E29.87504
G1 X54.712 Y89.585 E29.95709
G1 X54.598 Y87.947 E30.03901
G1 X54.566 Y86.305 E30.12095
G1 X54.616 Y84.667 E30.2027
G1 X54.747 Y83.033 E30.28449
G1 X54.96 Y81.398 E30.36675
G1 X55.235 Y79.881 E30.44366
G1 X55.63 Y78.195 E30.53006
G1 X56.055 Y76.701 E30.60755
G1 X56.592 Y75.13 E30.69038
G1 X57.196 Y73.608 E30.77207
G1 X57.895 Y72.064 E30.85663
G1 X58.528 Y70.834 E30.92564
G1 X59.496 Y69.168 E31.02177
G1 X60.352 Y67.854 E31.10001
G1 X61.362 Y66.465 E31.18569
G1 X62.339 Y65.25 E31.26347
G1 X63.427 Y64.024 E31.34525
G0 F3600 X63.726 Y64.29
G1 F2550 X64.904 Y63.1 E31.42879
G1 X66.102 Y61.989 E31.51031
G1 X67.212 Y61.063 E31.58242
G1 X68.643 Y59.988 E31.67172
G1 X70.012 Y59.067 E31.75403
G1 X71.36 Y58.255 E31.83255
G1 X72.789 Y57.481 E31.91362
G1 X74.292 Y56.771 E31.99655
G1 X75.749 Y56.167 E32.07524
G1 X77.293 Y55.613 E32.15708
G1 X78.843 Y55.133 E32.23804
G1 X80.105 Y54.812 E32.303
G1 X82.039 Y54.426 E32.40139
G1 X83.616 Y54.2 E32.48087
G1 X85.233 Y54.038 E32.56195
G1 X86.524 Y53.974 E32.62644
G1 X88.315 Y53.974 E32.71579
G1 X89.988 Y54.058 E32.79936
G1 X91.544 Y54.217 E32.87739
G1 X93.274 Y54.479 E32.96469
G1 X94.894 Y54.818 E33.04726
G1 X96.465 Y55.232 E33.12831
G1 X98.035 Y55.719 E33.21032
G1 X99.467 Y56.245 E33.28643
G1 X101.046 Y56.92 E33.37211
G1 X102.502 Y57.63 E33.45292
G1 X103.854 Y58.374 E33.52991
G1 X105.209 Y59.21 E33.60935
G1 X106.597 Y60.161 E33.69329
G1 X107.91 Y61.159 E33.77557
G1 X108.908 Y61.995 E33.84052
G1 X110.343 Y63.329 E33.93827
G1 X111.305 Y64.32 E34.00717
G1 X112.525 Y65.704 E34.09922
G1 X113.393 Y66.791 E34.16862
G1 X114.442 Y68.267 E34.25896
G1 X115.351 Y69.678 E34.3427
G1 X116.062 Y70.913 E34.41379
G1 X116.88 Y72.521 E34.5038
G1 X117.536 Y73.986 E34.58388
G1 X118.103 Y75.447 E34.66207
G1 X118.615 Y76.99 E34.74318
G1 X119.052 Y78.57 E34.82496
G1 X119.421 Y80.231 E34.90985
G1 X119.694 Y81.825 E34.99053
G1 X119.89 Y83.445 E35.07194
G1 X120.002 Y85.057 E35.15256
G1 X120.035 Y86.687 E35.2339
G1 X119.985 Y88.292 E35.31401
G1 X119.861 Y89.892 E35.39408
G1 X119.645 Y91.513 E35.47566
G1 X119.376 Y93.027 E35.55238
G1 X118.981 Y94.704 E35.63833
G1 X118.536 Y96.256 E35.71888
G1 X118.022 Y97.778 E35.79903
G1 X117.532 Y99.031 E35.86615
G1 X116.756 Y100.736 E35.95961
G1 X116.066 Y102.073 E36.03467
G1 X115.174 Y103.607 E36.1232
G1 X114.311 Y104.937 E36.2023
G1 X113.425 Y106.162 E36.27773
G1 X112.32 Y107.533 E36.36558
G1 X111.292 Y108.689 E36.44276
G1 X110.096 Y109.901 E36.52771
G1 X108.902 Y111.01 E36.60901
G1 X107.855 Y111.886 E36.67711
G1 X106.397 Y112.984 E36.76817
G1 X105.014 Y113.917 E36.8514
G1 X103.662 Y114.735 E36.93024
G1 X102.224 Y115.512 E37.01179
G1 X100.863 Y116.165 E37.0871
G1 X99.251 Y116.833 E37.17415
G1 X97.707 Y117.387 E37.25599
G1 X96.157 Y117.867 E37.33694
G1 X94.895 Y118.188 E37.40191
G1 X92.961 Y118.574 E37.5003
G1 X91.381 Y118.8 E37.57993
G1 X89.74 Y118.962 E37.6622
G1 X88.169 Y119.026 E37.74064
G1 X86.525 Y119.011 E37.82266
G1 X84.889 Y118.929 E37.90439
G1 X83.452 Y118.778 E37.97647
G1 X81.693 Y118.508 E38.06526
G1 X80.134 Y118.191 E38.14463
G1 X78.693 Y117.822 E38.21884
G1 X77.015 Y117.3 E38.30651
G1 X75.574 Y116.77 E38.38311
G1 X74.011 Y116.104 E38.46788
G1 X72.59 Y115.421 E38.54653
G1 X71.142 Y114.623 E38.62902
G1 X69.718 Y113.744 E38.71251
G1 X68.498 Y112.912 E38.78618
G1 X67.1 Y111.843 E38.87398
G1 X65.841 Y110.771 E38.95648
G1 X64.661 Y109.67 E39.03699
G1 X63.653 Y108.633 E39.10914
G1 X62.461 Y107.27 E39.19948
G1 X61.457 Y105.997 E39.28037
G1 X60.528 Y104.688 E39.36045
G1 X59.648 Y103.322 E39.44151
G1 X58.958 Y102.124 E39.51049
G1 X58.111 Y100.459 E39.60369
G1 X57.464 Y99.014 E39.68267
G1 X56.897 Y97.553 E39.76086
G1 X56.379 Y95.99 E39.84301
G1 X55.953 Y94.451 E39.92268
G1 X55.579 Y92.77 E40.00859
G1 X55.305 Y91.17 E40.08958
G1 X55.111 Y89.557 E40.17063
G1 X54.998 Y87.939 E40.25155
G1 X54.966 Y86.317 E40.33249
G1 X55.015 Y84.699 E40.41325
G1 X55.144 Y83.085 E40.49403
G1 X55.354 Y81.469 E40.57533
G1 X55.629 Y79.952 E40.65224
G1 X56.015 Y78.304 E40.73669
G1 X56.44 Y76.81 E40.81418
G1 X56.964 Y75.278 E40.89496
G1 X57.568 Y73.756 E40.97665
G1 X58.251 Y72.247 E41.05929
G1 X58.874 Y71.035 E41.12728
G1 X59.831 Y69.386 E41.2224
G1 X60.675 Y68.089 E41.2996
G1 X61.674 Y66.716 E41.38431
G1 X62.638 Y65.516 E41.46111
G1 X63.726 Y64.29 E41.54288
G0 F3600 X64.025 Y64.556
G1 F2550 X65.176 Y63.393 E41.62452
G1 X66.358 Y62.296 E41.70497
G1 X67.452 Y61.383 E41.77606
G1 X68.866 Y60.32 E41.86432
G1 X70.218 Y59.41 E41.94562
G1 X71.551 Y58.607 E42.02326
G1 X72.96 Y57.843 E42.10323
G1 X74.445 Y57.141 E42.18517
G1 X75.902 Y56.537 E42.26386
G1 X77.411 Y55.995 E42.34386
G1 X78.942 Y55.521 E42.42382
G1 X80.204 Y55.2 E42.48878
G1 X82.096 Y54.822 E42.58504
G1 X83.656 Y54.598 E42.66367
G1 X85.253 Y54.438 E42.74374
G1 X86.544 Y54.374 E42.80823
G1 X88.315 Y54.374 E42.89658
G1 X89.947 Y54.456 E42.97811
G1 X91.503 Y54.615 E43.05614
G1 X93.192 Y54.871 E43.14137
G1 X94.792 Y55.205 E43.22291
G1 X96.347 Y55.614 E43.30313
G1 X97.897 Y56.094 E43.38408
G1 X99.31 Y56.613 E43.45918
