;FLAVOR:Marlin
;TIME:3215
;Filament used: 4.12173m
;Layer height: 0.2
;MINX:33.2
;MINY:32.2
;MINZ:0.3
;MAXX:141.8
;MAXY:109.3
;MAXZ:14.9
;TARGET_MACHINE.NAME:Unknown
;Generated with Cura_SteamEngine 5.10.0
M104 S200
M105
M109 S200
G28 ;Home
G1 Z15.0 F6000 ;Move the platform down 15mm
;Prime the extruder
G92 E0
G1 F200 E3
G92 E0
M82 ;absolute extrusion mode
G92 E0
G92 E0
G1 F1500 E-6.5
;LAYER_COUNT:74
;LAYER:0
M107
G0 F3600 X41.177 Y66.655 Z0.3
;TYPE:SKIRT
G1 F1500 E0
G1 F2250 X42.697 Y65.759 E0.08803
G1 X44.27 Y65.022 E0.17469
G1 X45.643 Y64.53 E0.24746
G1 X47.898 Y63.97 E0.36338
G1 X48.871 Y63.826 E0.41245
G1 X50.529 Y63.705 E0.49539
G1 X62.169 Y63.746 E1.07611
G1 X64.65 Y64.068 E1.20093
G1 X65.216 Y64.212 E1.23006
G1 X65.003 Y63.285 E1.27752
G1 X64.869 Y62.448 E1.31981
G1 X64.7 Y60.364 E1.42412
G1 X64.719 Y49.485 E1.96688
G1 X64.875 Y47.437 E2.06935
G1 X65.054 Y46.454 E2.1192
G1 X65.485 Y44.777 E2.20558
G1 X65.928 Y43.485 E2.27372
G1 X66.533 Y42.126 E2.34794
G1 X67.147 Y40.994 E2.41219
G1 X68.335 Y39.227 E2.51841
G1 X69.269 Y38.079 E2.59225
G1 X70.059 Y37.258 E2.64909
G1 X71.676 Y35.861 E2.7557
G1 X72.677 Y35.155 E2.81681
G1 X74.197 Y34.259 E2.90484
G1 X75.77 Y33.522 E2.99151
G1 X77.143 Y33.03 E3.06427
G1 X79.424 Y32.47 E3.18145
G1 X80.722 Y32.287 E3.24685
G1 X81.574 Y32.219 E3.28949
G1 X92.868 Y32.2 E3.85295
G1 X96.151 Y32.568 E4.01777
G1 X97.428 Y32.893 E4.08351
G1 X98.579 Y33.273 E4.14398
G1 X100.29 Y33.998 E4.23669
G1 X101.531 Y34.651 E4.30665
G1 X102.599 Y35.33 E4.36979
G1 X104.364 Y36.72 E4.48187
G1 X105.245 Y37.563 E4.54271
G1 X106.747 Y39.317 E4.65791
G1 X107.37 Y40.206 E4.71207
G1 X108.151 Y41.52 E4.78833
G1 X108.796 Y42.829 E4.86114
G1 X109.307 Y44.145 E4.93157
G1 X109.602 Y45.082 E4.98058
G1 X109.947 Y46.488 E5.05281
G1 X110.161 Y47.836 E5.1209
G1 X110.3 Y49.636 E5.21097
G1 X110.281 Y60.523 E5.75413
G1 X110.143 Y62.368 E5.84643
G1 X109.8 Y64.241 E5.94143
G1 X110.898 Y63.97 E5.99785
G1 X111.871 Y63.826 E6.04692
G1 X113.529 Y63.705 E6.12986
G1 X125.169 Y63.746 E6.71059
G1 X127.651 Y64.068 E6.83545
G1 X128.928 Y64.393 E6.90119
G1 X130.079 Y64.773 E6.96166
G1 X131.79 Y65.498 E7.05437
G1 X133.031 Y66.151 E7.12434
G1 X134.099 Y66.83 E7.18748
G1 X135.864 Y68.22 E7.29956
G1 X136.745 Y69.063 E7.36039
G1 X138.247 Y70.817 E7.4756
G1 X138.87 Y71.706 E7.52976
G1 X139.651 Y73.02 E7.60602
G1 X140.296 Y74.329 E7.67883
G1 X140.807 Y75.645 E7.74926
G1 X141.102 Y76.582 E7.79827
G1 X141.447 Y77.988 E7.87049
G1 X141.661 Y79.336 E7.93859
G1 X141.8 Y81.136 E8.02866
G1 X141.781 Y92.023 E8.57181
G1 X141.643 Y93.868 E8.66412
G1 X141.299 Y95.75 E8.75957
G1 X141.083 Y96.531 E8.79999
G1 X140.552 Y98.03 E8.87933
G1 X139.997 Y99.291 E8.94807
G1 X139.255 Y100.666 E9.02602
G1 X138.412 Y101.963 E9.10319
G1 X137.654 Y102.936 E9.16473
G1 X136.164 Y104.507 E9.27275
G1 X135.027 Y105.483 E9.34751
G1 X133.593 Y106.498 E9.43516
G1 X132.647 Y107.062 E9.4901
G1 X131.245 Y107.761 E9.56826
G1 X130.339 Y108.135 E9.61716
G1 X128.899 Y108.611 E9.69283
G1 X127.407 Y108.976 E9.76946
G1 X124.923 Y109.281 E9.89432
G1 X123.999 Y109.3 E9.94042
G1 X113.065 Y109.28 E10.48593
G1 X112.138 Y109.209 E10.53231
G1 X110.11 Y108.867 E10.63491
G1 X108.918 Y108.553 E10.69641
G1 X106.352 Y107.581 E10.83331
G1 X104.963 Y106.836 E10.91194
G1 X103.768 Y106.059 E10.98306
G1 X103.269 Y105.671 E11.01459
G1 X102.093 Y106.498 E11.08632
G1 X101.147 Y107.062 E11.14127
G1 X99.745 Y107.761 E11.21942
G1 X98.839 Y108.135 E11.26832
G1 X97.365 Y108.621 E11.34576
G1 X95.9 Y108.978 E11.42098
G1 X93.423 Y109.281 E11.54548
G1 X92.499 Y109.3 E11.59159
G1 X81.565 Y109.28 E12.13709
G1 X80.638 Y109.209 E12.18348
G1 X78.61 Y108.867 E12.28608
G1 X77.418 Y108.553 E12.34758
G1 X74.852 Y107.581 E12.48447
G1 X73.463 Y106.836 E12.56311
G1 X72.268 Y106.059 E12.63422
G1 X71.769 Y105.671 E12.66576
G1 X70.593 Y106.498 E12.73748
G1 X69.647 Y107.062 E12.79243
G1 X68.245 Y107.761 E12.87059
G1 X67.339 Y108.135 E12.91949
G1 X65.865 Y108.621 E12.99692
G1 X64.4 Y108.978 E13.07215
G1 X61.923 Y109.281 E13.19665
G1 X60.999 Y109.3 E13.24276
G1 X50.065 Y109.28 E13.78826
G1 X49.138 Y109.209 E13.83464
G1 X47.11 Y108.867 E13.93725
G1 X45.878 Y108.54 E14.00084
G1 X43.305 Y107.56 E14.1382
G1 X42.021 Y106.87 E14.21093
G1 X40.74 Y106.04 E14.28708
G1 X39.199 Y104.834 E14.3847
G1 X37.933 Y103.583 E14.4735
G1 X36.733 Y102.153 E14.56663
G1 X36.126 Y101.277 E14.6198
G1 X35.237 Y99.77 E14.7071
G1 X34.682 Y98.62 E14.7708
G1 X34.157 Y97.262 E14.84344
G1 X33.835 Y96.231 E14.89733
G1 X33.503 Y94.785 E14.97135
G1 X33.369 Y93.948 E15.01364
G1 X33.2 Y91.864 E15.11795
G1 X33.219 Y80.985 E15.6607
G1 X33.375 Y78.937 E15.76318
G1 X33.554 Y77.954 E15.81302
G1 X33.985 Y76.277 E15.89941
G1 X34.428 Y74.985 E15.96755
G1 X35.033 Y73.626 E16.04177
G1 X35.647 Y72.494 E16.10601
G1 X36.835 Y70.727 E16.21224
G1 X37.769 Y69.579 E16.28608
G1 X38.559 Y68.758 E16.34292
G1 X40.176 Y67.361 E16.44953
G1 X41.177 Y66.655 E16.51064
G0 F3600 X41.38 Y67
G1 F2250 X42.9 Y66.104 E16.59867
G1 X44.405 Y65.399 E16.68158
G1 X45.778 Y64.907 E16.75435
G1 X47.957 Y64.366 E16.86636
G1 X48.93 Y64.222 E16.91543
G1 X50.528 Y64.105 E16.99537
G1 X62.118 Y64.143 E17.5736
G1 X64.552 Y64.456 E17.69603
G1 X65.753 Y64.761 E17.75785
G1 X65.393 Y63.195 E17.83802
G1 X65.268 Y62.415 E17.87743
G1 X65.1 Y60.365 E17.98005
G1 X65.118 Y49.515 E18.52136
G1 X65.269 Y47.509 E18.62172
G1 X65.448 Y46.526 E18.67157
G1 X65.864 Y44.906 E18.75501
G1 X66.294 Y43.647 E18.82139
G1 X66.885 Y42.317 E18.894
G1 X67.499 Y41.185 E18.95825
G1 X68.646 Y39.479 E19.06081
G1 X69.558 Y38.356 E19.13298
G1 X70.321 Y37.561 E19.18796
G1 X71.938 Y36.164 E19.29457
G1 X72.88 Y35.5 E19.35206
G1 X74.4 Y34.604 E19.44009
G1 X75.905 Y33.899 E19.52301
G1 X77.278 Y33.407 E19.59577
G1 X79.48 Y32.866 E19.7089
G1 X80.754 Y32.686 E19.77309
G1 X81.606 Y32.618 E19.81573
G1 X92.869 Y32.6 E20.37764
G1 X96.052 Y32.956 E20.53743
G1 X97.329 Y33.281 E20.60318
G1 X98.453 Y33.653 E20.66224
G1 X100.104 Y34.352 E20.75169
G1 X101.316 Y34.989 E20.82
G1 X102.384 Y35.668 E20.88314
G1 X104.087 Y37.009 E20.99128
G1 X104.968 Y37.852 E21.05211
G1 X106.419 Y39.547 E21.16343
G1 X107.042 Y40.436 E21.21759
G1 X107.792 Y41.697 E21.29079
G1 X108.423 Y42.974 E21.36185
G1 X108.934 Y44.29 E21.43228
G1 X109.214 Y45.178 E21.47874
G1 X109.552 Y46.551 E21.54928
G1 X109.762 Y47.867 E21.61577
G1 X109.9 Y49.635 E21.70424
G1 X109.882 Y60.493 E22.24595
G1 X109.744 Y62.338 E22.33825
G1 X109.413 Y64.143 E22.42981
G1 X109.233 Y64.793 E22.46346
G1 X110.957 Y64.366 E22.55207
G1 X111.93 Y64.222 E22.60114
G1 X113.528 Y64.105 E22.68108
G1 X125.118 Y64.143 E23.25931
G1 X127.552 Y64.456 E23.38174
G1 X128.829 Y64.781 E23.44748
G1 X129.953 Y65.153 E23.50655
G1 X131.604 Y65.852 E23.59599
G1 X132.816 Y66.489 E23.6643
G1 X133.884 Y67.168 E23.72744
G1 X135.587 Y68.509 E23.83559
G1 X136.468 Y69.352 E23.89642
G1 X137.919 Y71.047 E24.00774
G1 X138.542 Y71.936 E24.0619
G1 X139.292 Y73.197 E24.13509
G1 X139.923 Y74.474 E24.20616
G1 X140.434 Y75.79 E24.27659
G1 X140.714 Y76.678 E24.32304
G1 X141.052 Y78.051 E24.39358
G1 X141.262 Y79.367 E24.46007
G1 X141.4 Y81.135 E24.54855
G1 X141.382 Y91.993 E25.09025
G1 X141.244 Y93.838 E25.18256
G1 X140.913 Y95.643 E25.27411
G1 X140.697 Y96.424 E25.31454
G1 X140.186 Y97.869 E25.39101
G1 X139.645 Y99.101 E25.45813
G1 X138.903 Y100.476 E25.53608
G1 X138.096 Y101.717 E25.60994
G1 X137.338 Y102.69 E25.67147
G1 X135.903 Y104.203 E25.77551
G1 X134.766 Y105.179 E25.85027
G1 X133.388 Y106.154 E25.93448
G1 X132.442 Y106.718 E25.98943
G1 X131.092 Y107.391 E26.06469
G1 X130.186 Y107.765 E26.11359
G1 X128.804 Y108.222 E26.18621
G1 X127.312 Y108.587 E26.26284
G1 X124.915 Y108.881 E26.38332
G1 X124 Y108.9 E26.42898
G1 X113.096 Y108.881 E26.97299
G1 X112.169 Y108.81 E27.01937
G1 X110.212 Y108.48 E27.11838
G1 X109.02 Y108.166 E27.17988
G1 X106.541 Y107.228 E27.31212
G1 X105.181 Y106.5 E27.38908
G1 X104.014 Y105.743 E27.45847
G1 X103.281 Y105.173 E27.5048
G1 X101.888 Y106.154 E27.5898
G1 X100.942 Y106.718 E27.64475
G1 X99.592 Y107.391 E27.72
G1 X98.686 Y107.765 E27.7689
G1 X97.27 Y108.232 E27.84329
G1 X95.805 Y108.589 E27.91852
G1 X93.415 Y108.881 E28.03864
G1 X92.5 Y108.9 E28.0843
G1 X81.596 Y108.881 E28.62831
G1 X80.669 Y108.81 E28.67469
G1 X78.712 Y108.48 E28.7737
G1 X77.52 Y108.166 E28.8352
G1 X75.041 Y107.228 E28.96744
G1 X73.681 Y106.5 E29.0444
G1 X72.514 Y105.743 E29.1138
G1 X71.781 Y105.173 E29.16012
G1 X70.388 Y106.154 E29.24512
G1 X69.442 Y106.718 E29.30007
G1 X68.092 Y107.391 E29.37533
G1 X67.186 Y107.765 E29.42423
G1 X65.77 Y108.232 E29.49861
G1 X64.305 Y108.589 E29.57384
G1 X61.915 Y108.881 E29.69397
G1 X61 Y108.9 E29.73963
G1 X50.096 Y108.881 E30.28363
G1 X49.169 Y108.81 E30.33001
G1 X47.212 Y108.48 E30.42903
G1 X46.02 Y108.166 E30.49052
G1 X43.494 Y107.207 E30.62532
G1 X42.239 Y106.534 E30.69637
G1 X40.958 Y105.704 E30.77252
G1 X39.48 Y104.549 E30.86611
G1 X38.214 Y103.298 E30.9549
G1 X37.062 Y101.925 E31.04432
G1 X36.471 Y101.074 E31.09601
G1 X35.582 Y99.567 E31.1833
G1 X35.055 Y98.476 E31.24375
G1 X34.539 Y97.142 E31.31511
G1 X34.225 Y96.141 E31.36745
G1 X33.893 Y94.695 E31.44146
G1 X33.768 Y93.915 E31.48088
G1 X33.6 Y91.865 E31.58349
G1 X33.618 Y81.015 E32.1248
G1 X33.769 Y79.009 E32.22517
G1 X33.948 Y78.026 E32.27501
G1 X34.364 Y76.406 E32.35846
G1 X34.794 Y75.147 E32.42483
G1 X35.385 Y73.817 E32.49744
G1 X35.999 Y72.685 E32.56169
G1 X37.146 Y70.979 E32.66425
G1 X38.058 Y69.856 E32.73643
G1 X38.821 Y69.061 E32.7914
G1 X40.438 Y67.664 E32.89801
G1 X41.38 Y67 E32.95551
G0 F3600 X41.583 Y67.345
G1 F2250 X43.103 Y66.449 E33.04354
G1 X44.54 Y65.776 E33.1227
G1 X45.913 Y65.284 E33.19547
G1 X48.016 Y64.762 E33.30357
G1 X48.989 Y64.618 E33.35264
G1 X50.527 Y64.505 E33.42958
G1 X62.067 Y64.54 E34.00532
G1 X64.453 Y64.844 E34.12532
G1 X65.73 Y65.169 E34.19106
G1 X66.377 Y65.382 E34.22504
G1 X66.115 Y64.551 E34.26851
G1 X65.783 Y63.105 E34.34253
G1 X65.667 Y62.382 E34.37906
G1 X65.5 Y60.366 E34.47998
G1 X65.517 Y49.545 E35.01985
G1 X65.663 Y47.581 E35.1181
G1 X65.842 Y46.598 E35.16795
G1 X66.243 Y45.035 E35.24845
G1 X66.673 Y43.776 E35.31483
G1 X67.237 Y42.508 E35.38406
G1 X67.851 Y41.376 E35.44831
G1 X68.957 Y39.731 E35.54721
G1 X69.847 Y38.633 E35.61772
G1 X70.583 Y37.864 E35.67083
G1 X72.2 Y36.467 E35.77744
G1 X73.083 Y35.845 E35.83132
G1 X74.603 Y34.949 E35.91935
G1 X76.04 Y34.276 E35.99852
G1 X77.413 Y33.784 E36.07128
G1 X79.536 Y33.262 E36.18035
G1 X80.786 Y33.085 E36.24334
G1 X81.638 Y33.017 E36.28598
G1 X92.87 Y33 E36.84634
G1 X95.953 Y33.344 E37.00111
G1 X97.23 Y33.669 E37.06685
G1 X98.327 Y34.033 E37.12452
G1 X99.918 Y34.706 E37.2107
G1 X101.101 Y35.327 E37.27736
G1 X102.169 Y36.006 E37.3405
G1 X103.81 Y37.298 E37.4447
G1 X104.691 Y38.141 E37.50553
G1 X106.091 Y39.777 E37.61296
G1 X106.714 Y40.666 E37.66712
G1 X107.433 Y41.874 E37.73725
G1 X108.064 Y43.151 E37.80831
G1 X108.561 Y44.434 E37.87696
G1 X108.826 Y45.274 E37.9209
G1 X109.157 Y46.614 E37.98976
G1 X109.363 Y47.898 E38.05464
G1 X109.5 Y49.634 E38.14152
G1 X109.483 Y60.463 E38.68178
G1 X109.345 Y62.308 E38.77409
G1 X109.027 Y64.036 E38.86174
G1 X108.811 Y64.817 E38.90217
G1 X108.607 Y65.393 E38.93266
G1 X108.913 Y65.284 E38.94886
G1 X111.016 Y64.762 E39.05697
G1 X111.989 Y64.618 E39.10604
G1 X113.527 Y64.505 E39.18298
G1 X125.067 Y64.54 E39.75871
G1 X127.453 Y64.844 E39.87871
G1 X128.73 Y65.169 E39.94445
G1 X129.827 Y65.533 E40.00212
G1 X131.418 Y66.206 E40.0883
G1 X132.601 Y66.827 E40.15496
G1 X133.669 Y67.506 E40.2181
G1 X135.31 Y68.798 E40.3223
G1 X136.191 Y69.641 E40.38313
G1 X137.591 Y71.277 E40.49056
G1 X138.214 Y72.166 E40.54472
G1 X138.933 Y73.374 E40.61485
G1 X139.564 Y74.651 E40.68591
G1 X140.061 Y75.934 E40.75456
G1 X140.326 Y76.774 E40.7985
G1 X140.657 Y78.114 E40.86736
G1 X140.863 Y79.398 E40.93224
G1 X141 Y81.134 E41.01912
G1 X140.983 Y91.963 E41.55938
G1 X140.845 Y93.808 E41.65169
G1 X140.527 Y95.536 E41.73934
G1 X140.311 Y96.317 E41.77977
G1 X139.82 Y97.708 E41.85337
G1 X139.293 Y98.911 E41.91889
G1 X138.551 Y100.286 E41.99684
G1 X137.78 Y101.471 E42.06737
G1 X137.022 Y102.444 E42.12891
G1 X135.642 Y103.899 E42.22895
G1 X134.505 Y104.875 E42.30371
G1 X133.183 Y105.81 E42.3845
G1 X132.237 Y106.374 E42.43944
G1 X130.939 Y107.021 E42.5118
G1 X130.033 Y107.395 E42.5607
G1 X128.709 Y107.833 E42.63028
G1 X127.217 Y108.198 E42.70691
G1 X124.907 Y108.481 E42.82301
G1 X124.001 Y108.5 E42.86822
G1 X113.127 Y108.482 E43.41073
G1 X112.2 Y108.411 E43.45712
G1 X110.313 Y108.093 E43.55259
G1 X109.162 Y107.792 E43.61194
G1 X106.683 Y106.854 E43.74418
G1 X105.399 Y106.164 E43.8169
G1 X104.232 Y105.407 E43.8863
G1 X103.257 Y104.647 E43.94797
G1 X102.883 Y104.965 E43.97246
G1 X101.683 Y105.81 E44.04569
G1 X100.737 Y106.374 E44.10063
G1 X99.439 Y107.021 E44.17299
G1 X98.533 Y107.395 E44.22189
G1 X97.175 Y107.843 E44.29323
G1 X95.71 Y108.2 E44.36846
G1 X93.407 Y108.481 E44.48421
G1 X92.501 Y108.5 E44.52942
G1 X81.627 Y108.482 E45.07193
G1 X80.7 Y108.411 E45.11831
G1 X78.813 Y108.093 E45.21378
G1 X77.662 Y107.792 E45.27314
G1 X75.183 Y106.854 E45.40537
G1 X73.899 Y106.164 E45.47809
G1 X72.732 Y105.407 E45.54749
G1 X71.757 Y104.647 E45.60917
G1 X71.383 Y104.965 E45.63366
G1 X70.183 Y105.81 E45.70688
G1 X69.237 Y106.374 E45.76183
G1 X67.939 Y107.021 E45.83418
G1 X67.033 Y107.395 E45.88308
G1 X65.675 Y107.843 E45.95443
G1 X64.21 Y108.2 E46.02965
G1 X61.907 Y108.481 E46.1454
G1 X61.001 Y108.5 E46.19061
G1 X50.127 Y108.482 E46.73312
G1 X49.2 Y108.411 E46.77951
G1 X47.313 Y108.093 E46.87498
G1 X46.162 Y107.792 E46.93433
G1 X43.683 Y106.854 E47.06657
G1 X42.457 Y106.198 E47.13594
G1 X41.176 Y105.368 E47.21209
G1 X39.761 Y104.264 E47.30163
G1 X38.495 Y103.013 E47.39042
G1 X37.39 Y101.696 E47.47619
G1 X36.815 Y100.87 E47.5264
G1 X35.942 Y99.393 E47.612
G1 X35.428 Y98.332 E47.67082
G1 X34.921 Y97.022 E47.7409
G1 X34.615 Y96.051 E47.79169
G1 X34.283 Y94.605 E47.86571
G1 X34.167 Y93.882 E47.90224
G1 X34 Y91.866 E48.00316
G1 X34.017 Y81.045 E48.54303
G1 X34.163 Y79.081 E48.64128
G1 X34.342 Y78.098 E48.69113
G1 X34.743 Y76.535 E48.77163
G1 X35.173 Y75.276 E48.83801
G1 X35.737 Y74.008 E48.90724
G1 X36.351 Y72.876 E48.97149
G1 X37.457 Y71.231 E49.07039
G1 X38.347 Y70.133 E49.1409
G1 X39.083 Y69.364 E49.19401
G1 X40.7 Y67.967 E49.30062
G1 X41.583 Y67.345 E49.3545
G0 F3600 X41.786 Y67.69
G1 F2250 X43.306 Y66.794 E49.44253
G1 X44.675 Y66.153 E49.51795
G1 X46.048 Y65.661 E49.59071
G1 X48.075 Y65.158 E49.6949
G1 X49.048 Y65.014 E49.74398
G1 X50.526 Y64.905 E49.81791
G1 X62.017 Y64.937 E50.39121
G1 X64.354 Y65.232 E50.50872
G1 X65.631 Y65.557 E50.57446
G1 X66.672 Y65.902 E50.62918
G1 X67.059 Y66.063 E50.65009
G1 X66.803 Y65.402 E50.68545
G1 X66.497 Y64.431 E50.73625
G1 X66.178 Y63.041 E50.8074
G1 X66.066 Y62.349 E50.84237
G1 X65.9 Y60.367 E50.9416
G1 X65.916 Y49.574 E51.48006
G1 X66.057 Y47.653 E51.57616
G1 X66.236 Y46.67 E51.62601
G1 X66.622 Y45.164 E51.70357
G1 X67.052 Y43.905 E51.76995
G1 X67.589 Y42.699 E51.83581
G1 X68.203 Y41.567 E51.90006
G1 X69.268 Y39.983 E51.99529
G1 X70.136 Y38.91 E52.06414
G1 X70.872 Y38.141 E52.11725
G1 X72.461 Y36.77 E52.22195
G1 X73.286 Y36.19 E52.27226
G1 X74.806 Y35.294 E52.36029
G1 X76.175 Y34.653 E52.43571
G1 X77.548 Y34.161 E52.50847
G1 X79.592 Y33.658 E52.61349
G1 X80.818 Y33.484 E52.67527
G1 X81.67 Y33.416 E52.71791
G1 X92.871 Y33.4 E53.27673
G1 X95.854 Y33.732 E53.42647
G1 X97.131 Y34.057 E53.49221
G1 X98.201 Y34.413 E53.54847
G1 X99.732 Y35.06 E53.63139
G1 X100.886 Y35.665 E53.6964
G1 X101.954 Y36.344 E53.75954
G1 X103.533 Y37.587 E53.8598
G1 X104.414 Y38.43 E53.92063
G1 X105.763 Y40.007 E54.02417
G1 X106.386 Y40.896 E54.07832
G1 X107.074 Y42.051 E54.1454
G1 X107.705 Y43.328 E54.21646
G1 X108.188 Y44.578 E54.28332
G1 X108.438 Y45.37 E54.32475
G1 X108.762 Y46.678 E54.39198
G1 X108.964 Y47.93 E54.45525
G1 X109.1 Y49.633 E54.54048
G1 X109.084 Y60.433 E55.0793
G1 X108.946 Y62.278 E55.1716
G1 X108.641 Y63.929 E55.25536
G1 X108.425 Y64.71 E55.29579
G1 X107.95 Y66.054 E55.36691
G1 X109.048 Y65.661 E55.42509
G1 X111.075 Y65.158 E55.52929
G1 X112.048 Y65.014 E55.57836
G1 X113.526 Y64.905 E55.6523
G1 X125.017 Y64.937 E56.22559
G1 X127.354 Y65.232 E56.3431
