;FLAVOR:Marlin
;TIME:4466
;Filament used: 1.34913m
;Layer height: 0.15
;MINX:53.803
;MINY:70.564
;MINZ:0.3
;MAXX:117.295
;MAXY:102.625
;MAXZ:48
;TARGET_MACHINE.NAME:Unknown
;Generated with Cura_SteamEngine 5.10.0
M104 S200
M105
M109 S200
G28 ;Home
G1 Z15.0 F6000 ;Move the platform down 15mm
;Prime the extruder
G92 E0
G1 F200 E3
G92 E0
M82 ;absolute extrusion mode
G92 E0
G92 E0
G1 F1500 E-6.5
;LAYER_COUNT:319
;LAYER:0
M107
G0 F3600 X56.583 Y74.73 Z0.3
;TYPE:SKIRT
G1 F1500 E0
G1 F1800 X58.39 Y73.417 E0.04202
G1 X59.624 Y72.734 E0.06855
G1 X61.716 Y72.109 E0.10962
G1 X86.822 Y70.577 E0.58275
G1 X87.689 Y70.564 E0.59906
G1 X88.444 Y70.59 E0.61327
G1 X89.752 Y70.669 E0.63792
G1 X90.879 Y70.805 E0.65928
G1 X91.704 Y70.942 E0.67501
G1 X92.724 Y71.159 E0.69462
G1 X93.571 Y71.382 E0.7111
G1 X94.472 Y71.641 E0.72873
G1 X95.423 Y71.964 E0.74763
G1 X96.355 Y72.33 E0.76646
G1 X97.158 Y72.686 E0.78298
G1 X97.847 Y73.017 E0.79736
G1 X99.391 Y73.889 E0.83072
G1 X100.253 Y74.432 E0.84988
G1 X101.351 Y75.223 E0.87534
G1 X102.665 Y76.296 E0.90725
G1 X103.569 Y77.151 E0.93065
G1 X104.234 Y77.842 E0.94869
G1 X104.97 Y78.674 E0.96959
G1 X105.813 Y79.746 E0.99524
G1 X106.353 Y80.504 E1.01275
G1 X106.903 Y81.347 E1.03168
G1 X107.793 Y82.833 E1.06426
G1 X108.461 Y85.306 E1.11245
G1 X108.46 Y87.735 E1.15814
G1 X107.846 Y89.933 E1.20107
G1 X107.081 Y91.373 E1.23174
G1 X106.072 Y92.91 E1.26633
G1 X105.122 Y94.15 E1.29571
G1 X104.264 Y95.142 E1.32038
G1 X103.002 Y96.39 E1.35377
G1 X102.274 Y97.036 E1.37208
G1 X101.455 Y97.701 E1.39192
G1 X100.452 Y98.431 E1.41526
G1 X99.636 Y98.965 E1.4336
G1 X98.252 Y99.765 E1.46367
G1 X97.446 Y100.175 E1.48068
G1 X96.24 Y100.713 E1.50552
G1 X95.295 Y101.08 E1.52459
G1 X93.742 Y101.571 E1.55523
G1 X92.954 Y101.782 E1.57057
G1 X92.077 Y101.981 E1.58749
G1 X91.264 Y102.135 E1.60305
G1 X90.272 Y102.28 E1.62191
G1 X88.737 Y102.413 E1.6509
G1 X87.362 Y102.439 E1.67676
G1 X85.359 Y102.339 E1.71449
G1 X61.541 Y100.886 E2.16335
G1 X59.284 Y100.126 E2.20815
G1 X57.369 Y98.952 E2.2504
G1 X55.666 Y97.229 E2.29597
G1 X54.404 Y94.958 E2.34484
G1 X53.803 Y92.403 E2.39422
G1 X53.862 Y80.646 E2.61538
G1 X54.074 Y79.04 E2.64585
G1 X55.077 Y76.651 E2.69459
G1 X56.583 Y74.73 E2.7405
G0 F3600 X56.864 Y75.021
G1 F1800 X58.625 Y73.741 E2.78145
G1 X59.78 Y73.104 E2.80626
G1 X61.786 Y72.505 E2.84564
G1 X86.828 Y70.977 E3.31757
G1 X87.676 Y70.964 E3.33353
G1 X88.42 Y70.989 E3.34753
G1 X89.704 Y71.066 E3.37173
G1 X90.813 Y71.2 E3.39274
G1 X91.638 Y71.337 E3.40847
G1 X92.622 Y71.546 E3.42739
G1 X93.46 Y71.766 E3.44369
G1 X94.343 Y72.02 E3.46097
G1 X95.294 Y72.343 E3.47987
G1 X96.193 Y72.696 E3.49803
G1 X96.985 Y73.047 E3.51433
G1 X97.674 Y73.378 E3.52871
G1 X99.178 Y74.227 E3.56119
G1 X100.019 Y74.757 E3.57989
G1 X101.117 Y75.548 E3.60535
G1 X102.39 Y76.587 E3.63626
G1 X103.294 Y77.442 E3.65966
G1 X103.934 Y78.107 E3.67703
G1 X104.67 Y78.939 E3.69792
G1 X105.487 Y79.978 E3.72278
G1 X106.018 Y80.723 E3.73999
G1 X106.56 Y81.552 E3.75862
G1 X107.421 Y82.99 E3.79015
G1 X108.061 Y85.358 E3.83629
G1 X108.06 Y87.681 E3.87999
G1 X107.473 Y89.781 E3.92101
G1 X106.746 Y91.154 E3.95023
G1 X105.754 Y92.667 E3.98426
G1 X104.819 Y93.888 E4.01319
G1 X103.961 Y94.88 E4.03786
G1 X102.736 Y96.091 E4.07026
G1 X102.022 Y96.725 E4.08823
G1 X101.203 Y97.39 E4.10807
G1 X100.233 Y98.096 E4.13064
G1 X99.417 Y98.63 E4.14898
G1 X98.071 Y99.408 E4.17823
G1 X97.265 Y99.818 E4.19524
G1 X96.095 Y100.34 E4.21934
G1 X95.15 Y100.707 E4.2384
G1 X93.639 Y101.185 E4.26822
G1 X92.866 Y101.392 E4.28327
G1 X92.002 Y101.588 E4.29993
G1 X91.206 Y101.739 E4.31517
G1 X90.237 Y101.881 E4.3336
G1 X88.702 Y102.014 E4.36258
G1 X87.355 Y102.039 E4.38792
G1 X85.383 Y101.94 E4.42506
G1 X61.619 Y100.49 E4.87291
G1 X59.454 Y99.761 E4.91588
G1 X57.62 Y98.637 E4.95634
G1 X55.989 Y96.986 E5
G1 X54.78 Y94.811 E5.0468
G1 X54.203 Y92.359 E5.09419
G1 X54.259 Y80.698 E5.31354
G1 X54.464 Y79.145 E5.34301
G1 X55.425 Y76.856 E5.3897
G1 X56.864 Y75.021 E5.43357
G0 F3600 X57.145 Y75.312
G1 F1800 X58.86 Y74.065 E5.47346
G1 X59.938 Y73.474 E5.49658
G1 X61.856 Y72.901 E5.53424
G1 X86.834 Y71.377 E6.00496
G1 X87.663 Y71.364 E6.02056
G1 X88.396 Y71.388 E6.03435
G1 X89.656 Y71.463 E6.05809
G1 X90.747 Y71.595 E6.07877
G1 X91.572 Y71.732 E6.0945
G1 X92.521 Y71.933 E6.11274
G1 X93.349 Y72.15 E6.12885
G1 X94.214 Y72.399 E6.14578
G1 X95.165 Y72.722 E6.16467
G1 X96.031 Y73.062 E6.18217
G1 X96.812 Y73.408 E6.19824
G1 X97.501 Y73.739 E6.21262
G1 X98.965 Y74.566 E6.24425
G1 X99.785 Y75.082 E6.26247
G1 X100.883 Y75.873 E6.28793
G1 X102.115 Y76.878 E6.31783
G1 X103.019 Y77.733 E6.34124
G1 X103.634 Y78.372 E6.35792
G1 X104.37 Y79.204 E6.37882
G1 X105.161 Y80.21 E6.40289
G1 X105.683 Y80.942 E6.4198
G1 X106.217 Y81.758 E6.43815
G1 X107.05 Y83.149 E6.46864
G1 X107.661 Y85.41 E6.5127
G1 X107.66 Y87.627 E6.5544
G1 X107.1 Y89.63 E6.59353
G1 X106.411 Y90.935 E6.62128
G1 X105.419 Y92.448 E6.65532
G1 X104.516 Y93.626 E6.68324
G1 X103.658 Y94.618 E6.70791
G1 X102.471 Y95.792 E6.73931
G1 X101.77 Y96.414 E6.75694
G1 X100.951 Y97.079 E6.77679
G1 X100.014 Y97.761 E6.79859
G1 X99.198 Y98.295 E6.81693
G1 X97.89 Y99.051 E6.84535
G1 X97.084 Y99.461 E6.86236
G1 X95.95 Y99.967 E6.88572
G1 X95.005 Y100.334 E6.90479
G1 X93.536 Y100.799 E6.93377
G1 X92.778 Y101.002 E6.94853
G1 X91.927 Y101.195 E6.96495
G1 X91.148 Y101.343 E6.97986
G1 X90.202 Y101.482 E6.99785
G1 X88.667 Y101.615 E7.02683
G1 X87.375 Y101.639 E7.05114
G1 X85.407 Y101.541 E7.0882
G1 X61.697 Y100.094 E7.53503
G1 X59.624 Y99.396 E7.57617
G1 X57.869 Y98.32 E7.6149
G1 X56.313 Y96.746 E7.65653
G1 X55.156 Y94.664 E7.70134
G1 X54.603 Y92.315 E7.74673
G1 X54.656 Y80.75 E7.96428
G1 X54.854 Y79.25 E7.99274
G1 X55.773 Y77.061 E8.03739
G1 X57.145 Y75.312 E8.07921
G0 F3600 X57.426 Y75.602
G1 F1800 X59.052 Y74.416 E8.11707
G1 X60.095 Y73.844 E8.13944
G1 X61.926 Y73.297 E8.17539
G1 X86.84 Y71.777 E8.64491
G1 X87.65 Y71.764 E8.66015
G1 X88.372 Y71.787 E8.67373
G1 X89.608 Y71.86 E8.69702
G1 X90.681 Y71.99 E8.71736
G1 X91.506 Y72.127 E8.73309
G1 X92.42 Y72.32 E8.75066
G1 X93.238 Y72.534 E8.76656
G1 X94.085 Y72.778 E8.78314
G1 X95.036 Y73.101 E8.80204
G1 X95.869 Y73.428 E8.81887
G1 X96.639 Y73.769 E8.83471
G1 X97.328 Y74.1 E8.84909
G1 X98.752 Y74.905 E8.87986
G1 X99.551 Y75.407 E8.89761
G1 X100.649 Y76.198 E8.92306
G1 X101.84 Y77.169 E8.95197
G1 X102.744 Y78.024 E8.97538
G1 X103.334 Y78.637 E8.99138
G1 X104.07 Y79.469 E9.01227
G1 X104.835 Y80.442 E9.03556
G1 X105.348 Y81.161 E9.05217
G1 X105.874 Y81.964 E9.07023
G1 X106.679 Y83.308 E9.0997
G1 X107.261 Y85.462 E9.14167
G1 X107.26 Y87.573 E9.18138
G1 X106.727 Y89.479 E9.21861
G1 X106.057 Y90.748 E9.2456
G1 X105.101 Y92.205 E9.27838
G1 X104.213 Y93.364 E9.30584
G1 X103.355 Y94.356 E9.33052
G1 X102.205 Y95.493 E9.36094
G1 X101.518 Y96.103 E9.37822
G1 X100.699 Y96.768 E9.39806
G1 X99.795 Y97.426 E9.41909
G1 X98.979 Y97.96 E9.43744
G1 X97.709 Y98.694 E9.46503
G1 X96.903 Y99.104 E9.48204
G1 X95.805 Y99.594 E9.50466
G1 X94.86 Y99.961 E9.52373
G1 X93.433 Y100.413 E9.55188
G1 X92.69 Y100.612 E9.56635
G1 X91.852 Y100.802 E9.58252
G1 X91.09 Y100.947 E9.59711
G1 X90.167 Y101.083 E9.61466
G1 X88.632 Y101.216 E9.64364
G1 X87.368 Y101.239 E9.66742
G1 X85.431 Y101.142 E9.7039
G1 X61.775 Y99.698 E10.14971
G1 X59.794 Y99.031 E10.18903
G1 X58.12 Y98.005 E10.22596
G1 X56.636 Y96.503 E10.26568
G1 X55.532 Y94.517 E10.30842
G1 X55.003 Y92.271 E10.35183
G1 X55.053 Y80.802 E10.56757
G1 X55.244 Y79.355 E10.59502
G1 X56.121 Y77.266 E10.63764
G1 X57.426 Y75.602 E10.67742
G0 F3600 X57.707 Y75.892
G1 F1800 X59.245 Y74.767 E10.71326
G1 X60.254 Y74.213 E10.73492
G1 X61.996 Y73.693 E10.76911
G1 X86.847 Y72.177 E11.23744
G1 X87.638 Y72.164 E11.25233
G1 X88.349 Y72.186 E11.26571
G1 X89.56 Y72.257 E11.28852
G1 X90.616 Y72.385 E11.30853
G1 X91.423 Y72.518 E11.32392
G1 X92.319 Y72.707 E11.34114
G1 X93.127 Y72.918 E11.35685
G1 X93.956 Y73.157 E11.37308
G1 X94.907 Y73.48 E11.39197
G1 X95.707 Y73.794 E11.40814
G1 X96.466 Y74.13 E11.42375
G1 X97.155 Y74.461 E11.43813
G1 X98.539 Y75.244 E11.46804
G1 X99.317 Y75.732 E11.48532
G1 X100.415 Y76.523 E11.51077
G1 X101.587 Y77.479 E11.53922
G1 X102.456 Y78.302 E11.56174
G1 X103.034 Y78.902 E11.57741
G1 X103.77 Y79.734 E11.5983
G1 X104.509 Y80.674 E11.6208
G1 X105.022 Y81.393 E11.63741
G1 X105.531 Y82.169 E11.65487
G1 X106.307 Y83.465 E11.68328
G1 X106.861 Y85.514 E11.72321
G1 X106.86 Y87.519 E11.76092
G1 X106.354 Y89.328 E11.79626
G1 X105.703 Y90.561 E11.82249
G1 X104.784 Y91.962 E11.854
G1 X103.91 Y93.102 E11.88103
G1 X103.052 Y94.094 E11.9057
G1 X101.939 Y95.194 E11.93513
G1 X101.266 Y95.792 E11.95207
G1 X100.447 Y96.457 E11.97191
G1 X99.576 Y97.091 E11.99218
G1 X98.76 Y97.625 E12.01052
G1 X97.528 Y98.337 E12.03729
G1 X96.722 Y98.747 E12.0543
G1 X95.66 Y99.221 E12.07617
G1 X94.715 Y99.588 E12.09524
G1 X93.33 Y100.027 E12.12257
G1 X92.602 Y100.222 E12.13675
G1 X91.777 Y100.409 E12.15266
G1 X91.032 Y100.551 E12.16693
G1 X90.132 Y100.684 E12.18404
G1 X88.597 Y100.817 E12.21302
G1 X87.361 Y100.839 E12.23628
G1 X85.455 Y100.743 E12.27218
G1 X61.853 Y99.302 E12.71697
G1 X59.964 Y98.666 E12.75446
G1 X58.369 Y97.688 E12.78966
G1 X56.96 Y96.263 E12.82735
G1 X55.908 Y94.37 E12.86809
G1 X55.403 Y92.227 E12.90951
G1 X55.45 Y80.854 E13.12344
G1 X55.634 Y79.46 E13.14989
G1 X56.469 Y77.471 E13.19047
G1 X57.707 Y75.892 E13.22821
G0 F3600 X57.989 Y76.182
G1 F1800 X59.481 Y75.09 E13.26299
G1 X60.409 Y74.584 E13.28287
G1 X62.066 Y74.089 E13.3154
G1 X86.854 Y72.577 E13.78254
G1 X87.626 Y72.564 E13.79707
G1 X88.326 Y72.585 E13.81024
G1 X89.512 Y72.654 E13.83259
G1 X90.551 Y72.78 E13.85228
G1 X91.358 Y72.913 E13.86766
G1 X92.218 Y73.094 E13.88419
G1 X93.016 Y73.302 E13.8997
G1 X93.827 Y73.536 E13.91558
G1 X94.778 Y73.859 E13.93447
G1 X95.545 Y74.16 E13.94997
G1 X96.293 Y74.491 E13.96536
G1 X96.982 Y74.822 E13.97974
G1 X98.327 Y75.583 E14.00881
G1 X99.083 Y76.057 E14.02559
G1 X100.181 Y76.848 E14.05105
G1 X101.334 Y77.789 E14.07904
G1 X102.168 Y78.579 E14.10065
G1 X102.734 Y79.167 E14.116
G1 X103.47 Y79.999 E14.1369
G1 X104.183 Y80.906 E14.1586
G1 X104.696 Y81.625 E14.17521
G1 X105.188 Y82.375 E14.19209
G1 X105.936 Y83.624 E14.21947
G1 X106.461 Y85.566 E14.25731
G1 X106.46 Y87.465 E14.29303
G1 X105.98 Y89.179 E14.32652
G1 X105.368 Y90.342 E14.35124
G1 X104.466 Y91.719 E14.3822
G1 X103.607 Y92.84 E14.40877
G1 X102.749 Y93.832 E14.43344
G1 X101.673 Y94.895 E14.46189
G1 X101.014 Y95.481 E14.47848
G1 X100.195 Y96.146 E14.49832
G1 X99.357 Y96.756 E14.51782
G1 X98.541 Y97.29 E14.53616
G1 X97.347 Y97.98 E14.56211
G1 X96.541 Y98.39 E14.57912
G1 X95.515 Y98.848 E14.60025
G1 X94.57 Y99.215 E14.61932
G1 X93.227 Y99.641 E14.64582
G1 X92.513 Y99.832 E14.65973
G1 X91.702 Y100.016 E14.67537
G1 X90.973 Y100.155 E14.68933
G1 X90.097 Y100.285 E14.70599
G1 X88.562 Y100.418 E14.73497
G1 X87.381 Y100.439 E14.75719
G1 X85.479 Y100.344 E14.79301
G1 X61.931 Y98.906 E15.23679
G1 X60.134 Y98.301 E15.27245
G1 X58.62 Y97.373 E15.30586
G1 X57.283 Y96.02 E15.34164
G1 X56.284 Y94.223 E15.38031
G1 X55.803 Y92.182 E15.41976
G1 X55.847 Y80.906 E15.63187
G1 X56.024 Y79.565 E15.65731
G1 X56.817 Y77.676 E15.69585
G1 X57.989 Y76.182 E15.73157
G0 F3600 X58.271 Y76.471
G1 F1800 X59.673 Y75.441 E15.76429
G1 X60.566 Y74.954 E15.78342
G1 X62.136 Y74.485 E15.81425
G1 X86.861 Y72.977 E16.2802
G1 X87.614 Y72.964 E16.29437
G1 X88.303 Y72.984 E16.30733
G1 X89.464 Y73.051 E16.32921
G1 X90.486 Y73.175 E16.34857
G1 X91.276 Y73.305 E16.36363
G1 X92.117 Y73.481 E16.3798
G1 X92.905 Y73.686 E16.39511
G1 X93.698 Y73.915 E16.41064
G1 X94.649 Y74.238 E16.42953
G1 X95.383 Y74.526 E16.44436
G1 X96.12 Y74.852 E16.45952
G1 X96.809 Y75.183 E16.4739
G1 X98.115 Y75.922 E16.50213
G1 X98.849 Y76.382 E16.51842
G1 X99.947 Y77.173 E16.54388
G1 X101.059 Y78.08 E16.57087
G1 X101.88 Y78.857 E16.59213
G1 X102.434 Y79.432 E16.60715
G1 X103.17 Y80.264 E16.62805
G1 X103.857 Y81.138 E16.64896
G1 X104.37 Y81.857 E16.66557
G1 X104.845 Y82.581 E16.68186
G1 X105.565 Y83.783 E16.70822
G1 X106.061 Y85.618 E16.74397
G1 X106.06 Y87.41 E16.77768
G1 X105.606 Y89.03 E16.80933
G1 X105.014 Y90.156 E16.83326
G1 X104.148 Y91.476 E16.86296
G1 X103.304 Y92.578 E16.88907
G1 X102.446 Y93.57 E16.91374
G1 X101.407 Y94.596 E16.94121
G1 X100.762 Y95.17 E16.95745
G1 X99.943 Y95.835 E16.97729
G1 X99.138 Y96.421 E16.99602
G1 X98.322 Y96.955 E17.01437
G1 X97.166 Y97.623 E17.03948
G1 X96.36 Y98.033 E17.05649
G1 X95.37 Y98.475 E17.07688
G1 X94.425 Y98.842 E17.09595
G1 X93.124 Y99.255 E17.12163
G1 X92.425 Y99.442 E17.13524
G1 X91.627 Y99.623 E17.15063
G1 X90.914 Y99.759 E17.16429
G1 X90.062 Y99.886 E17.18049
G1 X88.527 Y100.019 E17.20947
G1 X87.374 Y100.039 E17.23116
G1 X85.503 Y99.945 E17.2664
G1 X62.009 Y98.51 E17.70916
G1 X60.304 Y97.936 E17.743
G1 X58.871 Y97.058 E17.77462
G1 X57.606 Y95.777 E17.80848
G1 X56.66 Y94.076 E17.84509
G1 X56.203 Y92.137 E17.88257
G1 X56.244 Y80.958 E18.09285
G1 X56.414 Y79.67 E18.11729
G1 X57.165 Y77.881 E18.15379
G1 X58.271 Y76.471 E18.18749
G0 F3600 X58.553 Y76.76
G1 F1800 X59.865 Y75.792 E18.21816
G1 X60.723 Y75.324 E18.23655
G1 X62.206 Y74.881 E18.26566
G1 X86.868 Y73.377 E18.73043
G1 X87.603 Y73.364 E18.74426
G1 X88.28 Y73.383 E18.757
G1 X89.416 Y73.448 E18.7784
G1 X90.421 Y73.57 E18.79745
G1 X91.194 Y73.697 E18.81218
G1 X92.035 Y73.873 E18.82834
G1 X92.794 Y74.07 E18.84309
G1 X93.569 Y74.294 E18.85827
G1 X94.52 Y74.617 E18.87716
G1 X95.221 Y74.892 E18.89133
G1 X95.947 Y75.213 E18.90626
G1 X96.636 Y75.544 E18.92064
G1 X97.903 Y76.261 E18.94802
G1 X98.615 Y76.707 E18.96382
G1 X99.713 Y77.498 E18.98928
G1 X100.806 Y78.39 E19.01582
G1 X101.592 Y79.134 E19.03618
G1 X102.134 Y79.697 E19.05088
G1 X102.87 Y80.529 E19.07177
G1 X103.532 Y81.371 E19.09192
G1 X104.036 Y82.076 E19.10822
G1 X104.502 Y82.786 E19.1242
G1 X105.193 Y83.94 E19.1495
G1 X105.661 Y85.67 E19.18321
G1 X105.66 Y87.355 E19.2149
G1 X105.232 Y88.881 E19.24472
G1 X104.679 Y89.937 E19.26714
G1 X103.83 Y91.233 E19.29628
G1 X103.001 Y92.316 E19.32194
G1 X102.143 Y93.308 E19.34661
G1 X101.141 Y94.297 E19.37309
G1 X100.51 Y94.859 E19.38899
G1 X99.691 Y95.524 E19.40883
G1 X98.919 Y96.086 E19.42679
G1 X98.103 Y96.62 E19.44514
G1 X96.985 Y97.266 E19.46943
G1 X96.179 Y97.676 E19.48644
G1 X95.225 Y98.102 E19.50609
G1 X94.28 Y98.469 E19.52516
G1 X93.021 Y98.869 E19.55001
G1 X92.337 Y99.052 E19.56333
G1 X91.552 Y99.23 E19.57847
G1 X90.855 Y99.363 E19.59182
G1 X90.027 Y99.487 E19.60757
G1 X88.492 Y99.62 E19.63655
G1 X87.367 Y99.639 E19.65771
G1 X85.527 Y99.546 E19.69237
G1 X62.087 Y98.114 E20.13411
G1 X60.474 Y97.571 E20.16612
G1 X59.12 Y96.741 E20.196
G1 X57.93 Y95.537 E20.22784
G1 X57.036 Y93.929 E20.26245
G1 X56.603 Y92.092 E20.29795
G1 X56.641 Y81.01 E20.50641
G1 X56.804 Y79.775 E20.52984
G1 X57.513 Y78.086 E20.5643
G1 X58.553 Y76.76 E20.596
G0 F3600 X58.836 Y77.048
G1 F1800 X60.057 Y76.143 E20.62459
G1 X60.88 Y75.694 E20.64222
G1 X62.276 Y75.277 E20.66963
G1 X86.875 Y73.777 E21.13321
G1 X87.592 Y73.764 E21.1467
G1 X88.257 Y73.782 E21.15921
G1 X89.368 Y73.845 E21.18015
G1 X90.356 Y73.965 E21.19887
G1 X91.112 Y74.089 E21.21328
G1 X91.953 Y74.265 E21.22944
G1 X92.683 Y74.454 E21.24362
G1 X93.44 Y74.673 E21.25845
G1 X94.374 Y74.99 E21.277
G1 X95.059 Y75.258 E21.29084
G1 X95.774 Y75.574 E21.30554
G1 X96.463 Y75.905 E21.31992
G1 X97.691 Y76.6 E21.34646
G1 X98.381 Y77.032 E21.36178
G1 X99.479 Y77.823 E21.38723
G1 X100.531 Y78.681 E21.41277
G1 X101.304 Y79.412 E21.43278
G1 X101.834 Y79.962 E21.44715
G1 X102.57 Y80.794 E21.46804
G1 X103.207 Y81.604 E21.48743
G1 X103.702 Y82.296 E21.50343
G1 X104.159 Y82.992 E21.51909
G1 X104.822 Y84.099 E21.54337
G1 X105.261 Y85.722 E21.57499
G1 X105.26 Y87.3 E21.60467
G1 X104.859 Y88.731 E21.63263
G1 X104.344 Y89.718 E21.65357
G1 X103.495 Y91.014 E21.68271
G1 X102.698 Y92.054 E21.70736
G1 X101.84 Y93.046 E21.73203
G1 X100.875 Y93.998 E21.75753
G1 X100.258 Y94.548 E21.77308
G1 X99.439 Y95.213 E21.79292
G1 X98.7 Y95.751 E21.81012
G1 X97.884 Y96.285 E21.82846
G1 X96.804 Y96.909 E21.85193
G1 X95.998 Y97.319 E21.86894
G1 X95.08 Y97.729 E21.88785
G1 X94.135 Y98.096 E21.90692
G1 X92.917 Y98.483 E21.93096
G1 X92.249 Y98.662 E21.94397
