;FLAVOR:Marlin
;TIME:3780
;Filament used: 3.57786m
;Layer height: 0.15
;MINX:53.803
;MINY:70.564
;MINZ:0.3
;MAXX:117.295
;MAXY:102.625
;MAXZ:48
;TARGET_MACHINE.NAME:Unknown
;Generated with Cura_SteamEngine 5.10.0
M104 S200
M105
M109 S200
G28 ;Home
G1 Z15.0 F6000 ;Move the platform down 15mm
;Prime the extruder
G92 E0
G1 F200 E3
G92 E0
M82 ;absolute extrusion mode
G92 E0
G92 E0
G1 F1500 E-6.5
;LAYER_COUNT:319
;LAYER:0
M107
G0 F3600 X56.583 Y74.73 Z0.3
;TYPE:SKIRT
G1 F1500 E0
G1 F2400 X58.39 Y73.417 E0.11144
G1 X59.624 Y72.734 E0.1818
G1 X61.716 Y72.109 E0.29073
G1 X86.822 Y70.577 E1.5456
G1 X87.689 Y70.564 E1.58886
G1 X88.444 Y70.59 E1.62655
G1 X89.752 Y70.669 E1.69193
G1 X90.879 Y70.805 E1.74856
G1 X91.704 Y70.942 E1.79029
G1 X92.724 Y71.159 E1.84231
G1 X93.571 Y71.382 E1.88601
G1 X94.472 Y71.641 E1.93278
G1 X95.423 Y71.964 E1.98289
G1 X96.355 Y72.33 E2.03284
G1 X97.158 Y72.686 E2.07667
G1 X97.847 Y73.017 E2.1148
G1 X99.391 Y73.889 E2.20327
G1 X100.253 Y74.432 E2.25409
G1 X101.351 Y75.223 E2.32161
G1 X102.665 Y76.296 E2.40624
G1 X103.569 Y77.151 E2.46832
G1 X104.234 Y77.842 E2.51617
G1 X104.97 Y78.674 E2.57159
G1 X105.813 Y79.746 E2.63962
G1 X106.353 Y80.504 E2.68606
G1 X106.903 Y81.347 E2.73627
G1 X107.793 Y82.833 E2.82269
G1 X108.461 Y85.306 E2.95049
G1 X108.46 Y87.735 E3.07167
G1 X107.846 Y89.933 E3.18553
G1 X107.081 Y91.373 E3.26688
G1 X106.072 Y92.91 E3.35861
G1 X105.122 Y94.15 E3.43654
G1 X104.264 Y95.142 E3.50198
G1 X103.002 Y96.39 E3.59052
G1 X102.274 Y97.036 E3.63908
G1 X101.455 Y97.701 E3.69172
G1 X100.452 Y98.431 E3.75361
G1 X99.636 Y98.965 E3.80226
G1 X98.252 Y99.765 E3.88201
G1 X97.446 Y100.175 E3.92713
G1 X96.24 Y100.713 E3.99301
G1 X95.295 Y101.08 E4.04359
G1 X93.742 Y101.571 E4.12485
G1 X92.954 Y101.782 E4.16555
G1 X92.077 Y101.981 E4.21041
G1 X91.264 Y102.135 E4.25169
G1 X90.272 Y102.28 E4.30171
G1 X88.737 Y102.413 E4.37858
G1 X87.362 Y102.439 E4.44719
G1 X85.359 Y102.339 E4.54724
G1 X61.541 Y100.886 E5.73774
G1 X59.284 Y100.126 E5.85655
G1 X57.369 Y98.952 E5.96862
G1 X55.666 Y97.229 E6.08948
G1 X54.404 Y94.958 E6.2191
G1 X53.803 Y92.403 E6.35005
G1 X53.862 Y80.646 E6.93662
G1 X54.074 Y79.04 E7.01743
G1 X55.077 Y76.651 E7.1467
G1 X56.583 Y74.73 E7.26848
G0 F3600 X56.864 Y75.021
G1 F2400 X58.625 Y73.741 E7.37709
G1 X59.78 Y73.104 E7.4429
G1 X61.786 Y72.505 E7.54734
G1 X86.828 Y70.977 E8.79902
G1 X87.676 Y70.964 E8.84133
G1 X88.42 Y70.989 E8.87847
G1 X89.704 Y71.066 E8.94264
G1 X90.813 Y71.2 E8.99837
G1 X91.638 Y71.337 E9.0401
G1 X92.622 Y71.546 E9.09029
G1 X93.46 Y71.766 E9.13351
G1 X94.343 Y72.02 E9.17935
G1 X95.294 Y72.343 E9.22946
G1 X96.193 Y72.696 E9.27764
G1 X96.985 Y73.047 E9.32086
G1 X97.674 Y73.378 E9.359
G1 X99.178 Y74.227 E9.44516
G1 X100.019 Y74.757 E9.49476
G1 X101.117 Y75.548 E9.56227
G1 X102.39 Y76.587 E9.64425
G1 X103.294 Y77.442 E9.70633
G1 X103.934 Y78.107 E9.75237
G1 X104.67 Y78.939 E9.80779
G1 X105.487 Y79.978 E9.87373
G1 X106.018 Y80.723 E9.91938
G1 X106.56 Y81.552 E9.96879
G1 X107.421 Y82.99 E10.05241
G1 X108.061 Y85.358 E10.17479
G1 X108.06 Y87.681 E10.29068
G1 X107.473 Y89.781 E10.39947
G1 X106.746 Y91.154 E10.47698
G1 X105.754 Y92.667 E10.56724
G1 X104.819 Y93.888 E10.64396
G1 X103.961 Y94.88 E10.7094
G1 X102.736 Y96.091 E10.79534
G1 X102.022 Y96.725 E10.84297
G1 X101.203 Y97.39 E10.89561
G1 X100.233 Y98.096 E10.95546
G1 X99.417 Y98.63 E11.00411
G1 X98.071 Y99.408 E11.08168
G1 X97.265 Y99.818 E11.12679
G1 X96.095 Y100.34 E11.19071
G1 X95.15 Y100.707 E11.24129
G1 X93.639 Y101.185 E11.32035
G1 X92.866 Y101.392 E11.36028
G1 X92.002 Y101.588 E11.40448
G1 X91.206 Y101.739 E11.4449
G1 X90.237 Y101.881 E11.49376
G1 X88.702 Y102.014 E11.57063
G1 X87.355 Y102.039 E11.63784
G1 X85.383 Y101.94 E11.73635
G1 X61.619 Y100.49 E12.92414
G1 X59.454 Y99.761 E13.03811
G1 X57.62 Y98.637 E13.14543
G1 X55.989 Y96.986 E13.26121
G1 X54.78 Y94.811 E13.38536
G1 X54.203 Y92.359 E13.51103
G1 X54.259 Y80.698 E14.09281
G1 X54.464 Y79.145 E14.17096
G1 X55.425 Y76.856 E14.29482
G1 X56.864 Y75.021 E14.41116
G0 F3600 X57.145 Y75.312
G1 F2400 X58.86 Y74.065 E14.51695
G1 X59.938 Y73.474 E14.57828
G1 X61.856 Y72.901 E14.67815
G1 X86.834 Y71.377 E15.92662
G1 X87.663 Y71.364 E15.96799
G1 X88.396 Y71.388 E16.00458
G1 X89.656 Y71.463 E16.06755
G1 X90.747 Y71.595 E16.12238
G1 X91.572 Y71.732 E16.1641
G1 X92.521 Y71.933 E16.2125
G1 X93.349 Y72.15 E16.2552
G1 X94.214 Y72.399 E16.30011
G1 X95.165 Y72.722 E16.35022
G1 X96.031 Y73.062 E16.39663
G1 X96.812 Y73.408 E16.43925
G1 X97.501 Y73.739 E16.47738
G1 X98.965 Y74.566 E16.56127
G1 X99.785 Y75.082 E16.60961
G1 X100.883 Y75.873 E16.67712
G1 X102.115 Y76.878 E16.75644
G1 X103.019 Y77.733 E16.81852
G1 X103.634 Y78.372 E16.86277
G1 X104.37 Y79.204 E16.91818
G1 X105.161 Y80.21 E16.98203
G1 X105.683 Y80.942 E17.02688
G1 X106.217 Y81.758 E17.07554
G1 X107.05 Y83.149 E17.15643
G1 X107.661 Y85.41 E17.27327
G1 X107.66 Y87.627 E17.38388
G1 X107.1 Y89.63 E17.48764
G1 X106.411 Y90.935 E17.56127
G1 X105.419 Y92.448 E17.65153
G1 X104.516 Y93.626 E17.72558
G1 X103.658 Y94.618 E17.79102
G1 X102.471 Y95.792 E17.87431
G1 X101.77 Y96.414 E17.92106
G1 X100.951 Y97.079 E17.9737
G1 X100.014 Y97.761 E18.03151
G1 X99.198 Y98.295 E18.08017
G1 X97.89 Y99.051 E18.15554
G1 X97.084 Y99.461 E18.20065
G1 X95.95 Y99.967 E18.26261
G1 X95.005 Y100.334 E18.31318
G1 X93.536 Y100.799 E18.39006
G1 X92.778 Y101.002 E18.42921
G1 X91.927 Y101.195 E18.47274
G1 X91.148 Y101.343 E18.5123
G1 X90.202 Y101.482 E18.56
G1 X88.667 Y101.615 E18.63687
G1 X87.375 Y101.639 E18.70134
G1 X85.407 Y101.541 E18.79965
G1 X61.697 Y100.094 E19.98474
G1 X59.624 Y99.396 E20.09387
G1 X57.869 Y98.32 E20.19658
G1 X56.313 Y96.746 E20.307
G1 X55.156 Y94.664 E20.42583
G1 X54.603 Y92.315 E20.54622
G1 X54.656 Y80.75 E21.12321
G1 X54.854 Y79.25 E21.1987
G1 X55.773 Y77.061 E21.31714
G1 X57.145 Y75.312 E21.42804
G0 F3600 X57.426 Y75.602
G1 F2400 X59.052 Y74.416 E21.52845
G1 X60.095 Y73.844 E21.5878
G1 X61.926 Y73.297 E21.68313
G1 X86.84 Y71.777 E22.92841
G1 X87.65 Y71.764 E22.96883
G1 X88.372 Y71.787 E23.00486
G1 X89.608 Y71.86 E23.06664
G1 X90.681 Y71.99 E23.12056
G1 X91.506 Y72.127 E23.16228
G1 X92.42 Y72.32 E23.20889
G1 X93.238 Y72.534 E23.25107
G1 X94.085 Y72.778 E23.29505
G1 X95.036 Y73.101 E23.34516
G1 X95.869 Y73.428 E23.3898
G1 X96.639 Y73.769 E23.43182
G1 X97.328 Y74.1 E23.46995
G1 X98.752 Y74.905 E23.55156
G1 X99.551 Y75.407 E23.59864
G1 X100.649 Y76.198 E23.66615
G1 X101.84 Y77.169 E23.74282
G1 X102.744 Y78.024 E23.80489
G1 X103.334 Y78.637 E23.84734
G1 X104.07 Y79.469 E23.90276
G1 X104.835 Y80.442 E23.96451
G1 X105.348 Y81.161 E24.00857
G1 X105.874 Y81.964 E24.05647
G1 X106.679 Y83.308 E24.13463
G1 X107.261 Y85.462 E24.24594
G1 X107.26 Y87.573 E24.35126
G1 X106.727 Y89.479 E24.45
G1 X106.057 Y90.748 E24.52159
G1 X105.101 Y92.205 E24.60853
G1 X104.213 Y93.364 E24.68138
G1 X103.355 Y94.356 E24.74681
G1 X102.205 Y95.493 E24.82749
G1 X101.518 Y96.103 E24.87333
G1 X100.699 Y96.768 E24.92596
G1 X99.795 Y97.426 E24.98175
G1 X98.979 Y97.96 E25.0304
G1 X97.709 Y98.694 E25.10358
G1 X96.903 Y99.104 E25.14869
G1 X95.805 Y99.594 E25.20868
G1 X94.86 Y99.961 E25.25926
G1 X93.433 Y100.413 E25.33394
G1 X92.69 Y100.612 E25.37231
G1 X91.852 Y100.802 E25.41518
G1 X91.09 Y100.947 E25.45388
G1 X90.167 Y101.083 E25.50043
G1 X88.632 Y101.216 E25.57729
G1 X87.368 Y101.239 E25.64037
G1 X85.431 Y101.142 E25.73712
G1 X61.775 Y99.698 E26.91952
G1 X59.794 Y99.031 E27.02381
G1 X58.12 Y98.005 E27.12176
G1 X56.636 Y96.503 E27.2271
G1 X55.532 Y94.517 E27.34047
G1 X55.003 Y92.271 E27.45559
G1 X55.053 Y80.802 E28.02778
G1 X55.244 Y79.355 E28.1006
G1 X56.121 Y77.266 E28.21363
G1 X57.426 Y75.602 E28.31913
G0 F3600 X57.707 Y75.892
G1 F2400 X59.245 Y74.767 E28.4142
G1 X60.254 Y74.213 E28.47163
G1 X61.996 Y73.693 E28.56233
G1 X86.847 Y72.177 E29.80445
G1 X87.638 Y72.164 E29.84392
G1 X88.349 Y72.186 E29.87941
G1 X89.56 Y72.257 E29.93993
G1 X90.616 Y72.385 E29.993
G1 X91.423 Y72.518 E30.03381
G1 X92.319 Y72.707 E30.07949
G1 X93.127 Y72.918 E30.12115
G1 X93.956 Y73.157 E30.1642
G1 X94.907 Y73.48 E30.21431
G1 X95.707 Y73.794 E30.25718
G1 X96.466 Y74.13 E30.29859
G1 X97.155 Y74.461 E30.33673
G1 X98.539 Y75.244 E30.41606
G1 X99.317 Y75.732 E30.46188
G1 X100.415 Y76.523 E30.52939
G1 X101.587 Y77.479 E30.60485
G1 X102.456 Y78.302 E30.66456
G1 X103.034 Y78.902 E30.70613
G1 X103.77 Y79.734 E30.76154
G1 X104.509 Y80.674 E30.8212
G1 X105.022 Y81.393 E30.86526
G1 X105.531 Y82.169 E30.91156
G1 X106.307 Y83.465 E30.98693
G1 X106.861 Y85.514 E31.09282
G1 X106.86 Y87.519 E31.19285
G1 X106.354 Y89.328 E31.28657
G1 X105.703 Y90.561 E31.35613
G1 X104.784 Y91.962 E31.43972
G1 X103.91 Y93.102 E31.51139
G1 X103.052 Y94.094 E31.57682
G1 X101.939 Y95.194 E31.65489
G1 X101.266 Y95.792 E31.69981
G1 X100.447 Y96.457 E31.75244
G1 X99.576 Y97.091 E31.80619
G1 X98.76 Y97.625 E31.85484
G1 X97.528 Y98.337 E31.92583
G1 X96.722 Y98.747 E31.97095
G1 X95.66 Y99.221 E32.02897
G1 X94.715 Y99.588 E32.07955
G1 X93.33 Y100.027 E32.15203
G1 X92.602 Y100.222 E32.18963
G1 X91.777 Y100.409 E32.23184
G1 X91.032 Y100.551 E32.26967
G1 X90.132 Y100.684 E32.31506
G1 X88.597 Y100.817 E32.39193
G1 X87.361 Y100.839 E32.45361
G1 X85.455 Y100.743 E32.54882
G1 X61.853 Y99.302 E33.72852
G1 X59.964 Y98.666 E33.82796
G1 X58.369 Y97.688 E33.9213
G1 X56.96 Y96.263 E34.02128
G1 X55.908 Y94.37 E34.12933
G1 X55.403 Y92.227 E34.23917
G1 X55.45 Y80.854 E34.80658
G1 X55.634 Y79.46 E34.87673
G1 X56.469 Y77.471 E34.98435
G1 X57.707 Y75.892 E35.08445
G0 F3600 X57.989 Y76.182
G1 F2400 X59.481 Y75.09 E35.17669
G1 X60.409 Y74.584 E35.22943
G1 X62.066 Y74.089 E35.3157
G1 X86.854 Y72.577 E36.55468
G1 X87.626 Y72.564 E36.5932
G1 X88.326 Y72.585 E36.62814
G1 X89.512 Y72.654 E36.68741
G1 X90.551 Y72.78 E36.73963
G1 X91.358 Y72.913 E36.78043
G1 X92.218 Y73.094 E36.82428
G1 X93.016 Y73.302 E36.86542
G1 X93.827 Y73.536 E36.90753
G1 X94.778 Y73.859 E36.95764
G1 X95.545 Y74.16 E36.99874
G1 X96.293 Y74.491 E37.03955
G1 X96.982 Y74.822 E37.07769
G1 X98.327 Y75.583 E37.15479
G1 X99.083 Y76.057 E37.1993
G1 X100.181 Y76.848 E37.26682
G1 X101.334 Y77.789 E37.34107
G1 X102.168 Y78.579 E37.39838
G1 X102.734 Y79.167 E37.4391
G1 X103.47 Y79.999 E37.49452
G1 X104.183 Y80.906 E37.55207
G1 X104.696 Y81.625 E37.59614
G1 X105.188 Y82.375 E37.64089
G1 X105.936 Y83.624 E37.71352
G1 X106.461 Y85.566 E37.81389
G1 X106.46 Y87.465 E37.90863
G1 X105.98 Y89.179 E37.99743
G1 X105.368 Y90.342 E38.063
G1 X104.466 Y91.719 E38.14512
G1 X103.607 Y92.84 E38.21558
G1 X102.749 Y93.832 E38.28102
G1 X101.673 Y94.895 E38.35648
G1 X101.014 Y95.481 E38.40047
G1 X100.195 Y96.146 E38.4531
G1 X99.357 Y96.756 E38.50482
G1 X98.541 Y97.29 E38.55347
G1 X97.347 Y97.98 E38.62227
G1 X96.541 Y98.39 E38.66738
G1 X95.515 Y98.848 E38.72344
G1 X94.57 Y99.215 E38.77402
G1 X93.227 Y99.641 E38.84431
G1 X92.513 Y99.832 E38.88118
G1 X91.702 Y100.016 E38.92267
G1 X90.973 Y100.155 E38.9597
G1 X90.097 Y100.285 E39.00388
G1 X88.562 Y100.418 E39.08075
G1 X87.381 Y100.439 E39.13968
G1 X85.479 Y100.344 E39.23469
G1 X61.931 Y98.906 E40.41169
G1 X60.134 Y98.301 E40.50629
G1 X58.62 Y97.373 E40.59488
G1 X57.283 Y96.02 E40.68978
G1 X56.284 Y94.223 E40.79236
G1 X55.803 Y92.182 E40.89697
G1 X55.847 Y80.906 E41.45954
G1 X56.024 Y79.565 E41.52702
G1 X56.817 Y77.676 E41.62923
G1 X57.989 Y76.182 E41.72396
G0 F3600 X58.271 Y76.471
G1 F2400 X59.673 Y75.441 E41.81076
G1 X60.566 Y74.954 E41.8615
G1 X62.136 Y74.485 E41.94325
G1 X86.861 Y72.977 E43.17908
G1 X87.614 Y72.964 E43.21665
G1 X88.303 Y72.984 E43.25104
G1 X89.464 Y73.051 E43.30906
G1 X90.486 Y73.175 E43.36042
G1 X91.276 Y73.305 E43.40037
G1 X92.117 Y73.481 E43.44323
G1 X92.905 Y73.686 E43.48385
G1 X93.698 Y73.915 E43.52503
G1 X94.649 Y74.238 E43.57514
G1 X95.383 Y74.526 E43.61448
G1 X96.12 Y74.852 E43.65468
G1 X96.809 Y75.183 E43.69282
G1 X98.115 Y75.922 E43.76768
G1 X98.849 Y76.382 E43.8109
G1 X99.947 Y77.173 E43.87841
G1 X101.059 Y78.08 E43.95001
G1 X101.88 Y78.857 E44.0064
G1 X102.434 Y79.432 E44.04624
G1 X103.17 Y80.264 E44.10166
G1 X103.857 Y81.138 E44.15712
G1 X104.37 Y81.857 E44.20118
G1 X104.845 Y82.581 E44.24438
G1 X105.565 Y83.783 E44.31429
G1 X106.061 Y85.618 E44.40912
G1 X106.06 Y87.41 E44.49852
G1 X105.606 Y89.03 E44.58246
G1 X105.014 Y90.156 E44.64593
G1 X104.148 Y91.476 E44.72469
G1 X103.304 Y92.578 E44.79394
G1 X102.446 Y93.57 E44.85938
G1 X101.407 Y94.596 E44.93223
G1 X100.762 Y95.17 E44.9753
G1 X99.943 Y95.835 E45.02794
G1 X99.138 Y96.421 E45.07761
G1 X98.322 Y96.955 E45.12626
G1 X97.166 Y97.623 E45.19287
G1 X96.36 Y98.033 E45.23799
G1 X95.37 Y98.475 E45.29208
G1 X94.425 Y98.842 E45.34266
G1 X93.124 Y99.255 E45.41076
G1 X92.425 Y99.442 E45.44685
G1 X91.627 Y99.623 E45.48768
G1 X90.914 Y99.759 E45.52389
G1 X90.062 Y99.886 E45.56687
G1 X88.527 Y100.019 E45.64374
G1 X87.374 Y100.039 E45.70127
G1 X85.503 Y99.945 E45.79473
G1 X62.009 Y98.51 E46.96904
G1 X60.304 Y97.936 E47.05879
G1 X58.871 Y97.058 E47.14263
G1 X57.606 Y95.777 E47.23245
G1 X56.66 Y94.076 E47.32956
G1 X56.203 Y92.137 E47.42894
G1 X56.244 Y80.958 E47.98667
G1 X56.414 Y79.67 E48.05149
G1 X57.165 Y77.881 E48.14829
G1 X58.271 Y76.471 E48.23769
G0 F3600 X58.553 Y76.76
G1 F2400 X59.865 Y75.792 E48.31903
G1 X60.723 Y75.324 E48.36779
G1 X62.206 Y74.881 E48.44501
G1 X86.868 Y73.377 E49.67769
G1 X87.603 Y73.364 E49.71436
G1 X88.28 Y73.383 E49.74815
G1 X89.416 Y73.448 E49.80492
G1 X90.421 Y73.57 E49.85543
G1 X91.194 Y73.697 E49.89451
G1 X92.035 Y73.873 E49.93738
G1 X92.794 Y74.07 E49.9765
G1 X93.569 Y74.294 E50.01675
G1 X94.52 Y74.617 E50.06685
G1 X95.221 Y74.892 E50.10442
G1 X95.947 Y75.213 E50.14402
G1 X96.636 Y75.544 E50.18216
G1 X97.903 Y76.261 E50.25479
G1 X98.615 Y76.707 E50.29671
G1 X99.713 Y77.498 E50.36422
G1 X100.806 Y78.39 E50.4346
G1 X101.592 Y79.134 E50.4886
G1 X102.134 Y79.697 E50.52759
G1 X102.87 Y80.529 E50.58301
G1 X103.532 Y81.371 E50.63644
G1 X104.036 Y82.076 E50.67968
G1 X104.502 Y82.786 E50.72205
G1 X105.193 Y83.94 E50.78915
G1 X105.661 Y85.67 E50.87857
G1 X105.66 Y87.355 E50.96263
G1 X105.232 Y88.881 E51.0417
G1 X104.679 Y89.937 E51.10117
G1 X103.83 Y91.233 E51.17847
G1 X103.001 Y92.316 E51.24651
G1 X102.143 Y93.308 E51.31195
G1 X101.141 Y94.297 E51.38219
G1 X100.51 Y94.859 E51.42434
G1 X99.691 Y95.524 E51.47698
G1 X98.919 Y96.086 E51.52462
G1 X98.103 Y96.62 E51.57327
G1 X96.985 Y97.266 E51.63769
G1 X96.179 Y97.676 E51.6828
G1 X95.225 Y98.102 E51.73493
G1 X94.28 Y98.469 E51.78551
G1 X93.021 Y98.869 E51.85141
G1 X92.337 Y99.052 E51.88674
G1 X91.552 Y99.23 E51.92689
G1 X90.855 Y99.363 E51.9623
G1 X90.027 Y99.487 E52.00407
G1 X88.492 Y99.62 E52.08093
G1 X87.367 Y99.639 E52.13707
G1 X85.527 Y99.546 E52.22898
G1 X62.087 Y98.114 E53.40059
G1 X60.474 Y97.571 E53.4855
G1 X59.12 Y96.741 E53.56473
G1 X57.93 Y95.537 E53.64919
G1 X57.036 Y93.929 E53.74098
G1 X56.603 Y92.092 E53.83514
G1 X56.641 Y81.01 E54.38802
G1 X56.804 Y79.775 E54.45017
G1 X57.513 Y78.086 E54.54156
G1 X58.553 Y76.76 E54.62564
G0 F3600 X58.836 Y77.048
G1 F2400 X60.057 Y76.143 E54.70146
G1 X60.88 Y75.694 E54.74823
G1 X62.276 Y75.277 E54.82092
G1 X86.875 Y73.777 E56.05045
G1 X87.592 Y73.764 E56.08623
G1 X88.257 Y73.782 E56.11942
G1 X89.368 Y73.845 E56.17493
G1 X90.356 Y73.965 E56.22459
G1 X91.112 Y74.089 E56.26281
G1 X91.953 Y74.265 E56.30567
G1 X92.683 Y74.454 E56.34329
G1 X93.44 Y74.673 E56.38261
G1 X94.374 Y74.99 E56.43182
G1 X95.059 Y75.258 E56.46852
G1 X95.774 Y75.574 E56.50752
G1 X96.463 Y75.905 E56.54565
G1 X97.691 Y76.6 E56.61605
G1 X98.381 Y77.032 E56.65666
G1 X99.479 Y77.823 E56.72418
G1 X100.531 Y78.681 E56.7919
G1 X101.304 Y79.412 E56.84498
G1 X101.834 Y79.962 E56.88309
G1 X102.57 Y80.794 E56.93851
G1 X103.207 Y81.604 E56.98992
G1 X103.702 Y82.296 E57.03236
G1 X104.159 Y82.992 E57.0739
G1 X104.822 Y84.099 E57.13828
G1 X105.261 Y85.722 E57.22216
G1 X105.26 Y87.3 E57.30089
G1 X104.859 Y88.731 E57.37503
G1 X104.344 Y89.718 E57.43057
G1 X103.495 Y91.014 E57.50787
G1 X102.698 Y92.054 E57.57324
G1 X101.84 Y93.046 E57.63867
G1 X100.875 Y93.998 E57.7063
G1 X100.258 Y94.548 E57.74754
G1 X99.439 Y95.213 E57.80017
G1 X98.7 Y95.751 E57.84578
G1 X97.884 Y96.285 E57.89443
G1 X96.804 Y96.909 E57.95666
