;FLAVOR:Marlin
;TIME:2874
;Filament used: 2.99405m
;Layer height: 0.4
;MINX:59.7
;MINY:58.7
;MINZ:0.3
;MAXX:115.3
;MAXY:114.3
;MAXZ:39.9
;TARGET_MACHINE.NAME:Unknown
;Generated with Cura_SteamEngine 5.10.0
M104 S200
M105
M109 S200
G28 ;Home
G1 Z15.0 F6000 ;Move the platform down 15mm
;Prime the extruder
G92 E0
G1 F200 E3
G92 E0
M82 ;absolute extrusion mode
G92 E0
G92 E0
G1 F1500 E-6.5
;LAYER_COUNT:100
;LAYER:0
M107
G0 F3600 X61.89 Y61.052 Z0.3
;TYPE:SKIRT
G1 F1500 E0
G1 F1800 X63.243 Y59.96 E0.03271
G1 X65.222 Y58.974 E0.0743
G1 X66.746 Y58.752 E0.10327
G1 X108.122 Y58.7 E0.88157
G1 X110.179 Y59.122 E0.92107
G1 X111.95 Y60.117 E0.95928
G1 X112.948 Y60.89 E0.98303
G1 X114.04 Y62.243 E1.01573
G1 X115.026 Y64.222 E1.05733
G1 X115.248 Y65.746 E1.08629
G1 X115.3 Y107.122 E1.8646
G1 X114.878 Y109.179 E1.9041
G1 X113.883 Y110.95 E1.94231
G1 X113.11 Y111.948 E1.96606
G1 X111.757 Y113.04 E1.99876
G1 X109.778 Y114.026 E2.04035
G1 X108.254 Y114.248 E2.06932
G1 X66.783 Y114.3 E2.84942
G1 X64.782 Y113.861 E2.88795
G1 X62.996 Y112.861 E2.92646
G1 X62.053 Y112.122 E2.94899
G1 X60.972 Y110.776 E2.98146
G1 X59.974 Y108.76 E3.02378
G1 X59.752 Y107.254 E3.05241
G1 X59.7 Y65.878 E3.83072
G1 X60.122 Y63.821 E3.87022
G1 X61.117 Y62.05 E3.90843
G1 X61.89 Y61.052 E3.93218
G0 F3600 X62.178 Y61.333
G1 F1800 X63.46 Y60.299 E3.96316
G1 X65.342 Y59.361 E4.00271
G1 X66.804 Y59.148 E4.0305
G1 X108.081 Y59.1 E4.80695
G1 X110.038 Y59.502 E4.84453
G1 X111.705 Y60.433 E4.88044
G1 X112.667 Y61.178 E4.90333
G1 X113.701 Y62.46 E4.93431
G1 X114.639 Y64.342 E4.97387
G1 X114.852 Y65.804 E5.00166
G1 X114.9 Y107.081 E5.7781
G1 X114.498 Y109.038 E5.81568
G1 X113.567 Y110.705 E5.8516
G1 X112.822 Y111.667 E5.87449
G1 X111.54 Y112.701 E5.90547
G1 X109.658 Y113.639 E5.94502
G1 X108.196 Y113.852 E5.97282
G1 X66.828 Y113.9 E6.75097
G1 X64.924 Y113.482 E6.78764
G1 X63.243 Y112.546 E6.82383
G1 X62.337 Y111.836 E6.84548
G1 X61.308 Y110.555 E6.87639
G1 X60.361 Y108.642 E6.91654
G1 X60.148 Y107.196 E6.94404
G1 X60.1 Y65.919 E7.72048
G1 X60.502 Y63.962 E7.75806
G1 X61.433 Y62.295 E7.79398
G1 X62.178 Y61.333 E7.81687
G0 F3600 X62.466 Y61.614
G1 F1800 X63.677 Y60.638 E7.84612
G1 X65.462 Y59.748 E7.88364
G1 X66.862 Y59.544 E7.91026
G1 X108.039 Y59.5 E8.68482
G1 X109.897 Y59.882 E8.7205
G1 X111.46 Y60.749 E8.75412
G1 X112.386 Y61.466 E8.77615
G1 X113.362 Y62.677 E8.80541
G1 X114.252 Y64.462 E8.84293
G1 X114.456 Y65.862 E8.86954
G1 X114.5 Y107.039 E9.6441
G1 X114.118 Y108.897 E9.67978
G1 X113.251 Y110.46 E9.7134
G1 X112.534 Y111.386 E9.73543
G1 X111.323 Y112.362 E9.76469
G1 X109.538 Y113.252 E9.80221
G1 X108.138 Y113.456 E9.82882
G1 X66.873 Y113.5 E10.60504
G1 X65.067 Y113.103 E10.63982
G1 X63.49 Y112.231 E10.67372
G1 X62.621 Y111.55 E10.69449
G1 X61.644 Y110.334 E10.72383
G1 X60.748 Y108.524 E10.76182
G1 X60.544 Y107.138 E10.78817
G1 X60.5 Y65.961 E11.56274
G1 X60.882 Y64.103 E11.59842
G1 X61.749 Y62.54 E11.63204
G1 X62.466 Y61.614 E11.65407
G0 F3600 X62.751 Y61.898
G1 F1800 X63.897 Y60.975 E11.68175
G1 X65.582 Y60.135 E11.71716
G1 X66.92 Y59.94 E11.7426
G1 X107.997 Y59.9 E12.51528
G1 X109.757 Y60.262 E12.54908
G1 X111.266 Y61.099 E12.58154
G1 X112.102 Y61.751 E12.60148
G1 X113.025 Y62.897 E12.62916
G1 X113.865 Y64.582 E12.66458
G1 X114.06 Y65.92 E12.69001
G1 X114.1 Y106.997 E13.46269
G1 X113.738 Y108.757 E13.49649
G1 X112.901 Y110.266 E13.52895
G1 X112.249 Y111.102 E13.54889
G1 X111.103 Y112.025 E13.57657
G1 X109.418 Y112.865 E13.61199
G1 X108.08 Y113.06 E13.63742
G1 X66.918 Y113.1 E14.4117
G1 X65.209 Y112.724 E14.44462
G1 X63.737 Y111.916 E14.47621
G1 X62.905 Y111.264 E14.49609
G1 X61.983 Y110.117 E14.52377
G1 X61.135 Y108.403 E14.55974
G1 X60.94 Y107.08 E14.5849
G1 X60.9 Y66.003 E15.35758
G1 X61.262 Y64.243 E15.39138
G1 X62.099 Y62.734 E15.42384
G1 X62.751 Y61.898 E15.44378
G0 F3600 X63.035 Y62.183
G1 F1800 X64.117 Y61.312 E15.46991
G1 X65.702 Y60.522 E15.50322
G1 X66.978 Y60.336 E15.52748
G1 X107.955 Y60.3 E16.29828
G1 X109.617 Y60.642 E16.3302
G1 X111.072 Y61.449 E16.36149
G1 X111.817 Y62.035 E16.37932
G1 X112.688 Y63.117 E16.40545
G1 X113.478 Y64.702 E16.43877
G1 X113.664 Y65.978 E16.46302
G1 X113.7 Y106.955 E17.23382
G1 X113.358 Y108.617 E17.26574
G1 X112.551 Y110.072 E17.29704
G1 X111.965 Y110.817 E17.31487
G1 X110.883 Y111.688 E17.34099
G1 X109.298 Y112.478 E17.37431
G1 X108.022 Y112.664 E17.39856
G1 X66.963 Y112.7 E18.17091
G1 X65.349 Y112.345 E18.20199
G1 X63.984 Y111.601 E18.23124
G1 X63.186 Y110.976 E18.2503
G1 X62.321 Y109.899 E18.27629
G1 X61.522 Y108.285 E18.31016
G1 X61.336 Y107.022 E18.33418
G1 X61.3 Y66.045 E19.10498
G1 X61.642 Y64.383 E19.1369
G1 X62.449 Y62.928 E19.16819
G1 X63.035 Y62.183 E19.18602
G0 F3600 X63.32 Y62.468
G1 F1800 X64.335 Y61.651 E19.21053
G1 X65.823 Y60.909 E19.24181
G1 X67.036 Y60.732 E19.26487
G1 X107.913 Y60.7 E20.03379
G1 X109.477 Y61.022 E20.06382
G1 X110.878 Y61.799 E20.09396
G1 X111.532 Y62.32 E20.10969
G1 X112.349 Y63.335 E20.1342
G1 X113.091 Y64.823 E20.16547
G1 X113.268 Y66.036 E20.18853
G1 X113.3 Y106.913 E20.95745
G1 X112.978 Y108.477 E20.98749
G1 X112.201 Y109.878 E21.01762
G1 X111.68 Y110.532 E21.03335
G1 X110.665 Y111.349 E21.05786
G1 X109.177 Y112.091 E21.08914
G1 X107.964 Y112.268 E21.1122
G1 X67.008 Y112.3 E21.8826
G1 X65.489 Y111.966 E21.91186
G1 X64.231 Y111.286 E21.93876
G1 X63.47 Y110.69 E21.95694
G1 X62.657 Y109.678 E21.98136
G1 X61.909 Y108.167 E22.01307
G1 X61.732 Y106.964 E22.03595
G1 X61.7 Y66.087 E22.80487
G1 X62.022 Y64.523 E22.8349
G1 X62.799 Y63.122 E22.86504
G1 X63.32 Y62.468 E22.88077
G0 F3600 X63.604 Y62.754
G1 F1800 X64.555 Y61.988 E22.90374
G1 X65.943 Y61.296 E22.93291
G1 X67.094 Y61.128 E22.95479
G1 X107.871 Y61.1 E23.72183
G1 X109.338 Y61.402 E23.75
G1 X110.629 Y62.112 E23.77772
G1 X111.246 Y62.604 E23.79256
G1 X112.012 Y63.555 E23.81553
G1 X112.704 Y64.943 E23.84471
G1 X112.872 Y66.094 E23.86659
G1 X112.9 Y106.871 E24.63363
G1 X112.598 Y108.338 E24.6618
G1 X111.888 Y109.629 E24.68951
G1 X111.396 Y110.246 E24.70436
G1 X110.445 Y111.012 E24.72733
G1 X109.057 Y111.704 E24.7565
G1 X107.906 Y111.872 E24.77838
G1 X67.053 Y111.9 E25.54685
G1 X65.63 Y111.587 E25.57426
G1 X64.478 Y110.971 E25.59883
G1 X63.754 Y110.404 E25.61613
G1 X62.993 Y109.457 E25.63898
G1 X62.296 Y108.049 E25.66853
G1 X62.128 Y106.906 E25.69027
G1 X62.1 Y66.129 E26.4573
G1 X62.402 Y64.662 E26.48548
G1 X63.112 Y63.371 E26.51319
G1 X63.604 Y62.754 E26.52804
G0 F3600 X63.89 Y63.037
G1 F1800 X64.771 Y62.327 E26.54932
G1 X66.063 Y61.683 E26.57648
G1 X67.152 Y61.524 E26.59718
G1 X107.829 Y61.5 E27.36233
G1 X109.2 Y61.782 E27.38866
G1 X110.38 Y62.425 E27.41394
G1 X110.963 Y62.89 E27.42797
G1 X111.673 Y63.771 E27.44925
G1 X112.317 Y65.063 E27.47641
G1 X112.476 Y66.152 E27.49711
G1 X112.5 Y106.829 E28.26227
G1 X112.218 Y108.2 E28.2886
G1 X111.575 Y109.38 E28.31387
G1 X111.11 Y109.963 E28.3279
G1 X110.229 Y110.673 E28.34919
G1 X108.937 Y111.317 E28.37634
G1 X107.848 Y111.476 E28.39704
G1 X67.098 Y111.5 E29.16357
G1 X65.77 Y111.208 E29.18915
G1 X64.667 Y110.618 E29.21268
G1 X64.039 Y110.119 E29.22777
G1 X63.329 Y109.236 E29.24908
G1 X62.683 Y107.931 E29.27647
G1 X62.524 Y106.848 E29.29706
G1 X62.5 Y66.171 E30.06222
G1 X62.782 Y64.8 E30.08855
G1 X63.425 Y63.62 E30.11383
G1 X63.89 Y63.037 E30.12785
G0 F3600 X64.174 Y63.322
G1 F1800 X64.991 Y62.664 E30.14759
G1 X66.183 Y62.07 E30.17264
G1 X67.21 Y61.92 E30.19216
G1 X107.787 Y61.9 E30.95544
G1 X109.062 Y62.162 E30.97992
G1 X110.131 Y62.738 E31.00277
G1 X110.678 Y63.174 E31.01592
G1 X111.336 Y63.991 E31.03566
G1 X111.93 Y65.183 E31.06071
G1 X112.08 Y66.21 E31.08023
G1 X112.1 Y106.787 E31.84351
G1 X111.838 Y108.062 E31.86799
G1 X111.262 Y109.131 E31.89083
G1 X110.826 Y109.678 E31.90399
G1 X110.009 Y110.336 E31.92372
G1 X108.817 Y110.93 E31.94878
G1 X107.79 Y111.08 E31.9683
G1 X67.143 Y111.1 E32.73289
G1 X65.91 Y110.829 E32.75664
G1 X64.856 Y110.265 E32.77913
G1 X64.325 Y109.836 E32.79197
G1 X63.665 Y109.015 E32.81178
G1 X63.07 Y107.813 E32.83701
G1 X62.92 Y106.79 E32.85646
G1 X62.9 Y66.213 E33.61974
G1 X63.162 Y64.938 E33.64422
G1 X63.738 Y63.869 E33.66706
G1 X64.174 Y63.322 E33.68022
G0 F3600 X64.456 Y63.609
G1 F1800 X65.211 Y63.001 E33.69845
G1 X66.303 Y62.457 E33.7214
G1 X67.268 Y62.316 E33.73975
G1 X107.746 Y62.3 E34.50116
G1 X108.924 Y62.542 E34.52378
G1 X109.941 Y63.09 E34.54551
G1 X110.391 Y63.456 E34.55643
G1 X110.999 Y64.211 E34.57466
G1 X111.543 Y65.303 E34.59761
G1 X111.684 Y66.268 E34.61595
G1 X111.7 Y106.746 E35.37737
G1 X111.458 Y107.924 E35.39999
G1 X110.91 Y108.941 E35.42172
G1 X110.544 Y109.391 E35.43263
G1 X109.789 Y109.999 E35.45087
G1 X108.697 Y110.543 E35.47381
G1 X107.732 Y110.684 E35.49216
G1 X67.188 Y110.7 E36.25481
G1 X66.05 Y110.45 E36.27673
G1 X65.078 Y109.93 E36.29747
G1 X64.611 Y109.552 E36.30877
G1 X64.001 Y108.794 E36.32707
G1 X63.457 Y107.695 E36.35014
G1 X63.316 Y106.732 E36.36845
G1 X63.3 Y66.254 E37.12986
G1 X63.542 Y65.076 E37.15248
G1 X64.09 Y64.059 E37.17421
G1 X64.456 Y63.609 E37.18512
G0 F3600 X64.707 Y63.921
G1 F1800 X65.431 Y63.338 E37.20261
G1 X66.423 Y62.844 E37.22345
G1 X67.326 Y62.712 E37.24062
G1 X107.705 Y62.7 E38.00017
G1 X108.786 Y62.922 E38.02093
G1 X109.694 Y63.405 E38.04028
G1 X110.079 Y63.707 E38.04948
G1 X110.662 Y64.431 E38.06697
G1 X111.156 Y65.423 E38.08781
G1 X111.288 Y66.326 E38.10498
G1 X111.3 Y106.705 E38.86453
G1 X111.078 Y107.786 E38.88529
G1 X110.595 Y108.694 E38.90463
G1 X110.293 Y109.079 E38.91384
G1 X109.569 Y109.662 E38.93132
G1 X108.577 Y110.156 E38.95217
G1 X107.674 Y110.288 E38.96934
G1 X67.233 Y110.3 E39.73005
G1 X66.19 Y110.071 E39.75014
G1 X65.267 Y109.577 E39.76983
G1 X64.898 Y109.27 E39.77886
G1 X64.339 Y108.575 E39.79564
G1 X63.844 Y107.576 E39.81661
G1 X63.712 Y106.674 E39.83376
G1 X63.7 Y66.295 E40.59331
G1 X63.922 Y65.214 E40.61407
G1 X64.405 Y64.306 E40.63342
G1 X64.707 Y63.921 E40.64262
G0 F3600 X64.958 Y64.233
G1 F1800 X65.651 Y63.675 E40.65936
G1 X66.543 Y63.231 E40.6781
G1 X67.384 Y63.108 E40.69409
G1 X107.664 Y63.1 E41.45178
G1 X108.65 Y63.302 E41.47071
G1 X109.455 Y63.726 E41.48782
G1 X109.767 Y63.958 E41.49514
G1 X110.325 Y64.651 E41.51187
G1 X110.769 Y65.543 E41.53062
G1 X110.892 Y66.384 E41.5466
G1 X110.9 Y106.664 E42.30429
G1 X110.698 Y107.65 E42.32323
G1 X110.274 Y108.455 E42.34034
G1 X110.042 Y108.767 E42.34765
G1 X109.349 Y109.325 E42.36439
G1 X108.457 Y109.769 E42.38313
G1 X107.616 Y109.892 E42.39912
G1 X67.278 Y109.9 E43.1579
G1 X66.33 Y109.692 E43.17616
G1 X65.456 Y109.224 E43.19481
G1 X65.21 Y109.019 E43.20083
G1 X64.677 Y108.356 E43.21683
G1 X64.231 Y107.457 E43.23571
G1 X64.108 Y106.616 E43.2517
G1 X64.1 Y66.336 E44.00939
G1 X64.302 Y65.35 E44.02832
G1 X64.726 Y64.545 E44.04543
G1 X64.958 Y64.233 E44.05275
G0 F3600 X65.249 Y64.512
G1 F1800 X65.867 Y64.014 E44.06768
G1 X66.663 Y63.618 E44.0844
G1 X67.442 Y63.504 E44.09921
G1 X107.623 Y63.5 E44.85504
G1 X108.513 Y63.682 E44.87213
G1 X109.268 Y64.08 E44.88818
G1 X109.488 Y64.249 E44.8934
G1 X109.986 Y64.867 E44.90833
G1 X110.382 Y65.663 E44.92505
G1 X110.496 Y66.442 E44.93986
G1 X110.5 Y106.623 E45.69569
G1 X110.318 Y107.513 E45.71278
G1 X109.92 Y108.268 E45.72883
G1 X109.751 Y108.488 E45.73405
G1 X109.133 Y108.986 E45.74898
G1 X108.337 Y109.382 E45.7657
G1 X107.558 Y109.496 E45.78051
G1 X67.323 Y109.5 E46.53735
G1 X66.47 Y109.313 E46.55378
G1 X65.645 Y108.871 E46.57139
G1 X65.522 Y108.768 E46.5744
G1 X65.015 Y108.137 E46.58963
G1 X64.618 Y107.337 E46.60643
G1 X64.504 Y106.558 E46.62124
G1 X64.5 Y66.377 E47.37707
G1 X64.682 Y65.487 E47.39415
G1 X65.08 Y64.732 E47.41021
G1 X65.249 Y64.512 E47.41543
G0 F3600 X65.537 Y64.793
G1 F1800 X66.083 Y64.353 E47.42862
G1 X66.783 Y64.005 E47.44332
G1 X67.5 Y63.9 E47.45695
G1 X107.582 Y63.9 E48.21092
G1 X108.378 Y64.063 E48.2262
G1 X109.082 Y64.434 E48.24117
G1 X109.207 Y64.537 E48.24422
G1 X109.647 Y65.083 E48.25741
G1 X109.995 Y65.783 E48.27211
G1 X110.1 Y66.5 E48.28574
G1 X110.1 Y106.582 E49.03971
G1 X109.937 Y107.378 E49.05499
G1 X109.566 Y108.082 E49.06996
G1 X109.463 Y108.207 E49.07301
G1 X108.917 Y108.647 E49.0862
G1 X108.217 Y108.995 E49.1009
G1 X107.5 Y109.1 E49.11453
G1 X67.368 Y109.1 E49.86944
G1 X66.61 Y108.934 E49.88404
G1 X65.834 Y108.518 E49.9006
G1 X65.354 Y107.92 E49.91502
G1 X65.005 Y107.217 E49.92979
G1 X64.9 Y106.5 E49.94342
G1 X64.9 Y66.418 E50.69738
G1 X65.063 Y65.622 E50.71267
G1 X65.434 Y64.918 E50.72763
G1 X65.537 Y64.793 E50.73068
G0 F3600 X65.788 Y65.104
G1 F1800 X66.299 Y64.692 E50.74303
G1 X66.905 Y64.391 E50.75576
G1 X67.5 Y64.3 E50.76708
G1 X107.541 Y64.3 E51.52027
G1 X108.243 Y64.444 E51.53375
G1 X108.896 Y64.788 E51.54764
G1 X109.308 Y65.299 E51.55998
G1 X109.609 Y65.905 E51.57271
G1 X109.7 Y66.5 E51.58403
G1 X109.7 Y106.541 E52.33723
G1 X109.556 Y107.243 E52.35071
G1 X109.212 Y107.896 E52.36459
G1 X108.701 Y108.308 E52.37694
G1 X108.095 Y108.609 E52.38967
G1 X107.5 Y108.7 E52.40099
G1 X67.413 Y108.7 E53.15505
G1 X66.747 Y108.554 E53.16787
G1 X66.097 Y108.205 E53.18175
G1 X65.692 Y107.701 E53.19391
G1 X65.391 Y107.095 E53.20664
G1 X65.3 Y106.5 E53.21796
G1 X65.3 Y66.459 E53.97116
G1 X65.444 Y65.757 E53.98464
G1 X65.788 Y65.104 E53.99852
G0 F3600 X66.105 Y65.362
G1 F1800 X66.477 Y65.05 E54.00765
G1 X67.026 Y64.777 E54.01919
G1 X67.5 Y64.7 E54.02822
G1 X107.5 Y64.7 E54.78064
G1 X108.106 Y64.824 E54.79228
G1 X108.638 Y65.105 E54.80359
G1 X108.95 Y65.477 E54.81273
G1 X109.223 Y66.026 E54.82426
G1 X109.3 Y66.5 E54.83329
G1 X109.3 Y106.5 E55.58572
G1 X109.176 Y107.106 E55.59735
G1 X108.895 Y107.638 E55.60867
G1 X108.523 Y107.95 E55.6178
G1 X107.974 Y108.223 E55.62933
G1 X107.5 Y108.3 E55.63837
G1 X67.458 Y108.3 E56.39158
G1 X66.884 Y108.174 E56.40263
G1 X66.359 Y107.892 E56.41384
G1 X66.05 Y107.523 E56.4229
G1 X65.777 Y106.974 E56.43443
G1 X65.7 Y106.5 E56.44346
G1 X65.7 Y66.5 E57.19589
G1 X65.824 Y65.894 E57.20752
G1 X66.105 Y65.362 E57.21884
G0 F3600 X66.423 Y65.617
G1 F1800 X66.655 Y65.408 E57.22471
G1 X67.149 Y65.162 E57.23509
G1 X67.5 Y65.1 E57.2418
G1 X107.5 Y65.1 E57.99422
G1 X107.919 Y65.178 E58.00224
G1 X108.383 Y65.423 E58.01211
G1 X108.592 Y65.655 E58.01798
G1 X108.838 Y66.149 E58.02836
G1 X108.9 Y66.5 E58.03507
G1 X108.9 Y106.5 E58.78749
G1 X108.822 Y106.919 E58.79551
G1 X108.577 Y107.383 E58.80538
G1 X108.345 Y107.592 E58.81125
G1 X107.851 Y107.838 E58.82163
G1 X107.5 Y107.9 E58.82834
G1 X67.458 Y107.9 E59.58155
G1 X66.977 Y107.785 E59.59085
G1 X66.617 Y107.577 E59.59867
G1 X66.408 Y107.345 E59.60455
G1 X66.162 Y106.851 E59.61493
G1 X66.1 Y106.5 E59.62163
G1 X66.1 Y66.5 E60.37405
G1 X66.178 Y66.081 E60.38207
G1 X66.423 Y65.617 E60.39194
G0 F3600 X66.707 Y65.899
G1 F1800 X66.57 Y66.162 E60.39752
G1 X66.5 Y66.5 E60.40401
G1 X66.5 Y106.5 E61.15643
G1 X66.554 Y106.773 E61.16167
G1 X66.76 Y107.155 E61.16983
G1 X66.899 Y107.293 E61.17352
G1 X67.162 Y107.43 E61.17909
G1 X67.5 Y107.5 E61.18559
G1 X107.5 Y107.5 E61.93801
G1 X107.773 Y107.446 E61.94324
G1 X108.155 Y107.24 E61.95141
G1 X108.293 Y107.101 E61.95509
G1 X108.43 Y106.838 E61.96067
G1 X108.5 Y106.5 E61.96716
G1 X108.5 Y66.5 E62.71959
G1 X108.446 Y66.227 E62.72482
G1 X108.24 Y65.845 E62.73298
G1 X108.101 Y65.707 E62.73667
G1 X107.838 Y65.57 E62.74225
G1 X107.5 Y65.5 E62.74874
G1 X67.5 Y65.5 E63.50116
G1 X67.227 Y65.554 E63.5064
G1 X66.845 Y65.76 E63.51456
G1 X66.707 Y65.899 E63.51825
G0 F3600 X67.339 Y66.381
G1 F1800 X67.5 Y66.3 E63.52164
G1 X107.5 Y66.3 E64.27406
G1 X107.619 Y66.339 E64.27641
G1 X107.7 Y66.5 E64.2798
G1 X107.7 Y106.5 E65.03223
G1 X107.661 Y106.619 E65.03458
G1 X107.5 Y106.7 E65.03797
G1 X67.5 Y106.7 E65.79039
G1 X67.381 Y106.661 E65.79275
G1 X67.3 Y106.5 E65.79614
G1 X67.3 Y66.5 E66.54856
G1 X67.339 Y66.381 E66.55092
G0 F3600 X66.959 Y66.256
G1 F1800 X67.05 Y66.104 E66.55425
G1 X67.32 Y65.943 E66.56016
G1 X67.5 Y65.9 E66.56364
G1 X107.5 Y65.9 E67.31607
G1 X107.744 Y65.959 E67.32079
G1 X107.896 Y66.05 E67.32412
G1 X108.057 Y66.32 E67.33003
G1 X108.1 Y66.5 E67.33352
G1 X108.1 Y106.5 E68.08594
G1 X108.041 Y106.744 E68.09066
G1 X107.95 Y106.896 E68.09399
G1 X107.68 Y107.057 E68.09991
G1 X107.5 Y107.1 E68.10339
G1 X67.5 Y107.1 E68.85581
G1 X67.256 Y107.041 E68.86053
