;FLAVOR:Marlin
;TIME:624
;Filament used: 0.111445m
;Layer height: 0.1
;MINX:74.7
;MINY:73.7
;MINZ:0.3
;MAXX:100.3
;MAXY:99.3
;MAXZ:10
;TARGET_MACHINE.NAME:Unknown
;Generated with Cura_SteamEngine 5.10.0
M104 S200
M105
M109 S200
G28 ;Home
G1 Z15.0 F6000 ;Move the platform down 15mm
;Prime the extruder
G92 E0
G1 F200 E3
G92 E0
M82 ;absolute extrusion mode
G92 E0
G92 E0
G1 F1500 E-6.5
;LAYER_COUNT:98
;LAYER:0
M107
G0 F3600 X76.89 Y76.052 Z0.3
;TYPE:SKIRT
G1 F1500 E0
G1 F1800 X78.243 Y74.96 E0.03271
G1 X80.224 Y73.974 E0.07433
G1 X81.858 Y73.744 E0.10537
G1 X93.115 Y73.7 E0.31712
G1 X95.179 Y74.123 E0.35675
G1 X96.95 Y75.117 E0.39496
G1 X97.948 Y75.89 E0.4187
G1 X99.04 Y77.243 E0.45141
G1 X100.026 Y79.224 E0.49303
G1 X100.256 Y80.858 E0.52407
G1 X100.3 Y92.115 E0.73582
G1 X99.877 Y94.179 E0.77545
G1 X98.883 Y95.95 E0.81366
G1 X98.11 Y96.948 E0.8374
G1 X96.757 Y98.04 E0.87011
G1 X94.778 Y99.026 E0.9117
G1 X93.254 Y99.248 E0.94067
G1 X81.789 Y99.3 E1.15633
G1 X79.782 Y98.861 E1.19498
G1 X77.996 Y97.861 E1.23348
G1 X77.053 Y97.122 E1.25602
G1 X75.972 Y95.776 E1.28849
G1 X74.974 Y93.76 E1.33081
G1 X74.752 Y92.254 E1.35944
G1 X74.7 Y80.885 E1.5733
G1 X75.123 Y78.821 E1.61293
G1 X76.117 Y77.05 E1.65114
G1 X76.89 Y76.052 E1.67488
G0 F3600 X77.178 Y76.333
G1 F1800 X78.46 Y75.299 E1.70586
G1 X80.343 Y74.361 E1.74543
G1 X81.86 Y74.144 E1.77426
G1 X93.075 Y74.1 E1.98522
G1 X95.039 Y74.503 E2.02294
G1 X96.705 Y75.433 E2.05883
G1 X97.667 Y76.178 E2.08171
G1 X98.701 Y77.46 E2.1127
G1 X99.639 Y79.343 E2.15227
G1 X99.856 Y80.86 E2.18109
G1 X99.9 Y92.075 E2.39205
G1 X99.497 Y94.039 E2.42977
G1 X98.567 Y95.705 E2.46566
G1 X97.822 Y96.667 E2.48855
G1 X96.54 Y97.701 E2.51953
G1 X94.658 Y98.639 E2.55908
G1 X93.196 Y98.852 E2.58687
G1 X81.833 Y98.9 E2.80062
G1 X79.924 Y98.482 E2.83738
G1 X78.243 Y97.546 E2.87357
G1 X77.337 Y96.836 E2.89522
G1 X76.308 Y95.555 E2.92613
G1 X75.361 Y93.642 E2.96628
G1 X75.148 Y92.196 E2.99378
G1 X75.1 Y80.925 E3.20579
G1 X75.503 Y78.961 E3.24351
G1 X76.433 Y77.295 E3.2794
G1 X77.178 Y76.333 E3.30229
G0 F3600 X77.466 Y76.614
G1 F1800 X78.677 Y75.638 E3.33154
G1 X80.462 Y74.748 E3.36906
G1 X81.862 Y74.544 E3.39567
G1 X93.035 Y74.5 E3.60585
G1 X94.898 Y74.882 E3.64162
G1 X96.46 Y75.749 E3.67522
G1 X97.386 Y76.466 E3.69725
G1 X98.362 Y77.677 E3.72651
G1 X99.252 Y79.462 E3.76403
G1 X99.456 Y80.862 E3.79064
G1 X99.5 Y92.035 E4.00082
G1 X99.118 Y93.898 E4.03659
G1 X98.251 Y95.46 E4.07019
G1 X97.534 Y96.386 E4.09222
G1 X96.323 Y97.362 E4.12148
G1 X94.538 Y98.252 E4.159
G1 X93.138 Y98.456 E4.18561
G1 X81.877 Y98.5 E4.39744
G1 X80.067 Y98.103 E4.4323
G1 X78.49 Y97.231 E4.46619
G1 X77.621 Y96.55 E4.48696
G1 X76.644 Y95.334 E4.5163
G1 X75.748 Y93.524 E4.55429
G1 X75.544 Y92.138 E4.58065
G1 X75.5 Y80.965 E4.79082
G1 X75.882 Y79.102 E4.82659
G1 X76.749 Y77.54 E4.8602
G1 X77.466 Y76.614 E4.88223
G0 F3600 X77.751 Y76.898
G1 F1800 X78.897 Y75.975 E4.9099
G1 X80.582 Y75.135 E4.94532
G1 X81.92 Y74.94 E4.97075
G1 X92.995 Y74.9 E5.17908
G1 X94.757 Y75.262 E5.21292
G1 X96.266 Y76.099 E5.24538
G1 X97.102 Y76.751 E5.26532
G1 X98.025 Y77.897 E5.293
G1 X98.865 Y79.582 E5.32842
G1 X99.06 Y80.92 E5.35385
G1 X99.1 Y91.995 E5.56218
G1 X98.738 Y93.757 E5.59602
G1 X97.901 Y95.266 E5.62848
G1 X97.249 Y96.102 E5.64842
G1 X96.103 Y97.025 E5.6761
G1 X94.418 Y97.865 E5.71151
G1 X93.08 Y98.06 E5.73695
G1 X81.921 Y98.1 E5.94686
G1 X80.209 Y97.724 E5.97983
G1 X78.737 Y96.916 E6.01141
G1 X77.905 Y96.264 E6.0313
G1 X76.983 Y95.117 E6.05898
G1 X76.135 Y93.403 E6.09495
G1 X75.94 Y92.08 E6.12011
G1 X75.9 Y81.005 E6.32843
G1 X76.262 Y79.243 E6.36227
G1 X77.099 Y77.734 E6.39473
G1 X77.751 Y76.898 E6.41467
G0 F3600 X78.035 Y77.183
G1 F1800 X79.117 Y76.312 E6.4408
G1 X80.702 Y75.522 E6.47411
G1 X81.978 Y75.336 E6.49837
G1 X92.954 Y75.3 E6.70484
G1 X94.617 Y75.642 E6.73677
G1 X96.072 Y76.449 E6.76807
G1 X96.817 Y77.035 E6.7859
G1 X97.688 Y78.117 E6.81203
G1 X98.478 Y79.702 E6.84534
G1 X98.664 Y80.978 E6.8696
G1 X98.7 Y91.954 E7.07606
G1 X98.358 Y93.617 E7.108
G1 X97.551 Y95.072 E7.1393
G1 X96.965 Y95.817 E7.15712
G1 X95.883 Y96.688 E7.18325
G1 X94.298 Y97.478 E7.21657
G1 X93.022 Y97.664 E7.24082
G1 X81.965 Y97.7 E7.44881
G1 X80.349 Y97.345 E7.47993
G1 X78.984 Y96.601 E7.50918
G1 X78.186 Y95.976 E7.52824
G1 X77.321 Y94.899 E7.55423
G1 X76.522 Y93.285 E7.5881
G1 X76.336 Y92.022 E7.61212
G1 X76.3 Y81.046 E7.81858
G1 X76.642 Y79.383 E7.85052
G1 X77.449 Y77.928 E7.88182
G1 X78.035 Y77.183 E7.89965
G0 F3600 X78.32 Y77.468
G1 F1800 X79.335 Y76.651 E7.92416
G1 X80.823 Y75.909 E7.95543
G1 X82.036 Y75.732 E7.97849
G1 X92.913 Y75.7 E8.1831
G1 X94.477 Y76.022 E8.21313
G1 X95.878 Y76.799 E8.24327
G1 X96.532 Y77.32 E8.259
G1 X97.349 Y78.335 E8.28351
G1 X98.091 Y79.823 E8.31478
G1 X98.268 Y81.036 E8.33784
G1 X98.3 Y91.913 E8.54245
G1 X97.978 Y93.477 E8.57248
G1 X97.201 Y94.878 E8.60262
G1 X96.68 Y95.532 E8.61835
G1 X95.665 Y96.349 E8.64286
G1 X94.177 Y97.091 E8.67413
G1 X92.964 Y97.268 E8.69719
G1 X82.009 Y97.3 E8.90326
G1 X80.489 Y96.966 E8.93254
G1 X79.231 Y96.286 E8.95944
G1 X78.47 Y95.69 E8.97762
G1 X77.657 Y94.678 E9.00204
G1 X76.909 Y93.167 E9.03375
G1 X76.732 Y91.964 E9.05662
G1 X76.7 Y81.087 E9.26123
G1 X77.022 Y79.523 E9.29126
G1 X77.799 Y78.122 E9.3214
G1 X78.32 Y77.468 E9.33713
G0 F3600 X78.604 Y77.754
G1 F1800 X79.555 Y76.988 E9.3601
G1 X80.943 Y76.296 E9.38927
G1 X82.094 Y76.128 E9.41115
G1 X92.871 Y76.1 E9.61387
G1 X94.338 Y76.402 E9.64205
G1 X95.629 Y77.112 E9.66976
G1 X96.246 Y77.604 E9.68461
G1 X97.012 Y78.555 E9.70758
G1 X97.704 Y79.943 E9.73675
G1 X97.872 Y81.094 E9.75863
G1 X97.9 Y91.871 E9.96135
G1 X97.598 Y93.338 E9.98953
G1 X96.888 Y94.629 E10.01724
G1 X96.396 Y95.246 E10.03209
G1 X95.445 Y96.012 E10.05506
G1 X94.057 Y96.704 E10.08423
G1 X92.906 Y96.872 E10.10611
G1 X82.053 Y96.9 E10.31026
G1 X80.63 Y96.587 E10.33767
G1 X79.478 Y95.971 E10.36224
G1 X78.754 Y95.404 E10.37954
G1 X77.993 Y94.457 E10.40239
G1 X77.296 Y93.049 E10.43195
G1 X77.128 Y91.906 E10.45368
G1 X77.1 Y81.129 E10.6564
G1 X77.402 Y79.662 E10.68457
G1 X78.112 Y78.371 E10.71229
G1 X78.604 Y77.754 E10.72713
G0 F3600 X78.89 Y78.037
G1 F1800 X79.771 Y77.327 E10.74842
G1 X81.063 Y76.683 E10.77557
G1 X82.152 Y76.524 E10.79627
G1 X92.829 Y76.5 E10.99711
G1 X94.2 Y76.782 E11.02344
G1 X95.38 Y77.425 E11.04872
G1 X95.963 Y77.89 E11.06275
G1 X96.673 Y78.771 E11.08403
G1 X97.317 Y80.063 E11.11119
G1 X97.476 Y81.152 E11.13189
G1 X97.5 Y91.829 E11.33273
G1 X97.218 Y93.2 E11.35906
G1 X96.575 Y94.38 E11.38434
G1 X96.11 Y94.963 E11.39837
G1 X95.229 Y95.673 E11.41965
G1 X93.937 Y96.317 E11.4468
G1 X92.848 Y96.476 E11.46751
G1 X82.098 Y96.5 E11.66972
G1 X80.77 Y96.208 E11.6953
G1 X79.667 Y95.618 E11.71883
G1 X79.039 Y95.119 E11.73392
G1 X78.329 Y94.236 E11.75523
G1 X77.683 Y92.931 E11.78262
G1 X77.524 Y91.848 E11.80321
G1 X77.5 Y81.171 E12.00405
G1 X77.782 Y79.8 E12.03038
G1 X78.425 Y78.62 E12.05566
G1 X78.89 Y78.037 E12.06969
G0 F3600 X79.174 Y78.322
G1 F1800 X79.991 Y77.664 E12.08942
G1 X81.183 Y77.07 E12.11447
G1 X82.21 Y76.92 E12.13399
G1 X92.787 Y76.9 E12.33295
G1 X94.062 Y77.162 E12.35744
G1 X95.131 Y77.738 E12.38028
G1 X95.678 Y78.174 E12.39344
G1 X96.336 Y78.991 E12.41317
G1 X96.93 Y80.183 E12.43822
G1 X97.08 Y81.21 E12.45775
G1 X97.1 Y91.787 E12.65671
G1 X96.838 Y93.062 E12.68119
G1 X96.262 Y94.131 E12.70403
G1 X95.826 Y94.678 E12.71719
G1 X95.009 Y95.336 E12.73692
G1 X93.817 Y95.93 E12.76197
G1 X92.79 Y96.08 E12.7815
G1 X82.143 Y96.1 E12.98177
G1 X80.91 Y95.829 E13.00552
G1 X79.856 Y95.265 E13.02801
G1 X79.325 Y94.836 E13.04085
G1 X78.665 Y94.015 E13.06066
G1 X78.07 Y92.813 E13.08589
G1 X77.92 Y91.79 E13.10534
G1 X77.9 Y81.213 E13.3043
G1 X78.162 Y79.938 E13.32879
G1 X78.738 Y78.869 E13.35163
G1 X79.174 Y78.322 E13.36479
G0 F3600 X79.456 Y78.609
G1 F1800 X80.211 Y78.001 E13.38302
G1 X81.303 Y77.457 E13.40597
G1 X82.268 Y77.316 E13.42431
G1 X92.746 Y77.3 E13.62141
G1 X93.924 Y77.542 E13.64403
G1 X94.941 Y78.09 E13.66576
G1 X95.391 Y78.456 E13.67667
G1 X95.999 Y79.211 E13.69491
G1 X96.543 Y80.303 E13.71786
G1 X96.684 Y81.268 E13.7362
G1 X96.7 Y91.746 E13.9333
G1 X96.458 Y92.924 E13.95592
G1 X95.91 Y93.941 E13.97765
G1 X95.544 Y94.391 E13.98856
G1 X94.789 Y94.999 E14.0068
G1 X93.697 Y95.543 E14.02975
G1 X92.732 Y95.684 E14.04809
G1 X82.188 Y95.7 E14.24643
G1 X81.05 Y95.45 E14.26835
G1 X80.078 Y94.93 E14.28908
G1 X79.611 Y94.552 E14.30038
G1 X79.001 Y93.794 E14.31869
G1 X78.457 Y92.695 E14.34175
G1 X78.316 Y91.732 E14.36006
G1 X78.3 Y81.254 E14.55716
G1 X78.542 Y80.076 E14.57978
G1 X79.09 Y79.059 E14.60151
G1 X79.456 Y78.609 E14.61242
G0 F3600 X79.707 Y78.921
G1 F1800 X80.431 Y78.338 E14.62991
G1 X81.423 Y77.844 E14.65075
G1 X82.326 Y77.712 E14.66792
G1 X92.705 Y77.7 E14.86315
G1 X93.786 Y77.922 E14.88391
G1 X94.694 Y78.405 E14.90326
G1 X95.079 Y78.707 E14.91246
G1 X95.662 Y79.431 E14.92995
G1 X96.156 Y80.423 E14.95079
G1 X96.288 Y81.326 E14.96796
G1 X96.3 Y91.705 E15.1632
G1 X96.078 Y92.786 E15.18395
G1 X95.595 Y93.694 E15.2033
G1 X95.293 Y94.079 E15.2125
G1 X94.569 Y94.662 E15.22999
G1 X93.577 Y95.156 E15.25084
G1 X92.674 Y95.288 E15.268
G1 X82.233 Y95.3 E15.4644
G1 X81.19 Y95.071 E15.48449
G1 X80.267 Y94.577 E15.50418
G1 X79.898 Y94.27 E15.51321
G1 X79.339 Y93.575 E15.52999
G1 X78.844 Y92.576 E15.55096
G1 X78.712 Y91.674 E15.56811
G1 X78.7 Y81.295 E15.76334
G1 X78.922 Y80.214 E15.7841
G1 X79.405 Y79.306 E15.80345
G1 X79.707 Y78.921 E15.81265
G0 F3600 X79.958 Y79.233
G1 F1800 X80.651 Y78.675 E15.82939
G1 X81.543 Y78.231 E15.84813
G1 X82.384 Y78.108 E15.86412
G1 X92.664 Y78.1 E16.05749
G1 X93.65 Y78.302 E16.07643
G1 X94.455 Y78.726 E16.09354
G1 X94.767 Y78.958 E16.10085
G1 X95.325 Y79.651 E16.11759
G1 X95.769 Y80.543 E16.13633
G1 X95.892 Y81.384 E16.15232
G1 X95.9 Y91.664 E16.34569
G1 X95.698 Y92.65 E16.36463
G1 X95.274 Y93.455 E16.38174
G1 X95.042 Y93.767 E16.38905
G1 X94.349 Y94.325 E16.40579
G1 X93.457 Y94.769 E16.42453
G1 X92.616 Y94.892 E16.44052
G1 X82.278 Y94.9 E16.63498
G1 X81.33 Y94.692 E16.65324
G1 X80.456 Y94.224 E16.67189
G1 X80.21 Y94.019 E16.67791
G1 X79.677 Y93.356 E16.69391
G1 X79.231 Y92.457 E16.71279
G1 X79.108 Y91.616 E16.72878
G1 X79.1 Y81.336 E16.92215
G1 X79.302 Y80.35 E16.94109
G1 X79.726 Y79.545 E16.9582
G1 X79.958 Y79.233 E16.96551
G0 F3600 X80.249 Y79.512
G1 F1800 X80.867 Y79.014 E16.98044
G1 X81.663 Y78.618 E16.99717
G1 X82.442 Y78.504 E17.01198
G1 X92.623 Y78.5 E17.20349
G1 X93.513 Y78.682 E17.22057
G1 X94.268 Y79.08 E17.23663
G1 X94.488 Y79.249 E17.24185
G1 X94.986 Y79.867 E17.25678
G1 X95.382 Y80.663 E17.2735
G1 X95.496 Y81.442 E17.28831
G1 X95.5 Y91.623 E17.47982
G1 X95.318 Y92.513 E17.49691
G1 X94.92 Y93.268 E17.51296
G1 X94.751 Y93.488 E17.51818
G1 X94.133 Y93.986 E17.53311
G1 X93.337 Y94.382 E17.54983
G1 X92.558 Y94.496 E17.56464
G1 X82.323 Y94.5 E17.75717
G1 X81.47 Y94.313 E17.7736
G1 X80.645 Y93.871 E17.7912
G1 X80.522 Y93.768 E17.79422
G1 X80.015 Y93.137 E17.80945
G1 X79.618 Y92.337 E17.82625
G1 X79.504 Y91.558 E17.84105
G1 X79.5 Y81.377 E18.03257
G1 X79.682 Y80.487 E18.04965
G1 X80.08 Y79.732 E18.06571
G1 X80.249 Y79.512 E18.07093
G0 F3600 X80.537 Y79.793
G1 F1800 X81.083 Y79.353 E18.08412
G1 X81.783 Y79.005 E18.09882
G1 X82.5 Y78.9 E18.11245
G1 X92.582 Y78.9 E18.3021
G1 X93.378 Y79.063 E18.31738
G1 X94.082 Y79.434 E18.33235
G1 X94.207 Y79.537 E18.3354
G1 X94.647 Y80.083 E18.34859
G1 X94.995 Y80.783 E18.36329
G1 X95.1 Y81.5 E18.37693
G1 X95.1 Y91.582 E18.56657
G1 X94.937 Y92.378 E18.58186
G1 X94.566 Y93.082 E18.59683
G1 X94.463 Y93.207 E18.59987
G1 X93.917 Y93.647 E18.61306
G1 X93.217 Y93.995 E18.62777
G1 X92.5 Y94.1 E18.6414
G1 X82.368 Y94.1 E18.83199
G1 X81.61 Y93.934 E18.84658
G1 X80.834 Y93.518 E18.86315
G1 X80.354 Y92.92 E18.87757
G1 X80.005 Y92.217 E18.89233
G1 X79.9 Y91.5 E18.90597
G1 X79.9 Y81.418 E19.09561
G1 X80.063 Y80.622 E19.1109
G1 X80.434 Y79.918 E19.12587
G1 X80.537 Y79.793 E19.12891
G0 F3600 X80.788 Y80.104
G1 F1800 X81.299 Y79.692 E19.14126
G1 X81.905 Y79.391 E19.15399
G1 X82.5 Y79.3 E19.16531
G1 X92.541 Y79.3 E19.35419
G1 X93.243 Y79.444 E19.36767
G1 X93.896 Y79.788 E19.38155
G1 X94.308 Y80.299 E19.3939
G1 X94.609 Y80.905 E19.40663
G1 X94.7 Y81.5 E19.41795
G1 X94.7 Y91.541 E19.60683
G1 X94.556 Y92.243 E19.62031
G1 X94.212 Y92.896 E19.63419
G1 X93.701 Y93.308 E19.64654
G1 X93.095 Y93.609 E19.65926
G1 X92.5 Y93.7 E19.67059
G1 X82.413 Y93.7 E19.86033
G1 X81.747 Y93.554 E19.87315
G1 X81.097 Y93.205 E19.88703
G1 X80.692 Y92.701 E19.89919
G1 X80.391 Y92.095 E19.91192
G1 X80.3 Y91.5 E19.92324
G1 X80.3 Y81.459 E20.11212
G1 X80.444 Y80.757 E20.1256
G1 X80.788 Y80.104 E20.13948
G0 F3600 X81.105 Y80.362
G1 F1800 X81.477 Y80.05 E20.14862
G1 X82.026 Y79.777 E20.16015
G1 X82.5 Y79.7 E20.16918
G1 X92.5 Y79.7 E20.35729
G1 X93.106 Y79.824 E20.36892
G1 X93.638 Y80.105 E20.38024
G1 X93.95 Y80.477 E20.38938
G1 X94.223 Y81.026 E20.40091
G1 X94.3 Y81.5 E20.40994
G1 X94.3 Y91.5 E20.59805
G1 X94.176 Y92.106 E20.60968
G1 X93.895 Y92.638 E20.621
G1 X93.523 Y92.95 E20.63013
G1 X92.974 Y93.223 E20.64167
G1 X92.5 Y93.3 E20.6507
G1 X82.458 Y93.3 E20.83959
G1 X81.884 Y93.174 E20.85065
G1 X81.359 Y92.892 E20.86186
G1 X81.05 Y92.523 E20.87091
G1 X80.777 Y91.974 E20.88245
G1 X80.7 Y91.5 E20.89148
G1 X80.7 Y81.5 E21.07958
G1 X80.824 Y80.894 E21.09122
G1 X81.105 Y80.362 E21.10254
G0 F3600 X81.423 Y80.617
G1 F1800 X81.655 Y80.408 E21.10841
G1 X82.149 Y80.162 E21.11879
G1 X82.5 Y80.1 E21.1255
G1 X92.5 Y80.1 E21.3136
G1 X92.919 Y80.178 E21.32162
G1 X93.383 Y80.423 E21.33149
G1 X93.592 Y80.655 E21.33736
G1 X93.838 Y81.149 E21.34774
G1 X93.9 Y81.5 E21.35445
G1 X93.9 Y91.5 E21.54255
G1 X93.822 Y91.919 E21.55057
G1 X93.577 Y92.383 E21.56044
G1 X93.345 Y92.592 E21.56632
G1 X92.851 Y92.838 E21.5767
G1 X92.5 Y92.9 E21.5834
G1 X82.458 Y92.9 E21.7723
G1 X81.977 Y92.785 E21.7816
G1 X81.617 Y92.577 E21.78942
G1 X81.408 Y92.345 E21.79529
G1 X81.162 Y91.851 E21.80567
G1 X81.1 Y91.5 E21.81238
G1 X81.1 Y81.5 E22.00048
G1 X81.178 Y81.081 E22.0085
G1 X81.423 Y80.617 E22.01837
G0 F3600 X81.707 Y80.899
G1 F1800 X81.57 Y81.162 E22.02395
G1 X81.5 Y81.5 E22.03044
G1 X81.5 Y91.5 E22.21855
G1 X81.554 Y91.773 E22.22378
G1 X81.76 Y92.155 E22.23195
G1 X81.899 Y92.293 E22.23563
G1 X82.162 Y92.43 E22.24121
G1 X82.5 Y92.5 E22.2477
G1 X92.5 Y92.5 E22.43581
G1 X92.773 Y92.446 E22.44104
G1 X93.155 Y92.24 E22.44921
G1 X93.293 Y92.101 E22.45289
G1 X93.43 Y91.838 E22.45847
G1 X93.5 Y91.5 E22.46496
G1 X93.5 Y81.5 E22.65307
G1 X93.446 Y81.227 E22.6583
G1 X93.24 Y80.845 E22.66647
G1 X93.101 Y80.707 E22.67015
G1 X92.838 Y80.57 E22.67573
G1 X92.5 Y80.5 E22.68222
G1 X82.5 Y80.5 E22.87033
G1 X82.227 Y80.554 E22.87556
G1 X81.845 Y80.76 E22.88373
G1 X81.707 Y80.899 E22.88741
G0 F3600 X82.339 Y81.381
G1 F1800 X82.5 Y81.3 E22.8908
G1 X92.5 Y81.3 E23.07891
G1 X92.619 Y81.339 E23.08126
G1 X92.7 Y81.5 E23.08465
G1 X92.7 Y91.5 E23.27276
G1 X92.661 Y91.619 E23.27511
G1 X92.5 Y91.7 E23.2785
G1 X82.5 Y91.7 E23.46661
G1 X82.381 Y91.661 E23.46896
G1 X82.3 Y91.5 E23.47235
G1 X82.3 Y81.5 E23.66046
G1 X82.339 Y81.381 E23.66282
G0 F3600 X81.959 Y81.256
G1 F1800 X82.05 Y81.104 E23.66615
G1 X82.32 Y80.943 E23.67206
G1 X82.5 Y80.9 E23.67554
G1 X92.5 Y80.9 E23.86365
G1 X92.744 Y80.959 E23.86837
G1 X92.896 Y81.05 E23.8717
G1 X93.057 Y81.32 E23.87762
G1 X93.1 Y81.5 E23.8811
G1 X93.1 Y91.5 E24.0692
G1 X93.041 Y91.744 E24.07393
G1 X92.95 Y91.896 E24.07726
G1 X92.68 Y92.057 E24.08317
G1 X92.5 Y92.1 E24.08665
G1 X82.5 Y92.1 E24.27476
G1 X82.256 Y92.041 E24.27948
G1 X82.104 Y91.95 E24.28281
G1 X81.943 Y91.68 E24.28873
G1 X81.9 Y91.5 E24.29221
G1 X81.9 Y81.5 E24.48031
G1 X81.959 Y81.256 E24.48503
G1 F1500 E17.98503
;MESH:cube_10mm-Body.stl
G0 F3600 X82.924 Y81.924
G0 X91.62 Y90.62
G0 X91.9 Y90.9
;TYPE:WALL-INNER
G1 F1500 E24.48503
G1 F1800 X91.9 Y82.1 E24.65057
G1 X83.1 Y82.1 E24.8161
G1 X83.1 Y90.9 E24.98163
G1 X91.9 Y90.9 E25.14717
G0 F3600 X92.3 Y91.3
;TYPE:WALL-OUTER
G1 F1800 X92.3 Y81.7 E25.32775
G1 X82.7 Y81.7 E25.50833
G1 X82.7 Y91.3 E25.68891
G1 X92.3 Y91.3 E25.86949
G0 F3600 X92.3 Y91.1
G0 X91.52 Y90.52
;TYPE:SKIN
G1 F1800 X83.48 Y90.52 E26.02073
G1 X83.48 Y82.48 E26.17196
G1 X91.52 Y82.48 E26.3232
