;FLAVOR:Marlin
;TIME:7222
;Filament used: 12.4569m
;Layer height: 0.3
;MINX:73.614
;MINY:33.55
;MINZ:0.3
;MAXX:181.014
;MAXY:152.9
;MAXZ:68.1
;TARGET_MACHINE.NAME:Unknown
;Generated with Cura_SteamEngine 5.10.0
M104 S205
M105
M109 S205
G28 ;Home
G1 Z15.0 F6000 ;Move the platform down 15mm
;Prime the extruder
G92 E0
G1 F200 E3
G92 E0
M82 ;absolute extrusion mode
G92 E0
G92 E0
G1 F1500 E-6.5
;LAYER_COUNT:227
;LAYER:0
M107
G0 F3600 X73.997 Y35.259 Z0.3
;TYPE:SKIRT
G1 F1500 E0
G1 F2400 X74.268 Y34.832 E0.02397
G1 X74.603 Y34.454 E0.04791
G1 X74.994 Y34.133 E0.07189
G1 X75.431 Y33.878 E0.09587
G1 X75.902 Y33.694 E0.11983
G1 X76.396 Y33.588 E0.14378
G1 X76.841 Y33.551 E0.16494
G1 X177.153 Y33.55 E4.9193
G1 X177.851 Y33.56 E4.95238
G1 X178.354 Y33.607 E4.97633
G1 X178.844 Y33.733 E5.00031
G1 X179.308 Y33.935 E5.02429
G1 X179.734 Y34.207 E5.04825
G1 X180.112 Y34.542 E5.07219
G1 X180.432 Y34.933 E5.09613
G1 X180.687 Y35.37 E5.12011
G1 X180.87 Y35.841 E5.14406
G1 X180.977 Y36.335 E5.16802
G1 X181.013 Y36.99 E5.19911
G1 X181.014 Y136.804 E9.92986
G1 X181.005 Y137.531 E9.96432
G1 X180.959 Y138.034 E9.98826
G1 X180.834 Y138.524 E10.01223
G1 X180.633 Y138.988 E10.0362
G1 X180.362 Y139.415 E10.06017
G1 X180.027 Y139.794 E10.08414
G1 X179.637 Y140.115 E10.10808
G1 X179.201 Y140.371 E10.13204
G1 X178.73 Y140.554 E10.15599
G1 X178.236 Y140.662 E10.17996
G1 X177.594 Y140.699 E10.21044
G1 X77.476 Y140.701 E14.9556
G1 X76.777 Y140.691 E14.98873
G1 X76.274 Y140.644 E15.01268
G1 X75.784 Y140.518 E15.03666
G1 X75.32 Y140.316 E15.06064
G1 X74.894 Y140.044 E15.0846
G1 X74.516 Y139.709 E15.10854
G1 X74.196 Y139.318 E15.13248
G1 X73.941 Y138.881 E15.15646
G1 X73.758 Y138.41 E15.18041
G1 X73.651 Y137.916 E15.20437
G1 X73.615 Y137.256 E15.2357
G1 X73.614 Y37.381 E19.96934
G1 X73.623 Y36.716 E20.00086
G1 X73.67 Y36.212 E20.02485
G1 X73.796 Y35.723 E20.04879
G1 X73.997 Y35.259 E20.07275
G1 F1500 E13.57275
;MESH:electronics_box_front.stl
G0 F3600 X76.149 Y37.174
G0 X77.238 Y37.174
G0 X81.167 Y46.938
G0 X82.311 Y47.987
G0 X84.186 Y48.528
G0 X84.132 Y48.218
;TYPE:WALL-INNER
G1 F1500 E20.07275
G1 F2400 X83.411 Y48.35 E20.10749
G1 X82.751 Y48.293 E20.13889
G1 X82.197 Y48.097 E20.16674
G1 X81.849 Y47.897 E20.18577
G1 X81.486 Y47.605 E20.20785
G1 X81.029 Y47.008 E20.24348
G1 X80.819 Y46.481 E20.27037
G1 X80.744 Y46.156 E20.28618
G1 X80.716 Y45.648 E20.31029
G1 X80.756 Y45.285 E20.3276
G1 X80.91 Y44.743 E20.3543
G1 X81.194 Y44.244 E20.38152
G1 X81.549 Y43.841 E20.40697
G1 X82.046 Y43.48 E20.43609
G1 X82.596 Y43.242 E20.46449
G1 X83.16 Y43.156 E20.49153
G1 X83.765 Y43.179 E20.52022
G1 X84.306 Y43.348 E20.54709
G1 X84.654 Y43.525 E20.56559
G1 X85.072 Y43.835 E20.59026
G1 X85.416 Y44.222 E20.6148
G1 X85.67 Y44.653 E20.63851
G1 X85.818 Y45.067 E20.65935
G1 X85.912 Y45.729 E20.69104
G1 X85.848 Y46.316 E20.71902
G1 X85.679 Y46.823 E20.74435
G1 X85.427 Y47.255 E20.76806
G1 X85.037 Y47.695 E20.79592
G1 X84.619 Y47.999 E20.82042
G1 X84.132 Y48.218 E20.84573
G0 F3600 X84.186 Y48.528
G0 X85.495 Y108.911
G0 X86.048 Y109.923
G0 X86.169 Y110.728
G0 X85.943 Y111.862
G0 X85.278 Y112.807
G0 X84.26 Y113.506
G0 X84.132 Y113.223
G1 F2400 X83.398 Y113.348 E20.88102
G1 X82.739 Y113.292 E20.91236
G1 X82.197 Y113.097 E20.93966
G1 X81.849 Y112.897 E20.95869
G1 X81.486 Y112.605 E20.98077
G1 X81.029 Y112.008 E21.0164
G1 X80.819 Y111.481 E21.04329
G1 X80.744 Y111.156 E21.0591
G1 X80.716 Y110.648 E21.08321
G1 X80.756 Y110.285 E21.10052
G1 X80.91 Y109.743 E21.12723
G1 X81.194 Y109.244 E21.15444
G1 X81.561 Y108.832 E21.18059
G1 X82.105 Y108.441 E21.21234
G1 X82.624 Y108.24 E21.23872
G1 X83.13 Y108.153 E21.26305
G1 X83.752 Y108.183 E21.29257
G1 X84.278 Y108.335 E21.31852
G1 X84.916 Y108.701 E21.35338
G1 X85.263 Y109.033 E21.37614
G1 X85.562 Y109.446 E21.40031
G1 X85.806 Y109.984 E21.42831
G1 X85.918 Y110.738 E21.46443
G1 X85.861 Y111.264 E21.48951
G1 X85.699 Y111.786 E21.51541
G1 X85.402 Y112.294 E21.5433
G1 X85.013 Y112.716 E21.57051
G1 X84.636 Y112.988 E21.59254
G1 X84.132 Y113.223 E21.6189
G0 F3600 X84.26 Y113.506
G0 X168.533 Y106.009
G0 X168.534 Y105.573
G1 F2400 X168.238 Y105.7 E21.63416
G1 X86.401 Y105.693 E25.51288
G1 X86.256 Y105.659 E25.51994
G1 X86.061 Y105.541 E25.53075
G1 X85.953 Y105.411 E25.53876
G1 X85.869 Y105.181 E25.55036
G1 X85.865 Y51.358 E28.10134
G1 X85.898 Y51.2 E28.10899
G1 X86.054 Y50.961 E28.12252
G1 X86.244 Y50.841 E28.13317
G1 X86.464 Y50.8 E28.14377
G1 X168.218 Y50.802 E32.01856
G1 X168.52 Y50.916 E32.03386
G1 X168.716 Y51.163 E32.0488
G1 X168.761 Y51.339 E32.05741
G1 X168.764 Y105.169 E34.60873
G1 X168.685 Y105.4 E34.6203
G1 X168.534 Y105.573 E34.63118
G0 F3600 X168.533 Y106.009
G0 X168.493 Y111.171
G0 X168.819 Y112.14
G0 X169.303 Y112.775
G0 X170.146 Y113.354
G0 X171.402 Y113.605
G0 X172.265 Y113.504
G0 X172.135 Y113.217
G1 F2400 X171.473 Y113.34 E34.66309
G1 F2307.7 X170.778 Y113.339 E34.69735
G1 X170.196 Y113.097 E34.72842
G1 F2400 X169.849 Y112.897 E34.7474
G1 X169.486 Y112.605 E34.76948
G1 X169.029 Y112.008 E34.80512
G1 X168.819 Y111.481 E34.832
G1 X168.736 Y111.082 E34.85132
G1 X168.72 Y110.573 E34.87545
G1 X168.777 Y110.186 E34.89399
G1 X168.94 Y109.69 E34.91874
G1 X169.194 Y109.244 E34.94307
G1 X169.508 Y108.87 E34.96621
G1 X170.102 Y108.444 E35.00086
G1 X170.662 Y108.232 E35.02924
G1 X171.184 Y108.156 E35.05424
G1 X171.691 Y108.176 E35.07829
G1 X172.272 Y108.326 E35.10673
G1 X172.923 Y108.701 E35.14233
G1 X173.338 Y109.122 E35.17035
G1 X173.621 Y109.553 E35.19479
G1 X173.818 Y110.067 E35.22088
G1 X173.915 Y110.718 E35.25207
G1 X173.864 Y111.248 E35.27731
G1 X173.717 Y111.758 E35.30246
G1 X173.391 Y112.316 E35.33309
G1 X172.989 Y112.734 E35.36058
G1 X172.639 Y112.986 E35.38102
G1 X172.135 Y113.217 E35.4073
G0 F3600 X172.265 Y113.504
G0 X171.574 Y130.499
G0 X171.114 Y130.499
G1 F2400 X170.921 Y130.643 E35.41871
G1 X170.758 Y130.7 E35.4269
G1 X126.213 Y130.7 E37.53814
G1 X126.049 Y130.644 E37.54635
G1 X125.794 Y130.417 E37.56253
G1 X125.708 Y130.171 E37.57488
G1 X125.706 Y114.347 E38.32487
G1 X125.781 Y114.104 E38.33693
G1 X126.021 Y113.87 E38.35281
G1 X126.228 Y113.8 E38.36317
G1 X170.2 Y113.8 E40.44725
G1 F2232.6 X170.832 Y113.791 E40.47946
G1 X171.163 Y114.066 E40.50138
G1 F2400 X171.26 Y114.324 E40.51445
G1 X171.264 Y130.216 E41.26766
G1 X171.114 Y130.499 E41.28284
G0 F3600 X171.574 Y130.499
G0 X176.934 Y136.02
G0 X177.212 Y136.3
G1 F2400 X177.212 Y37.348 E45.97274
G1 X77.412 Y37.348 E50.70283
G1 X77.412 Y136.3 E55.39273
G1 X177.212 Y136.3 E60.12282
G0 F3600 X176.934 Y136.02
G0 X172.138 Y48.537
G0 X172.085 Y48.231
G1 F2400 X171.386 Y48.354 E60.15645
G1 X170.746 Y48.288 E60.18695
G1 X170.229 Y48.114 E60.2128
G1 X169.803 Y47.868 E60.23612
G1 X169.493 Y47.607 E60.25532
G1 X169.03 Y47.009 E60.29117
G1 X168.819 Y46.481 E60.31812
G1 X168.736 Y46.082 E60.33743
G1 X168.72 Y45.573 E60.36157
G1 X168.761 Y45.254 E60.37681
G1 X168.913 Y44.747 E60.4019
G1 X169.194 Y44.244 E60.42921
G1 X169.561 Y43.832 E60.45536
G1 X170.107 Y43.439 E60.48724
G1 X170.662 Y43.232 E60.51532
G1 X171.16 Y43.156 E60.53919
G1 X171.763 Y43.179 E60.5678
G1 X172.322 Y43.353 E60.59554
G1 X172.674 Y43.533 E60.61428
G1 X173.08 Y43.844 E60.63852
G1 X173.463 Y44.278 E60.66595
G1 X173.799 Y44.97 E60.70241
G1 X173.915 Y45.715 E60.73815
G1 X173.864 Y46.248 E60.76353
G1 X173.717 Y46.758 E60.78868
G1 X173.391 Y47.316 E60.81931
G1 X172.989 Y47.734 E60.8468
G1 X172.565 Y48.027 E60.87123
G1 X172.085 Y48.231 E60.89595
G0 F3600 X171.999 Y47.84
;TYPE:WALL-OUTER
G1 F2400 X171.395 Y47.947 E60.92502
G1 X170.848 Y47.9 E60.95104
G1 X170.407 Y47.756 E60.97303
G1 X170.048 Y47.55 E60.99264
G1 X169.777 Y47.325 E61.00934
G1 X169.371 Y46.786 E61.04132
G1 X169.209 Y46.39 E61.0616
G1 X169.136 Y46.062 E61.07753
G1 X169.117 Y45.623 E61.09835
G1 X169.155 Y45.324 E61.11264
G1 X169.276 Y44.918 E61.13272
G1 X169.48 Y44.532 E61.15341
G1 X169.795 Y44.157 E61.17662
G1 X170.321 Y43.786 E61.20713
G1 X170.73 Y43.626 E61.22794
G1 X171.126 Y43.558 E61.24699
G1 X171.716 Y43.583 E61.27497
G1 X172.14 Y43.709 E61.29594
G1 X172.492 Y43.889 E61.31468
G1 X172.858 Y44.183 E61.33693
G1 X173.14 Y44.528 E61.35805
G1 X173.413 Y45.092 E61.38774
G1 X173.51 Y45.717 E61.41772
G1 X173.47 Y46.179 E61.4397
G1 X173.333 Y46.621 E61.46163
G1 X173.056 Y47.088 E61.48737
G1 X172.784 Y47.384 E61.50642
G1 X172.399 Y47.663 E61.52895
G1 X171.999 Y47.84 E61.54969
G0 F3600 X171.802 Y47.874
G0 X171.855 Y48.181
G0 X168.674 Y105.132
G0 X168.362 Y105.132
G1 F2400 X168.313 Y105.235 E61.55509
G1 X168.197 Y105.298 E61.56135
G1 X86.464 Y105.297 E65.43514
G1 X86.348 Y105.26 E65.44091
G1 X86.265 Y105.125 E65.44842
G1 X86.264 Y51.35 E67.99713
G1 X86.41 Y51.2 E68.00705
G1 X168.182 Y51.2 E71.88269
G1 X168.273 Y51.231 E71.88724
G1 X168.363 Y51.379 E71.89545
G1 X168.362 Y105.132 E74.44311
G0 F3600 X168.313 Y105.235
G0 X168.238 Y105.276
G0 X168.237 Y105.609
G0 X168.974 Y111.483
G0 X169.594 Y112.497
G0 X170.311 Y112.987
G0 X171.235 Y113.55
G0 X172.145 Y113.12
G0 X172.016 Y112.835
G1 F2400 X171.376 Y112.951 E74.47394
G1 X170.82 Y112.895 E74.50043
G1 X170.396 Y112.75 E74.52167
G1 X170.048 Y112.55 E74.54069
G1 X169.761 Y112.306 E74.55854
G1 X169.371 Y111.786 E74.58935
G1 X169.209 Y111.39 E74.60963
G1 X169.136 Y111.062 E74.62555
G1 X169.117 Y110.623 E74.64638
G1 X169.16 Y110.302 E74.66173
G1 X169.292 Y109.88 E74.68269
G1 X169.502 Y109.5 E74.70327
G1 X169.77 Y109.178 E74.72312
G1 X170.299 Y108.796 E74.75405
G1 X170.73 Y108.626 E74.77601
G1 X171.126 Y108.558 E74.79505
G1 X171.717 Y108.583 E74.82309
G1 X172.101 Y108.695 E74.84204
G1 X172.692 Y109.036 E74.87438
G1 X173.009 Y109.35 E74.89553
G1 X173.253 Y109.709 E74.9161
G1 X173.409 Y110.077 E74.93505
G1 X173.512 Y110.748 E74.96722
G1 X173.47 Y111.179 E74.98775
G1 X173.333 Y111.621 E75.00968
G1 X173.056 Y112.088 E75.03541
G1 X172.784 Y112.384 E75.05447
G1 X172.424 Y112.649 E75.07565
G1 X172.016 Y112.835 E75.0969
G0 F3600 X171.82 Y112.87
G0 X171.874 Y113.178
G0 X171.174 Y130.135
G0 X170.862 Y130.135
G1 F2400 X170.786 Y130.26 E75.10384
G1 X170.699 Y130.298 E75.10834
G1 X126.26 Y130.296 E77.21456
G1 X126.155 Y130.235 E77.22031
G1 X126.105 Y130.124 E77.22608
G1 X126.104 Y114.319 E77.97517
G1 X126.27 Y114.202 E77.9848
G1 X170.718 Y114.206 E80.09144
G1 X170.831 Y114.288 E80.09806
G1 X170.863 Y114.374 E80.10241
G1 X170.862 Y130.135 E80.84941
G0 F3600 X170.786 Y130.26
G0 X170.737 Y130.281
G0 X170.737 Y130.61
G0 X177.334 Y136.42
G0 X177.612 Y136.7
G1 F2400 X177.612 Y36.948 E85.57722
G1 X77.012 Y36.948 E90.34523
G1 X77.012 Y136.7 E95.07305
G1 X177.612 Y136.7 E99.84105
G0 F3600 X177.612 Y136.5
G0 X177.334 Y136.42
G0 X125.866 Y130.538
G0 X84.154 Y113.115
G0 X84.026 Y112.832
G1 F2400 X83.378 Y112.948 E99.87225
G1 X82.848 Y112.9 E99.89748
G1 X82.396 Y112.75 E99.92005
G1 X82.048 Y112.55 E99.93907
G1 X81.761 Y112.306 E99.95692
G1 X81.371 Y111.786 E99.98773
G1 X81.209 Y111.39 E100.00801
G1 X81.138 Y111.087 E100.02276
G1 X81.116 Y110.648 E100.04359
G1 X81.16 Y110.302 E100.06012
G1 X81.292 Y109.88 E100.08108
G1 X81.502 Y109.5 E100.10166
G1 X81.795 Y109.157 E100.12304
G1 X82.321 Y108.786 E100.15355
G1 X82.73 Y108.626 E100.17436
G1 X83.126 Y108.558 E100.19341
G1 X83.691 Y108.578 E100.2202
G1 X84.122 Y108.703 E100.24147
G1 X84.674 Y109.02 E100.27164
G1 X85.009 Y109.35 E100.29393
G1 X85.253 Y109.709 E100.3145
G1 X85.409 Y110.077 E100.33344
G1 X85.512 Y110.769 E100.3666
G1 X85.469 Y111.184 E100.38638
G1 X85.34 Y111.609 E100.40743
G1 X85.068 Y112.074 E100.43296
G1 X84.77 Y112.398 E100.45382
G1 X84.423 Y112.65 E100.47415
G1 X84.026 Y112.832 E100.49485
G0 F3600 X83.83 Y112.867
G0 X83.884 Y113.176
G0 X84.936 Y112.588
G0 X85.574 Y111.702
G0 X85.745 Y110.95
G0 X84.143 Y48.12
G0 X84.015 Y47.836
G1 F2400 X83.372 Y47.95 E100.5258
G1 X82.817 Y47.894 E100.55224
G1 X82.396 Y47.75 E100.57333
G1 X82.048 Y47.55 E100.59235
G1 X81.761 Y47.306 E100.6102
G1 X81.371 Y46.786 E100.64101
G1 X81.209 Y46.39 E100.66129
G1 X81.138 Y46.087 E100.67604
G1 X81.116 Y45.648 E100.69687
G1 X81.16 Y45.302 E100.7134
G1 X81.292 Y44.88 E100.73436
G1 X81.502 Y44.5 E100.75494
G1 X81.791 Y44.16 E100.77609
G1 X82.22 Y43.84 E100.80145
G1 X82.73 Y43.626 E100.82767
G1 X83.126 Y43.558 E100.84671
G1 X83.717 Y43.583 E100.87475
G1 X84.132 Y43.708 E100.89529
G1 X84.424 Y43.852 E100.91072
G1 X84.779 Y44.107 E100.93144
G1 X85.075 Y44.431 E100.95224
G1 X85.298 Y44.801 E100.97271
G1 X85.418 Y45.104 E100.98816
G1 X85.512 Y45.741 E101.01867
G1 X85.464 Y46.202 E101.04064
G1 X85.333 Y46.621 E101.06145
G1 X85.056 Y47.088 E101.08718
G1 X84.784 Y47.384 E101.10624
G1 X84.428 Y47.647 E101.12721
G1 X84.015 Y47.836 E101.14874
G0 F3600 X83.819 Y47.87
G0 X83.873 Y48.178
G0 X172.167 Y48.6
;TYPE:SKIN
G1 F2400 X172.809 Y48.336 E101.18164
G1 X173.364 Y47.903 E101.215
G1 X173.757 Y47.442 E101.24372
G1 X174.053 Y46.938 E101.27142
G1 X174.238 Y46.311 E101.3024
G1 X174.292 Y45.727 E101.3302
G1 X174.162 Y44.851 E101.37217
G1 X173.841 Y44.185 E101.40721
G1 X173.463 Y43.686 E101.43688
G1 X173.021 Y43.31 E101.46439
G1 X172.497 Y43.016 E101.49286
G1 X171.828 Y42.801 E101.52617
G1 X171.168 Y42.776 E101.55747
G1 X170.567 Y42.864 E101.58626
G1 X169.928 Y43.098 E101.61851
G1 X169.227 Y43.602 E101.65943
G1 X168.81 Y44.132 E101.6914
G1 X168.567 Y44.586 E101.7158
G1 X168.392 Y45.167 E101.74456
G1 X168.341 Y45.516 E101.76128
G1 X168.356 Y46.094 E101.78868
G1 X168.502 Y46.732 E101.8197
G1 X168.774 Y47.308 E101.84989
G1 X169.224 Y47.88 E101.88439
G1 X169.572 Y48.167 E101.90577
G1 X170.075 Y48.462 E101.9334
G1 X170.683 Y48.66 E101.96371
G1 X171.418 Y48.731 E101.99871
G1 X172.167 Y48.6 E102.03475
G0 F3600 X176.832 Y135.92
G1 F2400 X77.792 Y135.92 E106.72882
G1 X77.792 Y37.728 E111.38269
G1 X176.832 Y37.728 E116.07676
G1 X176.832 Y135.92 E120.73064
G0 F3600 X171.116 Y131.01
G0 X171.116 Y130.965
G1 F2400 X171.398 Y130.749 E120.74748
G1 X171.642 Y130.283 E120.77241
G1 X171.636 Y114.26 E121.53183
G1 X171.462 Y113.835 E121.55359
G1 X171.364 Y113.746 E121.55987
G1 X172.225 Y113.585 E121.60138
G1 X172.817 Y113.318 E121.63216
G1 X173.213 Y113.039 E121.65512
G1 X173.705 Y112.526 E121.68881
G1 X174.019 Y111.983 E121.71854
G1 X174.238 Y111.311 E121.75204
G1 X174.292 Y110.727 E121.77984
G1 X174.17 Y109.866 E121.82105
G1 X173.89 Y109.26 E121.85269
G1 X173.518 Y108.75 E121.88261
G1 X173.07 Y108.35 E121.91108
G1 X172.414 Y107.969 E121.94703
G1 X171.749 Y107.802 E121.97953
G1 X171.093 Y107.777 E122.01064
G1 X170.503 Y107.877 E122.039
G1 X169.943 Y108.093 E122.06745
G1 X169.261 Y108.583 E122.10725
G1 X168.901 Y108.996 E122.13322
G1 X168.57 Y109.568 E122.16454
G1 X168.381 Y110.226 E122.19699
G1 X168.336 Y110.667 E122.218
G1 X168.376 Y111.247 E122.24555
G1 X168.486 Y111.694 E122.26737
G1 X168.755 Y112.27 E122.2975
G1 X169.197 Y112.854 E122.33222
G1 X169.743 Y113.297 E122.36554
G1 X169.993 Y113.42 E122.37875
G1 X126.166 Y113.422 E124.45596
G1 X125.842 Y113.535 E124.47222
G1 X125.592 Y113.726 E124.48713
G1 X125.445 Y113.925 E124.49886
G1 X125.324 Y114.313 E124.51812
G1 X125.329 Y130.216 E125.27185
G1 X125.395 Y130.474 E125.28448
G1 X125.572 Y130.756 E125.30026
G1 X125.854 Y130.966 E125.31692
G1 X126.144 Y131.08 E125.33169
G1 X170.824 Y131.08 E127.44933
G1 X171.116 Y130.965 E127.4642
G0 F3600 X171.116 Y131.01
G0 X171.502 Y113.562
G0 X169.325 Y113.552
G0 X168.592 Y111.606
G0 X168.551 Y106.009
G0 X168.551 Y106
G1 F2400 X168.901 Y105.745 E127.48473
G1 X169.082 Y105.44 E127.50154
G1 X169.14 Y105.231 E127.51182
G1 X169.139 Y51.295 E130.06815
G1 X169.06 Y51.002 E130.08253
G1 X168.745 Y50.608 E130.10644
G1 X168.532 Y50.487 E130.11805
G1 X168.247 Y50.42 E130.13193
G1 X86.433 Y50.422 E134.00956
G1 X86.091 Y50.488 E134.02607
G1 X85.784 Y50.692 E134.04354
G1 X85.537 Y51.075 E134.06514
G1 X85.485 Y51.317 E134.07687
G1 X85.484 Y105.158 E136.6287
G1 X85.623 Y105.599 E136.65062
G1 X85.829 Y105.843 E136.66575
G1 X86.121 Y106.016 E136.68184
G1 X86.38 Y106.073 E136.69441
G1 X168.283 Y106.079 E140.57626
G1 X168.551 Y106 E140.5895
G0 F3600 X168.551 Y106.009
G0 X84.262 Y113.576
G1 F2400 X84.839 Y113.31 E140.61961
G1 X85.295 Y112.98 E140.64629
G1 X85.706 Y112.52 E140.67553
G1 X86.058 Y111.919 E140.70854
G1 X86.232 Y111.341 E140.73715
G1 X86.295 Y110.753 E140.76517
