;FLAVOR:Marlin
;TIME:3669
;Filament used: 5.07464m
;Layer height: 0.2
;MINX:57.125
;MINY:56.125
;MINZ:0.3
;MAXX:117.875
;MAXY:116.875
;MAXZ:26.9
;TARGET_MACHINE.NAME:Unknown
;Generated with Cura_SteamEngine 5.10.0
M104 S200
M105
M109 S200
G28 ;Home
G1 Z15.0 F6000 ;Move the platform down 15mm
;Prime the extruder
G92 E0
G1 F200 E3
G92 E0
M82 ;absolute extrusion mode
G92 E0
G92 E0
G1 F1500 E-6.5
;LAYER_COUNT:134
;LAYER:0
M107
G0 F3600 X58.824 Y61.56 Z0.3
;TYPE:SKIRT
G1 F1500 E0
G1 F3300 X62.55 Y57.834 E0.23003
G1 X64.526 Y56.614 E0.3314
G1 X66.786 Y56.125 E0.43235
G1 X108.31 Y56.125 E2.24503
G1 X110.586 Y56.663 E2.34713
G1 X112.44 Y57.824 E2.44262
G1 X116.166 Y61.55 E2.67265
G1 X117.386 Y63.526 E2.77402
G1 X117.875 Y65.786 E2.87497
G1 X117.875 Y107.28 E4.68634
G1 X117.312 Y109.647 E4.79255
G1 X116.074 Y111.564 E4.89217
G1 X112.233 Y115.342 E5.12736
G1 X111.408 Y115.918 E5.17129
G1 X108.671 Y116.875 E5.29786
G1 X66.69 Y116.875 E7.1305
G1 X64.414 Y116.337 E7.23259
G1 X62.56 Y115.176 E7.32808
G1 X58.834 Y111.45 E7.55811
G1 X57.614 Y109.474 E7.65949
G1 X57.125 Y107.214 E7.76043
G1 X57.125 Y65.69 E9.57312
G1 X57.663 Y63.414 E9.67521
G1 X58.824 Y61.56 E9.7707
G0 F3600 X59.103 Y61.775
G1 F3300 X62.765 Y58.113 E9.99678
G1 X64.66 Y56.943 E10.094
G1 X66.823 Y56.475 E10.19061
G1 X108.267 Y56.475 E11.9998
G1 X110.449 Y56.991 E12.09768
G1 X112.225 Y58.103 E12.18916
G1 X115.887 Y61.765 E12.41523
G1 X117.057 Y63.66 E12.51245
G1 X117.525 Y65.823 E12.60906
G1 X117.525 Y107.241 E14.41712
G1 X116.986 Y109.506 E14.51876
G1 X115.801 Y111.342 E14.61415
G1 X111.988 Y115.092 E14.84761
G1 X111.245 Y115.605 E14.88703
G1 X108.613 Y116.525 E15.00874
G1 X66.733 Y116.525 E16.83697
G1 X64.551 Y116.009 E16.93485
G1 X62.775 Y114.897 E17.02632
G1 X59.113 Y111.235 E17.2524
G1 X57.943 Y109.34 E17.34962
G1 X57.475 Y107.177 E17.44623
G1 X57.475 Y65.733 E19.25542
G1 X57.991 Y63.551 E19.3533
G1 X59.103 Y61.775 E19.44477
G0 F3600 X59.382 Y61.99
G1 F3300 X62.98 Y58.392 E19.6669
G1 X64.794 Y57.272 E19.75997
G1 X66.86 Y56.825 E19.85224
G1 X108.224 Y56.825 E21.65794
G1 X110.312 Y57.319 E21.75161
G1 X112.01 Y58.382 E21.83906
G1 X115.608 Y61.98 E22.06119
G1 X116.728 Y63.794 E22.15425
G1 X117.175 Y65.86 E22.24653
G1 X117.175 Y107.198 E24.05109
G1 X116.659 Y109.368 E24.14846
G1 X115.528 Y111.12 E24.2395
G1 X111.743 Y114.842 E24.47123
G1 X111.085 Y115.29 E24.50598
G1 X108.554 Y116.175 E24.62303
G1 X66.776 Y116.175 E26.4468
G1 X64.688 Y115.681 E26.54047
G1 X62.99 Y114.618 E26.62792
G1 X59.392 Y111.02 E26.85005
G1 X58.272 Y109.206 E26.94311
G1 X57.825 Y107.14 E27.03539
G1 X57.825 Y65.776 E28.84109
G1 X58.319 Y63.688 E28.93476
G1 X59.382 Y61.99 E29.02221
G0 F3600 X59.661 Y62.205
G1 F3300 X63.195 Y58.671 E29.24038
G1 X64.928 Y57.601 E29.32929
G1 X66.897 Y57.175 E29.41724
G1 X108.182 Y57.175 E31.21949
G1 X110.175 Y57.646 E31.30889
G1 X111.795 Y58.661 E31.39234
G1 X115.329 Y62.195 E31.61052
G1 X116.399 Y63.928 E31.69943
G1 X116.825 Y65.897 E31.78737
G1 X116.825 Y107.159 E33.58862
G1 X116.333 Y109.227 E33.68141
G1 X115.255 Y110.898 E33.76822
G1 X111.546 Y114.553 E33.99554
G1 X110.926 Y114.975 E34.02828
G1 X108.495 Y115.825 E34.1407
G1 X66.818 Y115.825 E35.96007
G1 X64.825 Y115.354 E36.04947
G1 X63.205 Y114.339 E36.13292
G1 X59.671 Y110.805 E36.35109
G1 X58.601 Y109.072 E36.44
G1 X58.175 Y107.103 E36.52795
G1 X58.175 Y65.818 E38.3302
G1 X58.646 Y63.825 E38.4196
G1 X59.661 Y62.205 E38.50305
G0 F3600 X59.94 Y62.42
G1 F3300 X63.41 Y58.95 E38.71728
G1 X65.062 Y57.93 E38.80203
G1 X66.934 Y57.525 E38.88564
G1 X108.139 Y57.525 E40.6844
G1 X110.038 Y57.974 E40.76959
G1 X111.58 Y58.94 E40.84902
G1 X115.05 Y62.41 E41.06324
G1 X116.07 Y64.062 E41.148
G1 X116.475 Y65.934 E41.23161
G1 X116.475 Y107.12 E43.02954
G1 X116.007 Y109.086 E43.11776
G1 X114.982 Y110.676 E43.20034
G1 X111.349 Y114.264 E43.42325
G1 X110.767 Y114.66 E43.45398
G1 X108.436 Y115.475 E43.56177
G1 X66.861 Y115.475 E45.37669
G1 X64.962 Y115.026 E45.46187
G1 X63.42 Y114.06 E45.5413
G1 X59.95 Y110.59 E45.75553
G1 X58.93 Y108.938 E45.84028
G1 X58.525 Y107.066 E45.92389
G1 X58.525 Y65.861 E47.72265
G1 X58.974 Y63.962 E47.80784
G1 X59.94 Y62.42 E47.88727
G0 F3600 X60.219 Y62.635
G1 F3300 X63.625 Y59.229 E48.09754
G1 X65.196 Y58.259 E48.17814
G1 X66.971 Y57.875 E48.25742
G1 X108.096 Y57.875 E50.05269
G1 X109.901 Y58.302 E50.13366
G1 X111.365 Y59.219 E50.20907
G1 X114.771 Y62.625 E50.41934
G1 X115.741 Y64.196 E50.49994
G1 X116.125 Y65.971 E50.57922
G1 X116.125 Y107.077 E52.37366
G1 X115.68 Y108.948 E52.45761
G1 X114.709 Y110.454 E52.53584
G1 X111.152 Y113.975 E52.75432
G1 X110.608 Y114.345 E52.78304
G1 X108.377 Y115.125 E52.88621
G1 X66.904 Y115.125 E54.69667
G1 X65.099 Y114.698 E54.77764
G1 X63.635 Y113.781 E54.85306
G1 X60.229 Y110.375 E55.06333
G1 X59.259 Y108.804 E55.14393
G1 X58.875 Y107.029 E55.22321
G1 X58.875 Y65.904 E57.01847
G1 X59.302 Y64.099 E57.09944
G1 X60.219 Y62.635 E57.17485
G0 F3600 X60.498 Y62.85
G1 F3300 X63.84 Y59.508 E57.38118
G1 X65.33 Y58.588 E57.45762
G1 X67.008 Y58.225 E57.53257
G1 X108.054 Y58.225 E59.32439
G1 X109.764 Y58.629 E59.40109
G1 X111.15 Y59.498 E59.4725
G1 X114.492 Y62.84 E59.67882
G1 X115.412 Y64.33 E59.75527
G1 X115.775 Y66.008 E59.83021
G1 X115.775 Y107.038 E61.62133
G1 X115.354 Y108.807 E61.70071
G1 X114.434 Y110.235 E61.77487
G1 X110.955 Y113.686 E61.98879
G1 X110.449 Y114.03 E62.0155
G1 X108.318 Y114.775 E62.11404
G1 X66.946 Y114.775 E63.92009
G1 X65.236 Y114.371 E63.9968
G1 X63.85 Y113.502 E64.06821
G1 X60.508 Y110.16 E64.27453
G1 X59.588 Y108.67 E64.35098
G1 X59.225 Y106.992 E64.42592
G1 X59.225 Y65.946 E66.21774
G1 X59.629 Y64.236 E66.29445
G1 X60.498 Y62.85 E66.36586
G0 F3600 X60.777 Y63.065
G1 F3300 X64.055 Y59.787 E66.56823
G1 X65.464 Y58.917 E66.64052
G1 X67.045 Y58.575 E66.71113
G1 X108.011 Y58.575 E68.49946
G1 X109.627 Y58.957 E68.57195
G1 X110.935 Y59.777 E68.63934
G1 X114.213 Y63.055 E68.84171
G1 X115.083 Y64.464 E68.914
G1 X115.425 Y66.045 E68.98461
G1 X115.425 Y106.995 E70.77224
G1 X115.027 Y108.669 E70.84735
G1 X114.16 Y110.013 E70.91717
G1 X110.758 Y113.396 E71.12661
G1 X110.287 Y113.716 E71.15147
G1 X108.259 Y114.425 E71.24525
G1 X66.989 Y114.425 E73.04685
G1 X65.373 Y114.043 E73.11934
G1 X64.065 Y113.223 E73.18673
G1 X60.787 Y109.945 E73.3891
G1 X59.917 Y108.536 E73.46139
G1 X59.575 Y106.955 E73.53201
G1 X59.575 Y65.989 E75.32033
G1 X59.957 Y64.373 E75.39282
G1 X60.777 Y63.065 E75.46021
G0 F3600 X61.056 Y63.28
G1 F3300 X64.27 Y60.066 E75.65863
G1 X65.598 Y59.246 E75.72677
G1 X67.082 Y58.925 E75.79305
G1 X107.968 Y58.925 E77.57788
G1 X109.49 Y59.285 E77.64616
G1 X110.72 Y60.056 E77.70953
G1 X113.934 Y63.27 E77.90795
G1 X114.754 Y64.598 E77.97608
G1 X115.075 Y66.082 E78.04236
G1 X115.075 Y106.956 E79.82667
G1 X114.701 Y108.528 E79.89721
G1 X113.886 Y109.792 E79.96287
G1 X110.561 Y113.106 E80.1678
G1 X110.125 Y113.402 E80.1908
G1 X108.2 Y114.075 E80.27982
G1 X67.032 Y114.075 E82.07697
G1 X65.51 Y113.715 E82.14524
G1 X64.28 Y112.944 E82.20862
G1 X61.066 Y109.73 E82.40703
G1 X60.246 Y108.402 E82.47517
G1 X59.925 Y106.918 E82.54145
G1 X59.925 Y66.032 E84.32628
G1 X60.285 Y64.51 E84.39456
G1 X61.056 Y63.28 E84.45793
G0 F3600 X61.335 Y63.495
G1 F3300 X64.485 Y60.345 E84.6524
G1 X65.732 Y59.575 E84.71638
G1 X67.119 Y59.275 E84.77832
G1 X107.925 Y59.275 E86.55967
G1 X109.353 Y59.613 E86.62373
G1 X110.505 Y60.335 E86.68308
G1 X113.655 Y63.485 E86.87754
G1 X114.425 Y64.732 E86.94152
G1 X114.725 Y66.119 E87.00347
G1 X114.725 Y106.917 E88.78446
G1 X114.375 Y108.387 E88.85043
G1 X113.612 Y109.571 E88.91192
G1 X110.314 Y112.858 E89.11518
G1 X110.01 Y113.072 E89.13141
G1 X108.142 Y113.725 E89.2178
G1 X67.075 Y113.725 E91.01053
G1 X65.647 Y113.387 E91.07459
G1 X64.495 Y112.665 E91.13394
G1 X61.345 Y109.515 E91.32841
G1 X60.575 Y108.268 E91.39239
G1 X60.275 Y106.881 E91.45434
G1 X60.275 Y66.075 E93.23568
G1 X60.613 Y64.647 E93.29974
G1 X61.335 Y63.495 E93.35909
G0 F3600 X61.611 Y63.713
G1 F3300 X64.7 Y60.624 E93.54979
G1 X65.866 Y59.904 E93.60961
G1 X67.156 Y59.625 E93.66723
G1 X107.882 Y59.625 E95.44508
G1 X109.219 Y59.941 E95.50505
G1 X110.287 Y60.611 E95.56009
G1 X113.376 Y63.7 E95.75079
G1 X114.096 Y64.866 E95.81062
G1 X114.375 Y66.156 E95.86823
G1 X114.375 Y106.874 E97.64573
G1 X114.048 Y108.249 E97.70743
G1 X113.338 Y109.35 E97.76462
G1 X110.067 Y112.61 E97.96622
G1 X109.847 Y112.759 E97.97782
G1 X108.084 Y113.375 E98.05934
G1 X67.118 Y113.375 E99.84767
G1 X65.781 Y113.059 E99.90764
G1 X64.713 Y112.389 E99.96268
G1 X61.624 Y109.3 E100.15338
G1 X60.904 Y108.134 E100.21321
G1 X60.625 Y106.844 E100.27082
G1 X60.625 Y66.118 E102.04867
G1 X60.941 Y64.781 E102.10864
G1 X61.611 Y63.713 E102.16368
G0 F3600 X61.887 Y63.931
G1 F3300 X64.915 Y60.903 E102.35062
G1 X66 Y60.233 E102.40629
G1 X67.193 Y59.975 E102.45957
G1 X107.84 Y59.975 E104.23397
G1 X109.084 Y60.269 E104.28977
G1 X110.069 Y60.887 E104.34053
G1 X113.097 Y63.915 E104.52747
G1 X113.767 Y65 E104.58314
G1 X114.025 Y66.193 E104.63642
G1 X114.025 Y106.835 E106.4106
G1 X113.722 Y108.108 E106.46773
G1 X113.064 Y109.129 E106.52075
G1 X109.82 Y112.362 E106.72068
G1 X109.688 Y112.444 E106.72747
G1 X108.026 Y113.025 E106.80433
G1 X67.16 Y113.025 E108.58829
G1 X65.916 Y112.731 E108.64409
G1 X64.931 Y112.113 E108.69485
G1 X61.903 Y109.085 E108.88179
G1 X61.233 Y108 E108.93745
G1 X60.975 Y106.807 E108.99074
G1 X60.975 Y66.16 E110.76514
G1 X61.269 Y64.916 E110.82094
G1 X61.887 Y63.931 E110.8717
G0 F3600 X62.163 Y64.149
G1 F3300 X65.13 Y61.182 E111.05487
G1 X66.134 Y60.562 E111.10638
G1 X67.23 Y60.325 E111.15533
G1 X107.798 Y60.325 E112.92629
G1 X108.949 Y60.597 E112.97792
G1 X109.851 Y61.163 E113.0244
G1 X112.818 Y64.13 E113.20757
G1 X113.438 Y65.134 E113.25908
G1 X113.675 Y66.23 E113.30804
G1 X113.675 Y106.792 E115.07873
G1 X113.395 Y107.97 E115.13158
G1 X112.79 Y108.908 E115.18031
G1 X109.573 Y112.114 E115.37857
G1 X107.968 Y112.675 E115.4528
G1 X67.202 Y112.675 E117.23239
G1 X66.051 Y112.403 E117.28402
G1 X65.149 Y111.837 E117.33051
G1 X62.182 Y108.87 E117.51368
G1 X61.562 Y107.866 E117.56519
G1 X61.325 Y106.77 E117.61414
G1 X61.325 Y66.202 E119.38509
G1 X61.597 Y65.051 E119.43672
G1 X62.163 Y64.149 E119.48321
G0 F3600 X62.439 Y64.367
G1 F3300 X65.345 Y61.461 E119.66261
G1 X66.268 Y60.891 E119.70997
G1 X67.267 Y60.675 E119.75459
G1 X107.756 Y60.675 E121.52209
G1 X108.814 Y60.925 E121.56955
G1 X109.633 Y61.439 E121.61176
G1 X112.539 Y64.345 E121.79116
G1 X113.109 Y65.268 E121.83852
G1 X113.325 Y66.267 E121.88314
G1 X113.325 Y106.753 E123.65051
G1 X113.069 Y107.829 E123.69879
G1 X112.516 Y108.687 E123.74336
G1 X109.382 Y111.81 E123.9365
G1 X107.909 Y112.325 E124.00462
G1 X67.244 Y112.325 E125.7798
G1 X66.186 Y112.075 E125.82726
G1 X65.367 Y111.561 E125.86947
G1 X62.461 Y108.655 E126.04888
G1 X61.891 Y107.732 E126.09623
G1 X61.675 Y106.733 E126.14085
G1 X61.675 Y66.244 E127.90835
G1 X61.925 Y65.186 E127.95581
G1 X62.439 Y64.367 E127.99802
G0 F3600 X62.715 Y64.585
G1 F3300 X65.56 Y61.74 E128.17366
G1 X66.402 Y61.22 E128.21686
G1 X67.304 Y61.025 E128.25715
G1 X107.714 Y61.025 E130.0212
G1 X108.679 Y61.253 E130.06449
G1 X109.415 Y61.715 E130.10242
G1 X112.26 Y64.56 E130.27806
G1 X112.78 Y65.402 E130.32126
G1 X112.975 Y66.304 E130.36155
G1 X112.975 Y106.71 E132.12543
G1 X112.742 Y107.691 E132.16945
G1 X112.242 Y108.466 E132.20971
G1 X109.19 Y111.507 E132.39779
G1 X107.851 Y111.975 E132.45971
G1 X67.286 Y111.975 E134.23053
G1 X66.321 Y111.747 E134.27381
G1 X65.585 Y111.285 E134.31175
G1 X62.74 Y108.44 E134.48739
G1 X62.22 Y107.598 E134.53059
G1 X62.025 Y106.696 E134.57087
G1 X62.025 Y66.286 E136.33493
G1 X62.253 Y65.321 E136.37821
G1 X62.715 Y64.585 E136.41615
G0 F3600 X62.991 Y64.803
G1 F3300 X65.775 Y62.019 E136.58802
G1 X66.536 Y61.549 E136.62707
G1 X67.341 Y61.375 E136.66302
G1 X107.672 Y61.375 E138.42363
G1 X108.544 Y61.581 E138.46274
G1 X109.197 Y61.991 E138.4964
G1 X111.981 Y64.775 E138.66827
G1 X112.451 Y65.536 E138.70732
G1 X112.625 Y66.341 E138.74327
G1 X112.625 Y106.667 E140.50366
G1 X112.415 Y107.553 E140.54341
G1 X111.968 Y108.245 E140.57937
G1 X108.999 Y111.203 E140.76233
G1 X107.792 Y111.625 E140.81815
G1 X67.328 Y111.625 E142.58456
G1 X66.456 Y111.419 E142.62367
G1 X65.803 Y111.009 E142.65733
G1 X63.019 Y108.225 E142.8292
G1 X62.549 Y107.464 E142.86825
G1 X62.375 Y106.659 E142.9042
G1 X62.375 Y66.328 E144.66481
G1 X62.581 Y65.456 E144.70392
G1 X62.991 Y64.803 E144.73758
G0 F3600 X63.269 Y65.019
G1 F3300 X65.99 Y62.298 E144.90557
G1 X66.67 Y61.878 E144.94046
G1 X67.378 Y61.725 E144.97208
G1 X107.629 Y61.725 E146.72919
G1 X108.407 Y61.909 E146.76409
G1 X108.981 Y62.269 E146.79367
G1 X111.702 Y64.99 E146.96165
G1 X112.122 Y65.67 E146.99654
G1 X112.275 Y66.378 E147.02816
G1 X112.275 Y106.624 E148.78506
G1 X112.088 Y107.415 E148.82054
G1 X111.694 Y108.024 E148.8522
G1 X108.807 Y110.9 E149.0301
G1 X107.734 Y111.275 E149.07972
G1 X67.371 Y111.275 E150.84172
G1 X66.593 Y111.091 E150.87662
G1 X66.019 Y110.731 E150.9062
G1 X63.298 Y108.01 E151.07418
G1 X62.878 Y107.33 E151.10907
G1 X62.725 Y106.622 E151.14069
G1 X62.725 Y66.371 E152.89781
G1 X62.909 Y65.593 E152.93271
G1 X63.269 Y65.019 E152.96228
G0 F3600 X63.548 Y65.234
G1 F3300 X66.205 Y62.577 E153.12632
G1 X66.804 Y62.207 E153.15705
G1 X67.415 Y62.075 E153.18434
G1 X107.586 Y62.075 E154.93796
G1 X108.27 Y62.237 E154.96865
G1 X108.766 Y62.548 E154.9942
G1 X111.423 Y65.205 E155.15823
G1 X111.793 Y65.804 E155.18897
G1 X111.925 Y66.415 E155.21626
G1 X111.925 Y106.582 E156.9697
G1 X111.761 Y107.276 E157.00084
G1 X111.42 Y107.802 E157.0282
G1 X108.616 Y110.596 E157.201
G1 X107.675 Y110.925 E157.24452
G1 X67.414 Y110.925 E159.00207
G1 X66.73 Y110.763 E159.03275
G1 X66.234 Y110.452 E159.05831
G1 X63.577 Y107.795 E159.22234
G1 X63.207 Y107.196 E159.25308
G1 X63.075 Y106.585 E159.28036
G1 X63.075 Y66.414 E161.03399
G1 X63.237 Y65.73 E161.06467
G1 X63.548 Y65.234 E161.09023
G0 F3600 X63.827 Y65.449
G1 F3300 X66.42 Y62.856 E161.25031
G1 X66.937 Y62.537 E161.27683
G1 X67.415 Y62.425 E161.29826
G1 X107.543 Y62.425 E163.05001
G1 X108.133 Y62.565 E163.07648
G1 X108.551 Y62.827 E163.09801
G1 X111.144 Y65.42 E163.25809
G1 X111.463 Y65.937 E163.28461
G1 X111.575 Y66.415 E163.30604
G1 X111.575 Y106.539 E165.05761
G1 X111.433 Y107.138 E165.08449
G1 X111.173 Y107.554 E165.1059
G1 X108.424 Y110.293 E165.27531
G1 X107.617 Y110.575 E165.31262
G1 X67.457 Y110.575 E167.06577
G1 X66.867 Y110.435 E167.09224
G1 X66.449 Y110.173 E167.11377
G1 X63.856 Y107.58 E167.27385
G1 X63.537 Y107.063 E167.30037
G1 X63.425 Y106.585 E167.32181
G1 X63.425 Y66.457 E169.07355
G1 X63.565 Y65.867 E169.10002
G1 X63.827 Y65.449 E169.12156
G0 F3600 X64.074 Y65.696
G1 F3300 X66.635 Y63.135 E169.27966
G1 X67.072 Y62.865 E169.30209
G1 X67.415 Y62.775 E169.31757
G1 X107.5 Y62.775 E171.06743
G1 X108.052 Y62.906 E171.0922
G1 X108.304 Y63.074 E171.10542
G1 X110.865 Y65.635 E171.26353
G1 X111.135 Y66.072 E171.28595
G1 X111.225 Y66.415 E171.30143
G1 X111.225 Y106.5 E173.0513
G1 X111.106 Y107 E173.07374
G1 X110.926 Y107.306 E173.08923
G1 X108.233 Y109.989 E173.25518
G1 X107.558 Y110.225 E173.2864
G1 X67.5 Y110.225 E175.03509
G1 X66.948 Y110.094 E175.05985
G1 X66.696 Y109.926 E175.07307
G1 X64.135 Y107.365 E175.23118
G1 X63.865 Y106.928 E175.2536
G1 X63.775 Y106.585 E175.26908
G1 X63.775 Y66.5 E177.01895
G1 X63.906 Y65.948 E177.04372
G1 X64.074 Y65.696 E177.05694
G0 F3600 X64.321 Y65.943
G1 F3300 X66.882 Y63.382 E177.21504
G1 X67.249 Y63.167 E177.23361
G1 X67.415 Y63.125 E177.24109
G1 X107.5 Y63.125 E178.99096
G1 X107.911 Y63.233 E179.00951
G1 X108.057 Y63.321 E179.01695
G1 X110.618 Y65.882 E179.17505
G1 X110.833 Y66.249 E179.19362
G1 X110.875 Y66.415 E179.2011
G1 X110.875 Y106.5 E180.95096
G1 X110.767 Y106.911 E180.96951
G1 X110.679 Y107.058 E180.97699
G1 X108.041 Y109.686 E181.13954
G1 X107.5 Y109.875 E181.16456
G1 X67.5 Y109.875 E182.91072
G1 X67.089 Y109.767 E182.92927
G1 X66.943 Y109.679 E182.93671
G1 X64.382 Y107.118 E183.09482
G1 X64.167 Y106.751 E183.11338
G1 X64.125 Y106.585 E183.12086
G1 X64.125 Y66.5 E184.87073
G1 X64.233 Y66.089 E184.88928
G1 X64.321 Y65.943 E184.89672
G0 F3600 X64.876 Y66.376
