;FLAVOR:Marlin
;TIME:6736
;Filament used: 11.5352m
;Layer height: 0.2
;MINX:40.689
;MINY:39.689
;MINZ:0.3
;MAXX:134.311
;MAXY:133.307
;MAXZ:19.9
;TARGET_MACHINE.NAME:Unknown
;Generated with Cura_SteamEngine 5.10.0
M104 S200
M105
M109 S200
G28 ;Home
G1 Z15.0 F6000 ;Move the platform down 15mm
;Prime the extruder
G92 E0
G1 F200 E3
G92 E0
M82 ;absolute extrusion mode
G92 E0
G92 E0
G1 F1500 E-6.5
;LAYER_COUNT:99
;LAYER:0
M107
G0 F3600 X43.477 Y41.977 Z0.3
;TYPE:SKIRT
G1 F1500 E0
G1 F3300 X45.868 Y40.404 E0.12494
G1 X48.422 Y39.696 E0.24064
G1 X126.507 Y39.689 E3.64935
G1 X128.575 Y40.265 E3.74307
G1 X130.094 Y40.926 E3.81538
G1 X132.052 Y42.493 E3.92486
G1 X133.588 Y44.833 E4.04705
G1 X134.304 Y47.427 E4.16452
G1 X134.311 Y125.489 E7.57224
G1 X133.798 Y127.55 E7.66495
G1 X133.029 Y129.161 E7.74288
G1 X131.525 Y131.021 E7.8473
G1 X129.124 Y132.602 E7.97279
G1 X126.627 Y133.304 E8.08602
G1 X48.599 Y133.307 E11.49225
G1 X46.518 Y132.84 E11.58536
G1 X44.343 Y131.71 E11.69235
G1 X43.678 Y131.212 E11.72862
G1 X42.191 Y129.377 E11.83173
G1 X41.325 Y127.942 E11.90489
G1 X40.69 Y125.471 E12.01627
G1 X40.689 Y47.511 E15.41953
G1 X41.202 Y45.45 E15.51224
G1 X41.971 Y43.839 E15.59017
G1 X43.477 Y41.977 E15.69471
G0 F3600 X43.716 Y42.238
G1 F3300 X46.013 Y40.727 E15.81474
G1 X48.469 Y40.046 E15.92599
G1 X126.461 Y40.039 E19.33065
G1 X128.435 Y40.586 E19.42007
G1 X129.912 Y41.229 E19.49039
G1 X131.789 Y42.731 E19.59534
G1 X133.266 Y44.981 E19.71283
G1 X133.954 Y47.473 E19.82569
G1 X133.961 Y125.445 E23.22947
G1 X133.467 Y127.431 E23.31881
G1 X132.73 Y128.974 E23.39346
G1 X131.286 Y130.76 E23.49372
G1 X128.979 Y132.279 E23.6143
G1 X126.578 Y132.954 E23.72317
G1 X48.636 Y132.957 E27.12565
G1 X46.641 Y132.509 E27.21491
G1 X44.504 Y131.399 E27.32003
G1 X43.925 Y130.96 E27.35175
G1 X42.491 Y129.196 E27.45099
G1 X41.651 Y127.804 E27.52196
G1 X41.04 Y125.427 E27.6291
G1 X41.039 Y47.555 E31.02852
G1 X41.533 Y45.569 E31.11786
G1 X42.27 Y44.026 E31.1925
G1 X43.716 Y42.238 E31.29289
G0 F3600 X43.955 Y42.499
G1 F3300 X46.159 Y41.049 E31.40805
G1 X48.515 Y40.396 E31.51478
G1 X126.415 Y40.389 E34.91542
G1 X128.295 Y40.907 E35.00055
G1 X129.73 Y41.532 E35.06888
G1 X131.526 Y42.969 E35.16929
G1 X132.944 Y45.129 E35.28208
G1 X133.604 Y47.519 E35.39032
G1 X133.611 Y125.4 E38.79013
G1 X133.135 Y127.313 E38.87619
G1 X132.431 Y128.787 E38.9475
G1 X131.047 Y130.499 E39.0436
G1 X128.834 Y131.956 E39.15926
G1 X126.529 Y132.604 E39.26378
G1 X48.677 Y132.607 E42.66233
G1 X46.761 Y132.177 E42.74805
G1 X44.665 Y131.088 E42.85116
G1 X44.169 Y130.706 E42.87849
G1 X42.791 Y129.015 E42.97372
G1 X41.977 Y127.666 E43.0425
G1 X41.39 Y125.383 E43.1454
G1 X41.389 Y47.6 E46.54093
G1 X41.865 Y45.687 E46.62699
G1 X42.569 Y44.213 E46.6983
G1 X43.955 Y42.499 E46.79452
G0 F3600 X44.194 Y42.76
G1 F3300 X46.304 Y41.372 E46.90478
G1 X48.562 Y40.746 E47.00706
G1 X126.367 Y40.739 E50.40356
G1 X128.155 Y41.228 E50.48448
G1 X129.548 Y41.835 E50.55081
G1 X131.263 Y43.207 E50.64669
G1 X132.622 Y45.277 E50.75478
G1 X133.254 Y47.565 E50.8584
G1 X133.261 Y125.355 E54.25424
G1 X132.803 Y127.195 E54.33702
G1 X132.132 Y128.6 E54.40499
G1 X130.808 Y130.238 E54.49693
G1 X128.689 Y131.633 E54.60768
G1 X126.48 Y132.254 E54.70785
G1 X48.714 Y132.257 E58.10264
G1 X46.884 Y131.846 E58.18452
G1 X44.826 Y130.777 E58.28575
G1 X44.414 Y130.454 E58.30861
G1 X43.091 Y128.834 E58.39991
G1 X42.303 Y127.528 E58.4665
G1 X41.74 Y125.339 E58.56517
G1 X41.739 Y47.645 E61.95682
G1 X42.197 Y45.805 E62.03959
G1 X42.868 Y44.4 E62.10756
G1 X44.194 Y42.76 E62.19963
G0 F3600 X44.433 Y43.021
G1 F3300 X46.449 Y41.695 E62.30496
G1 X48.609 Y41.096 E62.40281
G1 X126.319 Y41.089 E65.79516
G1 X128.015 Y41.549 E65.87187
G1 X129.366 Y42.138 E65.93621
G1 X131 Y43.445 E66.02755
G1 X132.3 Y45.425 E66.13095
G1 X132.904 Y47.611 E66.22995
G1 X132.911 Y125.311 E69.62186
G1 X132.472 Y127.076 E69.70126
G1 X131.833 Y128.413 E69.76595
G1 X130.569 Y129.977 E69.85373
G1 X128.544 Y131.31 E69.95957
G1 X126.431 Y131.904 E70.05538
G1 X48.755 Y131.907 E73.44625
G1 X47.004 Y131.514 E73.52459
G1 X44.987 Y130.466 E73.62381
G1 X44.685 Y130.232 E73.64049
G1 X43.391 Y128.653 E73.72961
G1 X42.629 Y127.39 E73.794
G1 X42.09 Y125.295 E73.88843
G1 X42.089 Y47.689 E77.27624
G1 X42.528 Y45.924 E77.35564
G1 X43.167 Y44.587 E77.42033
G1 X44.433 Y43.021 E77.50823
G0 F3600 X44.672 Y43.282
G1 F3300 X46.595 Y42.017 E77.60871
G1 X48.655 Y41.446 E77.70203
G1 X126.271 Y41.439 E81.09028
G1 X127.923 Y41.887 E81.165
G1 X129.183 Y42.44 E81.22507
G1 X130.737 Y43.683 E81.31194
G1 X131.978 Y45.573 E81.41064
G1 X132.554 Y47.657 E81.50502
G1 X132.561 Y125.266 E84.89296
G1 X132.14 Y126.958 E84.96908
G1 X131.534 Y128.226 E85.03042
G1 X130.33 Y129.716 E85.11405
G1 X128.399 Y130.987 E85.21497
G1 X126.382 Y131.554 E85.30643
G1 X48.792 Y131.557 E88.69354
G1 X47.127 Y131.183 E88.76803
G1 X45.148 Y130.155 E88.86539
G1 X44.93 Y129.979 E88.87762
G1 X43.691 Y128.472 E88.96278
G1 X42.955 Y127.252 E89.02498
G1 X42.44 Y125.251 E89.11518
G1 X42.439 Y47.734 E92.4991
G1 X42.86 Y46.042 E92.57522
G1 X43.466 Y44.774 E92.63656
G1 X44.672 Y43.282 E92.72031
G0 F3600 X44.911 Y43.543
G1 F3300 X46.74 Y42.34 E92.81588
G1 X48.702 Y41.796 E92.90476
G1 X126.223 Y41.789 E96.28886
G1 X127.831 Y42.225 E96.36159
G1 X128.999 Y42.741 E96.41733
G1 X130.474 Y43.921 E96.49979
G1 X131.656 Y45.721 E96.59379
G1 X132.204 Y47.703 E96.68356
G1 X132.211 Y125.221 E100.06752
G1 X131.808 Y126.84 E100.14036
G1 X131.235 Y128.039 E100.19837
G1 X130.091 Y129.455 E100.27783
G1 X128.254 Y130.664 E100.37384
G1 X126.333 Y131.204 E100.46095
G1 X48.833 Y131.207 E103.84412
G1 X47.247 Y130.851 E103.91508
G1 X45.309 Y129.844 E104.01042
G1 X45.2 Y129.756 E104.01654
G1 X43.991 Y128.291 E104.09946
G1 X43.281 Y127.114 E104.15946
G1 X42.79 Y125.207 E104.24542
G1 X42.789 Y47.779 E107.62546
G1 X43.192 Y46.16 E107.69829
G1 X43.765 Y44.961 E107.7563
G1 X44.911 Y43.543 E107.83589
G0 F3600 X45.15 Y43.804
G1 F3300 X46.885 Y42.663 E107.92654
G1 X48.749 Y42.146 E108.01099
G1 X126.175 Y42.139 E111.39094
G1 X127.739 Y42.563 E111.46168
G1 X128.816 Y43.043 E111.51315
G1 X130.211 Y44.159 E111.59114
G1 X131.334 Y45.869 E111.68044
G1 X131.854 Y47.749 E111.76559
G1 X131.861 Y125.177 E115.14563
G1 X131.477 Y126.721 E115.21508
G1 X130.936 Y127.852 E115.26981
G1 X129.852 Y129.194 E115.34512
G1 X128.109 Y130.341 E115.43621
G1 X126.284 Y130.854 E115.51896
G1 X48.87 Y130.857 E118.89839
G1 X47.37 Y130.52 E118.9655
G1 X45.47 Y129.533 E119.05897
G1 X44.291 Y128.11 E119.13964
G1 X43.607 Y126.976 E119.19745
G1 X43.14 Y125.163 E119.27918
G1 X43.139 Y47.823 E122.65537
G1 X43.523 Y46.279 E122.72483
G1 X44.064 Y45.148 E122.77956
G1 X45.15 Y43.804 E122.85499
G0 F3600 X45.389 Y44.065
G1 F3300 X47.031 Y42.985 E122.94078
G1 X48.795 Y42.496 E123.02069
G1 X126.128 Y42.489 E126.39658
G1 X127.596 Y42.883 E126.46293
G1 X128.634 Y43.346 E126.51255
G1 X129.948 Y44.397 E126.586
G1 X131.012 Y46.017 E126.67061
G1 X131.504 Y47.795 E126.75115
G1 X131.511 Y125.132 E130.12721
G1 X131.145 Y126.603 E130.19338
G1 X130.637 Y127.665 E130.24477
G1 X129.613 Y128.933 E130.31592
G1 X127.964 Y130.018 E130.40209
G1 X126.235 Y130.504 E130.4805
G1 X48.911 Y130.507 E133.85599
G1 X47.49 Y130.188 E133.91957
G1 X45.694 Y129.255 E134.00792
G1 X44.561 Y127.887 E134.08546
G1 X43.933 Y126.84 E134.13876
G1 X43.49 Y125.119 E134.21633
G1 X43.489 Y47.868 E137.58864
G1 X43.855 Y46.397 E137.65482
G1 X44.363 Y45.335 E137.70621
G1 X45.389 Y44.065 E137.77748
G0 F3600 X45.628 Y44.326
G1 F3300 X47.176 Y43.308 E137.85836
G1 X48.842 Y42.846 E137.93383
G1 X126.083 Y42.839 E141.3057
G1 X127.453 Y43.203 E141.36758
G1 X128.452 Y43.649 E141.41534
G1 X129.685 Y44.635 E141.48426
G1 X130.69 Y46.165 E141.56417
G1 X131.154 Y47.841 E141.64009
G1 X131.161 Y125.087 E145.01218
G1 X130.813 Y126.485 E145.07507
G1 X130.338 Y127.478 E145.12312
G1 X129.374 Y128.672 E145.19011
G1 X127.819 Y129.695 E145.27137
G1 X126.186 Y130.154 E145.34542
G1 X48.952 Y130.157 E148.71699
G1 X47.61 Y129.856 E148.77702
G1 X45.918 Y128.977 E148.86026
G1 X44.831 Y127.664 E148.93467
G1 X44.259 Y126.703 E148.98349
G1 X43.84 Y125.075 E149.05688
G1 X43.839 Y47.913 E152.4253
G1 X44.187 Y46.515 E152.48819
G1 X44.662 Y45.522 E152.53624
G1 X45.628 Y44.326 E152.60336
G0 F3600 X45.867 Y44.587
G1 F3300 X47.322 Y43.63 E152.67938
G1 X48.888 Y43.196 E152.75032
G1 X126.035 Y43.189 E156.11809
G1 X127.31 Y43.523 E156.17563
G1 X128.27 Y43.952 E156.22153
G1 X129.422 Y44.873 E156.28591
G1 X130.368 Y46.313 E156.36113
G1 X130.804 Y47.887 E156.43242
G1 X130.811 Y125.042 E159.80054
G1 X130.481 Y126.367 E159.86015
G1 X130.039 Y127.291 E159.90487
G1 X129.135 Y128.411 E159.9677
G1 X127.674 Y129.372 E160.04404
G1 X126.137 Y129.804 E160.11373
G1 X48.989 Y129.807 E163.48154
G1 X47.733 Y129.525 E163.53774
G1 X46.142 Y128.699 E163.61599
G1 X45.132 Y127.485 E163.68493
G1 X44.585 Y126.566 E163.73162
G1 X44.19 Y125.031 E163.80081
G1 X44.189 Y47.958 E167.16535
G1 X44.519 Y46.633 E167.22496
G1 X44.961 Y45.709 E167.26967
G1 X45.867 Y44.587 E167.33263
G0 F3600 X46.106 Y44.848
G1 F3300 X47.467 Y43.953 E167.40374
G1 X48.935 Y43.546 E167.47024
G1 X125.988 Y43.539 E170.8339
G1 X127.221 Y43.862 E170.88954
G1 X128.086 Y44.253 E170.93098
G1 X129.159 Y45.111 E170.99096
G1 X130.046 Y46.461 E171.06147
G1 X130.454 Y47.933 E171.12815
G1 X130.461 Y124.997 E174.4923
G1 X130.149 Y126.249 E174.54863
G1 X129.74 Y127.104 E174.59
G1 X128.896 Y128.15 E174.64867
G1 X127.529 Y129.049 E174.7201
G1 X126.088 Y129.454 E174.78544
G1 X49.03 Y129.457 E178.14932
G1 X47.853 Y129.193 E178.20198
G1 X46.365 Y128.42 E178.27518
G1 X45.433 Y127.306 E178.33859
G1 X44.911 Y126.429 E178.38314
G1 X44.54 Y124.987 E178.44814
G1 X44.539 Y48.003 E181.80879
G1 X44.851 Y46.751 E181.86512
G1 X45.26 Y45.896 E181.90649
G1 X46.106 Y44.848 E181.96529
G0 F3600 X46.345 Y45.109
G1 F3300 X47.612 Y44.276 E182.03148
G1 X48.982 Y43.896 E182.09355
G1 X125.941 Y43.889 E185.45311
G1 X127.132 Y44.201 E185.50685
G1 X127.901 Y44.554 E185.54379
G1 X128.898 Y45.351 E185.59951
G1 X129.723 Y46.606 E185.66507
G1 X130.104 Y47.98 E185.72732
G1 X130.111 Y124.952 E189.08745
G1 X129.817 Y126.131 E189.14049
G1 X129.441 Y126.917 E189.17853
G1 X128.657 Y127.889 E189.23304
G1 X127.384 Y128.726 E189.29955
G1 X126.039 Y129.104 E189.36054
G1 X49.067 Y129.107 E192.72067
G1 X47.976 Y128.862 E192.76948
G1 X46.588 Y128.141 E192.83776
G1 X45.734 Y127.127 E192.89563
G1 X45.237 Y126.292 E192.93805
G1 X44.89 Y124.943 E192.99886
G1 X44.889 Y48.048 E196.35563
G1 X45.183 Y46.869 E196.40867
G1 X45.559 Y46.083 E196.44671
G1 X46.345 Y45.109 E196.50134
G0 F3600 X46.582 Y45.372
G1 F3300 X47.76 Y44.598 E196.56288
G1 X49.029 Y44.246 E196.62036
G1 X125.894 Y44.239 E199.97582
G1 X127.043 Y44.54 E200.02767
G1 X127.715 Y44.854 E200.06005
G1 X128.637 Y45.591 E200.11158
G1 X129.4 Y46.751 E200.17219
G1 X129.754 Y48.027 E200.23
G1 X129.761 Y124.907 E203.58611
G1 X129.485 Y126.013 E203.63587
G1 X129.142 Y126.73 E203.67057
G1 X128.418 Y127.628 E203.72093
G1 X127.239 Y128.403 E203.78252
G1 X125.99 Y128.754 E203.83915
G1 X49.108 Y128.757 E207.19536
G1 X48.096 Y128.53 E207.24063
G1 X46.812 Y127.863 E207.30379
G1 X46.035 Y126.948 E207.3562
G1 X45.563 Y126.155 E207.39648
G1 X45.24 Y124.899 E207.4531
G1 X45.239 Y48.093 E210.80598
G1 X45.515 Y46.987 E210.85574
G1 X45.858 Y46.27 E210.89044
G1 X46.582 Y45.372 E210.94079
G0 F3600 X46.823 Y45.632
G1 F3300 X47.906 Y44.92 E210.99737
G1 X49.075 Y44.596 E211.05033
G1 X125.847 Y44.589 E214.40173
G1 X126.954 Y44.879 E214.45168
G1 X127.529 Y45.154 E214.47951
G1 X128.377 Y45.831 E214.52687
G1 X129.077 Y46.896 E214.58251
G1 X129.404 Y48.074 E214.63588
G1 X129.411 Y124.862 E217.98798
G1 X129.153 Y125.895 E218.03446
G1 X128.844 Y126.54 E218.06568
G1 X128.177 Y127.368 E218.11209
G1 X127.094 Y128.08 E218.16867
G1 X125.941 Y128.404 E218.22095
G1 X49.145 Y128.407 E221.5734
G1 X48.219 Y128.199 E221.61483
G1 X47.035 Y127.584 E221.67307
G1 X46.302 Y126.721 E221.7225
G1 X45.889 Y126.019 E221.75806
G1 X45.59 Y124.855 E221.81052
G1 X45.589 Y48.138 E225.15952
G1 X45.847 Y47.105 E225.206
G1 X46.156 Y46.46 E225.23722
G1 X46.823 Y45.632 E225.28363
G0 F3600 X47.062 Y45.893
G1 F3300 X48.051 Y45.243 E225.3353
G1 X49.122 Y44.946 E225.38381
G1 X125.8 Y44.939 E228.73111
G1 X126.865 Y45.218 E228.77917
G1 X127.342 Y45.453 E228.80238
G1 X128.115 Y46.07 E228.84556
G1 X128.755 Y47.044 E228.89644
G1 X129.054 Y48.121 E228.94523
G1 X129.061 Y124.817 E232.29331
G1 X128.821 Y125.777 E232.33651
G1 X128.545 Y126.354 E232.36443
G1 X127.938 Y127.107 E232.40665
G1 X126.949 Y127.757 E232.45832
G1 X125.892 Y128.054 E232.50624
G1 X49.186 Y128.057 E235.85476
G1 X48.339 Y127.867 E235.89266
G1 X47.258 Y127.305 E235.94584
G1 X46.569 Y126.494 E235.9923
G1 X46.216 Y125.884 E236.02306
G1 X45.94 Y124.811 E236.07143
G1 X45.939 Y48.183 E239.41654
G1 X46.179 Y47.223 E239.45974
G1 X46.455 Y46.646 E239.48766
G1 X47.062 Y45.893 E239.52988
G0 F3600 X47.303 Y46.153
G1 F3300 X48.196 Y45.566 E239.57653
G1 X49.169 Y45.296 E239.62061
G1 X125.755 Y45.289 E242.96389
G1 X126.716 Y45.535 E243.0072
G1 X127.124 Y45.727 E243.02688
G1 X127.853 Y46.309 E243.0676
G1 X128.433 Y47.192 E243.11372
G1 X128.704 Y48.168 E243.15794
G1 X128.711 Y124.772 E246.50201
G1 X128.489 Y125.659 E246.54192
G1 X128.247 Y126.164 E246.56637
G1 X127.697 Y126.847 E246.60465
G1 X126.804 Y127.434 E246.6513
G1 X125.843 Y127.704 E246.69488
G1 X49.226 Y127.707 E250.03951
G1 X48.458 Y127.535 E250.07386
G1 X47.482 Y127.027 E250.1219
G1 X46.836 Y126.267 E250.16544
G1 X46.543 Y125.751 E250.19134
G1 X46.29 Y124.767 E250.2357
G1 X46.289 Y48.228 E253.57692
G1 X46.511 Y47.341 E253.61684
G1 X46.753 Y46.836 E253.64128
G1 X47.303 Y46.153 E253.67957
G0 F3600 X47.544 Y46.413
G1 F3300 X48.341 Y45.889 E253.7212
G1 X49.216 Y45.646 E253.76085
G1 X125.711 Y45.639 E257.10015
G1 X126.629 Y45.874 E257.14152
G1 X126.937 Y46.025 E257.15649
G1 X127.59 Y46.547 E257.19299
G1 X128.111 Y47.34 E257.23441
G1 X128.354 Y48.215 E257.27405
G1 X128.361 Y124.727 E260.6141
G1 X128.149 Y125.574 E260.65222
G1 X127.974 Y125.944 E260.67008
G1 X127.456 Y126.587 E260.70613
G1 X126.659 Y127.111 E260.74777
G1 X125.794 Y127.354 E260.78699
G1 X49.267 Y127.357 E264.12769
G1 X48.576 Y127.202 E264.15861
G1 X47.706 Y126.749 E264.20143
G1 X47.103 Y126.04 E264.24206
G1 X46.871 Y125.62 E264.263
G1 X46.64 Y124.723 E264.30344
G1 X46.639 Y48.273 E267.64078
G1 X46.851 Y47.426 E267.6789
G1 X47.026 Y47.056 E267.69677
G1 X47.544 Y46.413 E267.73281
G0 F3600 X47.785 Y46.673
G1 F3300 X48.486 Y46.212 E267.76944
G1 X49.263 Y45.996 E267.80464
G1 X125.669 Y45.989 E271.14006
G1 X126.486 Y46.194 E271.17683
G1 X126.719 Y46.298 E271.18797
G1 X127.326 Y46.783 E271.22189
G1 X127.789 Y47.488 E271.25871
G1 X128.004 Y48.262 E271.29378
G1 X128.011 Y124.682 E274.62981
G1 X127.809 Y125.489 E274.66613
G1 X127.701 Y125.724 E274.67742
G1 X127.215 Y126.327 E274.71122
G1 X126.514 Y126.788 E274.74785
G1 X125.745 Y127.004 E274.78272
G1 X49.307 Y127.007 E278.11954
G1 X48.695 Y126.87 E278.14692
G1 X47.93 Y126.471 E278.18458
G1 X47.37 Y125.813 E278.2223
G1 X47.199 Y125.489 E278.23829
G1 X46.99 Y124.679 E278.27481
G1 X46.989 Y48.318 E281.60827
G1 X47.191 Y47.511 E281.64458
G1 X47.299 Y47.276 E281.65587
G1 X47.785 Y46.673 E281.68968
G0 F3600 X48.024 Y46.934
G1 F3300 X48.631 Y46.535 E281.72139
G1 X49.31 Y46.346 E281.75216
G1 X125.628 Y46.339 E285.08374
G1 X126.401 Y46.533 E285.11853
G1 X126.535 Y46.599 E285.12505
G1 X127.065 Y47.023 E285.15468
G1 X127.466 Y47.633 E285.18655
G1 X127.654 Y48.309 E285.21718
G1 X127.661 Y124.637 E288.5492
G1 X127.469 Y125.404 E288.58371
G1 X127.401 Y125.539 E288.59031
G1 X126.976 Y126.066 E288.61986
G1 X126.369 Y126.465 E288.65157
G1 X125.696 Y126.654 E288.68209
G1 X49.348 Y126.657 E292.01498
G1 X48.813 Y126.537 E292.03892
G1 X48.153 Y126.193 E292.07141
G1 X47.674 Y125.639 E292.10338
G1 X47.538 Y125.402 E292.1153
G1 X47.34 Y124.635 E292.14988
G1 X47.339 Y48.363 E295.47946
G1 X47.531 Y47.596 E295.51397
G1 X47.599 Y47.461 E295.52057
G1 X48.024 Y46.934 E295.55013
G0 F3600 X48.262 Y47.197
G1 F3300 X48.778 Y46.857 E295.5771
G1 X49.357 Y46.696 E295.60334
G1 X125.587 Y46.689 E298.93108
G1 X126.316 Y46.872 E298.96389
