;FLAVOR:Marlin
;TIME:4014
;Filament used: 5.37063m
;Layer height: 0.2
;MINX:57.125
;MINY:56.125
;MINZ:0.3
;MAXX:117.875
;MAXY:116.875
;MAXZ:29.9
;TARGET_MACHINE.NAME:Unknown
;Generated with Cura_SteamEngine 5.10.0
M104 S200
M105
M109 S200
G28 ;Home
G1 Z15.0 F6000 ;Move the platform down 15mm
;Prime the extruder
G92 E0
G1 F200 E3
G92 E0
M82 ;absolute extrusion mode
G92 E0
G92 E0
G1 F1500 E-6.5
;LAYER_COUNT:149
;LAYER:0
M107
G0 F3600 X58.824 Y61.56 Z0.3
;TYPE:SKIRT
G1 F1500 E0
G1 F3300 X62.55 Y57.834 E0.23003
G1 X64.526 Y56.614 E0.3314
G1 X66.786 Y56.125 E0.43235
G1 X108.31 Y56.125 E2.24503
G1 X110.586 Y56.663 E2.34713
G1 X112.44 Y57.824 E2.44262
G1 X116.166 Y61.55 E2.67265
G1 X117.386 Y63.526 E2.77402
G1 X117.875 Y65.786 E2.87497
G1 X117.875 Y107.28 E4.68634
G1 X117.312 Y109.647 E4.79255
G1 X116.066 Y111.579 E4.89291
G1 X112.344 Y115.198 E5.11953
G1 X111.245 Y115.975 E5.17829
G1 X108.669 Y116.875 E5.29741
G1 X66.69 Y116.875 E7.12996
G1 X64.414 Y116.337 E7.23205
G1 X62.56 Y115.176 E7.32754
G1 X58.834 Y111.45 E7.55757
G1 X57.614 Y109.474 E7.65895
G1 X57.125 Y107.214 E7.75989
G1 X57.125 Y65.69 E9.57258
G1 X57.663 Y63.414 E9.67467
G1 X58.824 Y61.56 E9.77016
G0 F3600 X59.103 Y61.775
G1 F3300 X62.765 Y58.113 E9.99624
G1 X64.66 Y56.943 E10.09346
G1 X66.823 Y56.475 E10.19007
G1 X108.267 Y56.475 E11.99926
G1 X110.449 Y56.991 E12.09714
G1 X112.225 Y58.103 E12.18862
G1 X115.887 Y61.765 E12.41469
G1 X117.057 Y63.66 E12.51192
G1 X117.525 Y65.823 E12.60852
G1 X117.525 Y107.241 E14.41658
G1 X116.986 Y109.506 E14.51822
G1 X115.793 Y111.356 E14.61431
G1 X112.142 Y114.912 E14.8368
G1 X111.081 Y115.662 E14.89352
G1 X108.611 Y116.525 E15.00774
G1 X66.733 Y116.525 E16.83588
G1 X64.551 Y116.009 E16.93376
G1 X62.775 Y114.897 E17.02523
G1 X59.113 Y111.235 E17.25131
G1 X57.943 Y109.34 E17.34853
G1 X57.475 Y107.177 E17.44514
G1 X57.475 Y65.733 E19.25433
G1 X57.991 Y63.551 E19.35221
G1 X59.103 Y61.775 E19.44368
G0 F3600 X59.382 Y61.99
G1 F3300 X62.98 Y58.392 E19.66581
G1 X64.794 Y57.272 E19.75887
G1 X66.86 Y56.825 E19.85115
G1 X108.224 Y56.825 E21.65685
G1 X110.312 Y57.319 E21.75052
G1 X112.01 Y58.382 E21.83797
G1 X115.608 Y61.98 E22.06009
G1 X116.728 Y63.794 E22.15316
G1 X117.175 Y65.86 E22.24544
G1 X117.175 Y107.198 E24.05
G1 X116.659 Y109.368 E24.14737
G1 X115.52 Y111.133 E24.23907
G1 X111.94 Y114.626 E24.45742
G1 X110.917 Y115.349 E24.5121
G1 X108.553 Y116.175 E24.62142
G1 X66.776 Y116.175 E26.44515
G1 X64.688 Y115.681 E26.53881
G1 X62.99 Y114.618 E26.62627
G1 X59.392 Y111.02 E26.84839
G1 X58.272 Y109.206 E26.94146
G1 X57.825 Y107.14 E27.03373
G1 X57.825 Y65.776 E28.83943
G1 X58.319 Y63.688 E28.9331
G1 X59.382 Y61.99 E29.02055
G0 F3600 X59.661 Y62.205
G1 F3300 X63.195 Y58.671 E29.23873
G1 X64.928 Y57.601 E29.32764
G1 X66.897 Y57.175 E29.41558
G1 X108.182 Y57.175 E31.21783
G1 X110.175 Y57.646 E31.30723
G1 X111.795 Y58.661 E31.39069
G1 X115.329 Y62.195 E31.60886
G1 X116.399 Y63.928 E31.69777
G1 X116.825 Y65.897 E31.78571
G1 X116.825 Y107.159 E33.58696
G1 X116.333 Y109.227 E33.67976
G1 X115.247 Y110.91 E33.7672
G1 X111.738 Y114.34 E33.9814
G1 X110.753 Y115.036 E34.03405
G1 X108.495 Y115.825 E34.13847
G1 X66.818 Y115.825 E35.95783
G1 X64.825 Y115.354 E36.04723
G1 X63.205 Y114.339 E36.13068
G1 X59.671 Y110.805 E36.34886
G1 X58.601 Y109.072 E36.43777
G1 X58.175 Y107.103 E36.52571
G1 X58.175 Y65.818 E38.32797
G1 X58.646 Y63.825 E38.41736
G1 X59.661 Y62.205 E38.50082
G0 F3600 X59.94 Y62.42
G1 F3300 X63.41 Y58.95 E38.71504
G1 X65.062 Y57.93 E38.7998
G1 X66.934 Y57.525 E38.88341
G1 X108.139 Y57.525 E40.68217
G1 X110.038 Y57.974 E40.76735
G1 X111.58 Y58.94 E40.84678
G1 X115.05 Y62.41 E41.06101
G1 X116.07 Y64.062 E41.14576
G1 X116.475 Y65.934 E41.22937
G1 X116.475 Y107.12 E43.02731
G1 X116.007 Y109.086 E43.11553
G1 X114.974 Y110.687 E43.1987
G1 X111.536 Y114.054 E43.40877
G1 X110.589 Y114.723 E43.45939
G1 X108.437 Y115.475 E43.5589
G1 X66.861 Y115.475 E45.37385
G1 X64.962 Y115.026 E45.45904
G1 X63.42 Y114.06 E45.53847
G1 X59.95 Y110.59 E45.7527
G1 X58.93 Y108.938 E45.83745
G1 X58.525 Y107.066 E45.92106
G1 X58.525 Y65.861 E47.71982
G1 X58.974 Y63.962 E47.80501
G1 X59.94 Y62.42 E47.88444
G0 F3600 X60.219 Y62.635
G1 F3300 X63.625 Y59.229 E48.09471
G1 X65.196 Y58.259 E48.17531
G1 X66.971 Y57.875 E48.25459
G1 X108.096 Y57.875 E50.04986
G1 X109.901 Y58.302 E50.13083
G1 X111.365 Y59.219 E50.20624
G1 X114.771 Y62.625 E50.41651
G1 X115.741 Y64.196 E50.49711
G1 X116.125 Y65.971 E50.57639
G1 X116.125 Y107.077 E52.37083
G1 X115.68 Y108.948 E52.45478
G1 X114.701 Y110.464 E52.53356
G1 X111.334 Y113.768 E52.73949
G1 X110.425 Y114.41 E52.78807
G1 X108.379 Y115.125 E52.88268
G1 X66.904 Y115.125 E54.69323
G1 X65.099 Y114.698 E54.7742
G1 X63.635 Y113.781 E54.84961
G1 X60.229 Y110.375 E55.05988
G1 X59.259 Y108.804 E55.14048
G1 X58.875 Y107.029 E55.21976
G1 X58.875 Y65.904 E57.01503
G1 X59.302 Y64.099 E57.096
G1 X60.219 Y62.635 E57.17141
G0 F3600 X60.498 Y62.85
G1 F3300 X63.84 Y59.508 E57.37773
G1 X65.33 Y58.588 E57.45418
G1 X67.008 Y58.225 E57.52912
G1 X108.054 Y58.225 E59.32094
G1 X109.764 Y58.629 E59.39765
G1 X111.15 Y59.498 E59.46906
G1 X114.492 Y62.84 E59.67538
G1 X115.412 Y64.33 E59.75182
G1 X115.775 Y66.008 E59.82677
G1 X115.775 Y107.038 E61.61789
G1 X115.354 Y108.807 E61.69727
G1 X114.428 Y110.241 E61.77179
G1 X111.132 Y113.482 E61.97358
G1 X110.262 Y114.096 E62.02006
G1 X108.32 Y114.775 E62.10987
G1 X66.946 Y114.775 E63.91601
G1 X65.236 Y114.371 E63.99271
G1 X63.85 Y113.502 E64.06413
G1 X60.508 Y110.16 E64.27045
G1 X59.588 Y108.67 E64.34689
G1 X59.225 Y106.992 E64.42184
G1 X59.225 Y65.946 E66.21366
G1 X59.629 Y64.236 E66.29036
G1 X60.498 Y62.85 E66.36177
G0 F3600 X60.777 Y63.065
G1 F3300 X64.055 Y59.787 E66.56415
G1 X65.464 Y58.917 E66.63643
G1 X67.045 Y58.575 E66.70705
G1 X108.011 Y58.575 E68.49537
G1 X109.627 Y58.957 E68.56786
G1 X110.935 Y59.777 E68.63525
G1 X114.213 Y63.055 E68.83763
G1 X115.083 Y64.464 E68.90991
G1 X115.425 Y66.045 E68.98053
G1 X115.425 Y106.995 E70.76816
G1 X115.027 Y108.669 E70.84327
G1 X114.155 Y110.019 E70.91343
G1 X110.887 Y113.232 E71.11349
G1 X110.1 Y113.782 E71.1554
G1 X108.261 Y114.425 E71.24045
G1 X66.989 Y114.425 E73.04213
G1 X65.373 Y114.043 E73.11462
G1 X64.065 Y113.223 E73.18202
G1 X60.787 Y109.945 E73.38439
G1 X59.917 Y108.536 E73.45667
G1 X59.575 Y106.955 E73.52729
G1 X59.575 Y65.989 E75.31561
G1 X59.957 Y64.373 E75.3881
G1 X60.777 Y63.065 E75.4555
G0 F3600 X61.056 Y63.28
G1 F3300 X64.27 Y60.066 E75.65391
G1 X65.598 Y59.246 E75.72205
G1 X67.082 Y58.925 E75.78833
G1 X107.968 Y58.925 E77.57316
G1 X109.49 Y59.285 E77.64144
G1 X110.72 Y60.056 E77.70481
G1 X113.934 Y63.27 E77.90323
G1 X114.754 Y64.598 E77.97136
G1 X115.075 Y66.082 E78.03764
G1 X115.075 Y106.956 E79.82195
G1 X114.701 Y108.528 E79.89249
G1 X113.882 Y109.797 E79.95842
G1 X110.642 Y112.982 E80.15676
G1 X109.937 Y113.469 E80.19416
G1 X108.203 Y114.075 E80.27435
G1 X67.032 Y114.075 E82.07163
G1 X65.51 Y113.715 E82.1399
G1 X64.28 Y112.944 E82.20327
G1 X61.066 Y109.73 E82.40169
G1 X60.246 Y108.402 E82.46982
G1 X59.925 Y106.918 E82.5361
G1 X59.925 Y66.032 E84.32094
G1 X60.285 Y64.51 E84.38921
G1 X61.056 Y63.28 E84.45258
G0 F3600 X61.335 Y63.495
G1 F3300 X64.485 Y60.345 E84.64705
G1 X65.732 Y59.575 E84.71103
G1 X67.119 Y59.275 E84.77298
G1 X107.925 Y59.275 E86.55432
G1 X109.353 Y59.613 E86.61838
G1 X110.505 Y60.335 E86.67773
G1 X113.655 Y63.485 E86.8722
G1 X114.425 Y64.732 E86.93618
G1 X114.725 Y66.119 E86.99813
G1 X114.725 Y106.917 E88.77912
G1 X114.375 Y108.387 E88.84508
G1 X113.609 Y109.575 E88.90679
G1 X110.397 Y112.732 E89.1034
G1 X109.777 Y113.154 E89.13614
G1 X108.144 Y113.725 E89.21166
G1 X67.075 Y113.725 E91.00448
G1 X65.647 Y113.387 E91.06854
G1 X64.495 Y112.665 E91.12789
G1 X61.345 Y109.515 E91.32236
G1 X60.575 Y108.268 E91.38633
G1 X60.275 Y106.881 E91.44828
G1 X60.275 Y66.075 E93.22963
G1 X60.613 Y64.647 E93.29369
G1 X61.335 Y63.495 E93.35304
G0 F3600 X61.611 Y63.713
G1 F3300 X64.7 Y60.624 E93.54374
G1 X65.866 Y59.904 E93.60356
G1 X67.156 Y59.625 E93.66118
G1 X107.882 Y59.625 E95.43903
G1 X109.219 Y59.941 E95.499
G1 X110.287 Y60.611 E95.55404
G1 X113.376 Y63.7 E95.74474
G1 X114.096 Y64.866 E95.80456
G1 X114.375 Y66.156 E95.86218
G1 X114.375 Y106.874 E97.63968
G1 X114.048 Y108.249 E97.70138
G1 X113.336 Y109.353 E97.75872
G1 X110.2 Y112.443 E97.95091
G1 X109.618 Y112.839 E97.98164
G1 X108.085 Y113.375 E98.05254
G1 X67.118 Y113.375 E99.84091
G1 X65.781 Y113.059 E99.90088
G1 X64.713 Y112.389 E99.95592
G1 X61.624 Y109.3 E100.14662
G1 X60.904 Y108.134 E100.20644
G1 X60.625 Y106.844 E100.26406
G1 X60.625 Y66.118 E102.04191
G1 X60.941 Y64.781 E102.10188
G1 X61.611 Y63.713 E102.15692
G0 F3600 X61.887 Y63.931
G1 F3300 X64.915 Y60.903 E102.34386
G1 X66 Y60.233 E102.39952
G1 X67.193 Y59.975 E102.45281
G1 X107.84 Y59.975 E104.22721
G1 X109.084 Y60.269 E104.28301
G1 X110.069 Y60.887 E104.33377
G1 X113.097 Y63.915 E104.52071
G1 X113.767 Y65 E104.57637
G1 X114.025 Y66.193 E104.62966
G1 X114.025 Y106.835 E106.40384
G1 X113.722 Y108.108 E106.46096
G1 X113.063 Y109.131 E106.51409
G1 X110.003 Y112.154 E106.70186
G1 X109.459 Y112.524 E106.73058
G1 X108.026 Y113.025 E106.79685
G1 X67.16 Y113.025 E108.58081
G1 X65.916 Y112.731 E108.63661
G1 X64.931 Y112.113 E108.68737
G1 X61.903 Y109.085 E108.87431
G1 X61.233 Y108 E108.92998
G1 X60.975 Y106.807 E108.98326
G1 X60.975 Y66.16 E110.75766
G1 X61.269 Y64.916 E110.81346
G1 X61.887 Y63.931 E110.86422
G0 F3600 X62.163 Y64.149
G1 F3300 X65.13 Y61.182 E111.04739
G1 X66.134 Y60.562 E111.09891
G1 X67.23 Y60.325 E111.14786
G1 X107.798 Y60.325 E112.91881
G1 X108.949 Y60.597 E112.97044
G1 X109.851 Y61.163 E113.01693
G1 X112.818 Y64.13 E113.2001
G1 X113.438 Y65.134 E113.25161
G1 X113.675 Y66.23 E113.30056
G1 X113.675 Y106.792 E115.07125
G1 X113.395 Y107.97 E115.12411
G1 X112.79 Y108.909 E115.17287
G1 X109.806 Y111.865 E115.35623
G1 X109.3 Y112.209 E115.38294
G1 X107.967 Y112.675 E115.44458
G1 X67.202 Y112.675 E117.22413
G1 X66.051 Y112.403 E117.27576
G1 X65.149 Y111.837 E117.32225
G1 X62.182 Y108.87 E117.50542
G1 X61.562 Y107.866 E117.55693
G1 X61.325 Y106.77 E117.60588
G1 X61.325 Y66.202 E119.37683
G1 X61.597 Y65.051 E119.42846
G1 X62.163 Y64.149 E119.47495
G0 F3600 X62.439 Y64.367
G1 F3300 X65.345 Y61.461 E119.65435
G1 X66.268 Y60.891 E119.70171
G1 X67.267 Y60.675 E119.74633
G1 X107.756 Y60.675 E121.51383
G1 X108.814 Y60.925 E121.56129
G1 X109.633 Y61.439 E121.6035
G1 X112.539 Y64.345 E121.78291
G1 X113.109 Y65.268 E121.83026
G1 X113.325 Y66.267 E121.87488
G1 X113.325 Y106.753 E123.64225
G1 X113.069 Y107.829 E123.69054
G1 X112.516 Y108.687 E123.7351
G1 X109.609 Y111.575 E123.91398
G1 X109.138 Y111.895 E123.93883
G1 X107.908 Y112.325 E123.99572
G1 X67.244 Y112.325 E125.77086
G1 X66.186 Y112.075 E125.81832
G1 X65.367 Y111.561 E125.86053
G1 X62.461 Y108.655 E126.03993
G1 X61.891 Y107.732 E126.08729
G1 X61.675 Y106.733 E126.13191
G1 X61.675 Y66.244 E127.89941
G1 X61.925 Y65.186 E127.94687
G1 X62.439 Y64.367 E127.98908
G0 F3600 X62.715 Y64.585
G1 F3300 X65.56 Y61.74 E128.16472
G1 X66.402 Y61.22 E128.20792
G1 X67.304 Y61.025 E128.2482
G1 X107.714 Y61.025 E130.01226
G1 X108.679 Y61.253 E130.05555
G1 X109.415 Y61.715 E130.09348
G1 X112.26 Y64.56 E130.26912
G1 X112.78 Y65.402 E130.31232
G1 X112.975 Y66.304 E130.35261
G1 X112.975 Y106.71 E132.11649
G1 X112.742 Y107.691 E132.1605
G1 X112.242 Y108.466 E132.20076
G1 X109.412 Y111.285 E132.37514
G1 X108.976 Y111.581 E132.39814
G1 X107.849 Y111.975 E132.45026
G1 X67.286 Y111.975 E134.22099
G1 X66.321 Y111.747 E134.26428
G1 X65.585 Y111.285 E134.30221
G1 X62.74 Y108.44 E134.47785
G1 X62.22 Y107.598 E134.52105
G1 X62.025 Y106.696 E134.56134
G1 X62.025 Y66.286 E136.3254
G1 X62.253 Y65.321 E136.36868
G1 X62.715 Y64.585 E136.40662
G0 F3600 X62.991 Y64.803
G1 F3300 X65.775 Y62.019 E136.57849
G1 X66.536 Y61.549 E136.61753
G1 X67.341 Y61.375 E136.65349
G1 X107.672 Y61.375 E138.41409
G1 X108.544 Y61.581 E138.45321
G1 X109.197 Y61.991 E138.48687
G1 X111.981 Y64.775 E138.65874
G1 X112.451 Y65.536 E138.69779
G1 X112.625 Y66.341 E138.73374
G1 X112.625 Y106.667 E140.49413
G1 X112.415 Y107.553 E140.53388
G1 X111.968 Y108.245 E140.56984
G1 X109.165 Y111.037 E140.74255
G1 X108.861 Y111.251 E140.75877
G1 X107.791 Y111.625 E140.80826
G1 X67.328 Y111.625 E142.57462
G1 X66.456 Y111.419 E142.61374
G1 X65.803 Y111.009 E142.6474
G1 X63.019 Y108.225 E142.81927
G1 X62.549 Y107.464 E142.85832
G1 X62.375 Y106.659 E142.89427
G1 X62.375 Y66.328 E144.65488
G1 X62.581 Y65.456 E144.69399
G1 X62.991 Y64.803 E144.72765
G0 F3600 X63.269 Y65.019
G1 F3300 X65.99 Y62.298 E144.89563
G1 X66.67 Y61.878 E144.93052
G1 X67.378 Y61.725 E144.96214
G1 X107.629 Y61.725 E146.71926
G1 X108.407 Y61.909 E146.75416
G1 X108.981 Y62.269 E146.78374
G1 X111.702 Y64.99 E146.95172
G1 X112.122 Y65.67 E146.98661
G1 X112.275 Y66.378 E147.01823
G1 X112.275 Y106.624 E148.77513
G1 X112.088 Y107.415 E148.81061
G1 X111.694 Y108.024 E148.84227
G1 X108.918 Y110.789 E149.01331
G1 X108.698 Y110.938 E149.02491
G1 X107.733 Y111.275 E149.06953
G1 X67.371 Y111.275 E150.83149
G1 X66.593 Y111.091 E150.86639
G1 X66.019 Y110.731 E150.89597
G1 X63.298 Y108.01 E151.06395
G1 X62.878 Y107.33 E151.09884
G1 X62.725 Y106.622 E151.13046
G1 X62.725 Y66.371 E152.88758
G1 X62.909 Y65.593 E152.92248
G1 X63.269 Y65.019 E152.95205
G0 F3600 X63.548 Y65.234
G1 F3300 X66.205 Y62.577 E153.11609
G1 X66.804 Y62.207 E153.14682
G1 X67.415 Y62.075 E153.17411
G1 X107.586 Y62.075 E154.92773
G1 X108.27 Y62.237 E154.95842
G1 X108.766 Y62.548 E154.98397
G1 X111.423 Y65.205 E155.14801
G1 X111.793 Y65.804 E155.17874
G1 X111.925 Y66.415 E155.20603
G1 X111.925 Y106.582 E156.95948
G1 X111.761 Y107.276 E156.99061
G1 X111.42 Y107.802 E157.01797
G1 X108.671 Y110.541 E157.18738
G1 X108.539 Y110.623 E157.19416
G1 X107.675 Y110.925 E157.23411
G1 X67.414 Y110.925 E158.99166
G1 X66.73 Y110.763 E159.02235
G1 X66.234 Y110.452 E159.04791
G1 X63.577 Y107.795 E159.21194
G1 X63.207 Y107.196 E159.24267
G1 X63.075 Y106.585 E159.26996
G1 X63.075 Y66.414 E161.02358
G1 X63.237 Y65.73 E161.05427
G1 X63.548 Y65.234 E161.07983
G0 F3600 X63.827 Y65.449
G1 F3300 X66.42 Y62.856 E161.23991
G1 X66.937 Y62.537 E161.26643
G1 X67.415 Y62.425 E161.28786
G1 X107.543 Y62.425 E163.0396
G1 X108.133 Y62.565 E163.06607
G1 X108.551 Y62.827 E163.08761
G1 X111.144 Y65.42 E163.24769
G1 X111.463 Y65.937 E163.27421
G1 X111.575 Y66.415 E163.29564
G1 X111.575 Y106.539 E165.04721
G1 X111.433 Y107.138 E165.07409
G1 X111.173 Y107.554 E165.0955
G1 X108.424 Y110.293 E165.26491
G1 X107.617 Y110.575 E165.30222
G1 X67.457 Y110.575 E167.05536
G1 X66.867 Y110.435 E167.08184
G1 X66.449 Y110.173 E167.10337
G1 X63.856 Y107.58 E167.26345
G1 X63.537 Y107.063 E167.28997
G1 X63.425 Y106.585 E167.3114
G1 X63.425 Y66.457 E169.06315
G1 X63.565 Y65.867 E169.08962
G1 X63.827 Y65.449 E169.11116
G0 F3600 X64.074 Y65.696
G1 F3300 X66.635 Y63.135 E169.26926
G1 X67.072 Y62.865 E169.29169
G1 X67.415 Y62.775 E169.30717
G1 X107.5 Y62.775 E171.05703
G1 X108.052 Y62.906 E171.0818
G1 X108.304 Y63.074 E171.09502
G1 X110.865 Y65.635 E171.25313
G1 X111.135 Y66.072 E171.27555
G1 X111.225 Y66.415 E171.29103
G1 X111.225 Y106.5 E173.0409
G1 X111.106 Y107 E173.06334
G1 X110.926 Y107.306 E173.07883
G1 X108.233 Y109.989 E173.24478
G1 X107.558 Y110.225 E173.27599
G1 X67.5 Y110.225 E175.02468
G1 X66.948 Y110.094 E175.04945
G1 X66.696 Y109.926 E175.06267
G1 X64.135 Y107.365 E175.22078
G1 X63.865 Y106.928 E175.2432
G1 X63.775 Y106.585 E175.25868
G1 X63.775 Y66.5 E177.00855
G1 X63.906 Y65.948 E177.03332
G1 X64.074 Y65.696 E177.04654
G0 F3600 X64.321 Y65.943
G1 F3300 X66.882 Y63.382 E177.20464
G1 X67.249 Y63.167 E177.22321
G1 X67.415 Y63.125 E177.23069
G1 X107.5 Y63.125 E178.98055
G1 X107.911 Y63.233 E178.9991
G1 X108.057 Y63.321 E179.00655
G1 X110.618 Y65.882 E179.16465
G1 X110.833 Y66.249 E179.18322
G1 X110.875 Y66.415 E179.19069
G1 X110.875 Y106.5 E180.94056
G1 X110.767 Y106.911 E180.95911
G1 X110.679 Y107.058 E180.96659
G1 X108.041 Y109.686 E181.12914
G1 X107.5 Y109.875 E181.15416
G1 X67.5 Y109.875 E182.90032
G1 X67.089 Y109.767 E182.91887
G1 X66.943 Y109.679 E182.92631
