;FLAVOR:Marlin
;TIME:2397
;Filament used: 2.9142m
;Layer height: 0.2
;MINX:62.125
;MINY:57.375
;MINZ:0.3
;MAXX:111.275
;MAXY:109.728
;MAXZ:42.5
;TARGET_MACHINE.NAME:Unknown
;Generated with Cura_SteamEngine 5.10.0
M104 S200
M105
M109 S200
G28 ;Home
G1 Z15.0 F6000 ;Move the platform down 15mm
;Prime the extruder
G92 E0
G1 F200 E3
G92 E0
M82 ;absolute extrusion mode
G92 E0
G92 E0
G1 F1500 E-6.5
;LAYER_COUNT:212
;LAYER:0
M107
G0 F3600 X64.688 Y59.394 Z0.3
;TYPE:SKIRT
G1 F1500 E0
G1 F3300 X65.426 Y58.779 E0.04194
G1 X67.577 Y57.7 E0.14699
G1 X69.243 Y57.432 E0.22065
G1 X86.138 Y57.375 E0.95819
G1 X88.902 Y58.296 E1.08537
G1 X91.313 Y60.352 E1.22369
G1 X92.593 Y62.662 E1.33898
G1 X92.936 Y64.288 E1.41152
G1 X93.552 Y63.893 E1.44347
G1 X96.938 Y62.934 E1.59709
G1 X99.261 Y62.857 E1.69856
G1 X102.799 Y63.849 E1.85896
G1 X104.834 Y65.071 E1.96258
G1 X107.111 Y67.479 E2.10725
G1 X108.173 Y69.263 E2.19789
G1 X109.271 Y73.072 E2.37094
G1 X109.136 Y74.211 E2.42101
G1 X109.244 Y74.348 E2.42862
G1 X110.217 Y75.988 E2.51187
G1 X111.248 Y79.577 E2.67488
G1 X111.275 Y80 E2.69338
G1 X110.97 Y82.421 E2.7999
G1 X110.29 Y84.929 E2.91334
G1 X109.253 Y86.81 E3.0071
G1 X106.644 Y89.419 E3.16817
G1 X104.907 Y90.449 E3.25633
G1 X101.456 Y91.411 E3.41272
G1 X99.126 Y91.418 E3.51444
G1 X95.752 Y90.436 E3.66784
G1 X93.931 Y89.349 E3.76041
G1 X93.044 Y88.462 E3.81517
G1 X92.66 Y90.198 E3.89279
G1 X91.822 Y92.004 E3.9797
G1 X91.15 Y92.804 E4.02531
G1 X92.374 Y94.166 E4.10525
G1 X93.389 Y95.7 E4.18555
G1 X94.241 Y98.676 E4.32068
G1 X94.26 Y99.595 E4.36081
G1 X93.953 Y101.817 E4.45873
G1 X93.496 Y103.427 E4.53179
G1 X92.475 Y105.286 E4.62437
G1 X90.385 Y107.376 E4.7534
G1 X88.531 Y108.434 E4.84659
G1 X86.013 Y109.133 E4.96066
G1 X84.966 Y109.159 E5.00638
G1 X82.952 Y109.724 E5.0977
G1 X80.635 Y109.728 E5.19884
G1 X78.04 Y108.957 E5.31702
G1 X76.222 Y107.939 E5.40798
G1 X74.242 Y105.959 E5.53021
G1 X73.12 Y104.09 E5.62538
G1 X72.394 Y101.638 E5.73701
G1 X72.321 Y99.19 E5.84392
G1 X72.641 Y98.108 E5.89318
G1 X72.294 Y95.942 E5.98894
G1 X72.36 Y95.568 E6.00552
G1 X69.006 Y95.534 E6.15194
G1 X67.51 Y95.264 E6.2183
G1 X65.469 Y94.274 E6.31733
G1 X63.6 Y92.48 E6.43042
G1 X62.463 Y90.224 E6.5407
G1 X62.21 Y88.787 E6.6044
G1 X62.125 Y64.472 E7.66585
G1 X62.488 Y62.808 E7.7402
G1 X63.331 Y60.988 E7.82776
G1 X64.688 Y59.394 E7.91914
G0 F3600 X64.955 Y59.621
G1 F3300 X65.619 Y59.074 E7.9567
G1 X67.685 Y58.037 E8.05761
G1 X69.298 Y57.778 E8.12893
G1 X86.082 Y57.725 E8.86162
G1 X88.728 Y58.607 E8.98337
G1 X91.037 Y60.576 E9.11584
G1 X92.261 Y62.784 E9.22605
G1 X92.697 Y64.857 E9.31853
G1 X93.695 Y64.216 E9.3703
G1 X96.992 Y63.283 E9.51988
G1 X99.219 Y63.209 E9.61715
G1 X102.66 Y64.174 E9.77316
G1 X104.614 Y65.347 E9.87265
G1 X106.828 Y67.688 E10.01331
G1 X107.85 Y69.405 E10.10054
G1 X108.915 Y73.099 E10.26836
G1 X108.77 Y74.318 E10.32195
G1 X108.943 Y74.527 E10.3338
G1 X109.894 Y76.13 E10.41516
G1 X110.902 Y79.638 E10.5745
G1 X110.928 Y79.957 E10.58847
G1 X110.632 Y82.329 E10.69282
G1 X109.963 Y84.796 E10.8044
G1 X108.968 Y86.601 E10.89438
G1 X106.429 Y89.14 E11.05112
G1 X104.769 Y90.124 E11.13536
G1 X101.408 Y91.061 E11.28768
G1 X99.175 Y91.068 E11.38516
G1 X95.894 Y90.113 E11.53433
G1 X94.145 Y89.069 E11.62325
G1 X92.675 Y87.599 E11.714
G1 X92.675 Y88.506 E11.7536
G1 X92.326 Y90.085 E11.82419
G1 X91.523 Y91.816 E11.90749
G1 X90.686 Y92.812 E11.96428
G1 X92.082 Y94.359 E12.05525
G1 X93.068 Y95.85 E12.13328
G1 X93.892 Y98.726 E12.26388
G1 X93.913 Y99.548 E12.29977
G1 X93.616 Y101.721 E12.39552
G1 X93.17 Y103.293 E12.46685
G1 X92.19 Y105.077 E12.5557
G1 X90.174 Y107.093 E12.68016
G1 X88.394 Y108.109 E12.76963
G1 X85.962 Y108.784 E12.87981
G1 X84.913 Y108.81 E12.92562
G1 X82.903 Y109.374 E13.01675
G1 X80.684 Y109.378 E13.11362
G1 X78.177 Y108.633 E13.22779
G1 X76.434 Y107.657 E13.315
G1 X74.521 Y105.744 E13.4331
G1 X73.444 Y103.95 E13.52444
G1 X72.743 Y101.582 E13.63225
G1 X72.673 Y99.236 E13.73471
G1 X73 Y98.131 E13.78501
G1 X72.64 Y95.887 E13.88423
G1 X72.808 Y95.222 E13.91417
G1 X69.01 Y95.184 E14.07997
G1 X67.621 Y94.929 E14.14162
G1 X65.669 Y93.982 E14.23633
G1 X63.886 Y92.27 E14.34424
G1 X62.799 Y90.115 E14.4496
G1 X62.555 Y88.726 E14.51117
G1 X62.475 Y64.51 E15.5683
G1 X62.822 Y62.921 E15.6393
G1 X63.629 Y61.179 E15.72311
G1 X64.955 Y59.621 E15.81242
G0 F3600 X65.177 Y59.891
G1 F3300 X65.809 Y59.371 E15.84814
G1 X67.793 Y58.375 E15.94506
G1 X69.354 Y58.124 E16.01407
G1 X86.026 Y58.075 E16.74188
G1 X88.554 Y58.918 E16.85821
G1 X90.761 Y60.8 E16.98482
G1 X91.93 Y62.909 E17.09009
G1 X92.325 Y64.785 E17.17378
G1 X92.325 Y65.511 E17.20547
G1 X93.838 Y64.539 E17.28397
G1 X97.046 Y63.632 E17.42951
G1 X99.178 Y63.561 E17.52263
G1 X102.52 Y64.498 E17.67414
G1 X104.392 Y65.622 E17.76946
G1 X106.547 Y67.9 E17.90635
G1 X107.527 Y69.547 E17.99002
G1 X108.559 Y73.126 E18.15262
G1 X108.404 Y74.43 E18.20995
G1 X108.642 Y74.706 E18.22586
G1 X109.571 Y76.272 E18.30534
G1 X110.554 Y79.678 E18.4601
G1 X110.581 Y79.914 E18.47046
G1 X110.294 Y82.237 E18.57264
G1 X109.635 Y84.667 E18.68255
G1 X108.685 Y86.39 E18.76845
G1 X106.216 Y88.859 E18.92087
G1 X104.629 Y89.8 E19.00141
G1 X101.36 Y90.711 E19.14956
G1 X99.224 Y90.718 E19.2428
G1 X96.036 Y89.79 E19.38775
G1 X94.359 Y88.789 E19.473
G1 X92.325 Y86.755 E19.59857
G1 X92.325 Y88.466 E19.67327
G1 X91.992 Y89.972 E19.7406
G1 X91.224 Y91.628 E19.82028
G1 X90.222 Y92.82 E19.88826
G1 X91.822 Y94.593 E19.99252
G1 X92.747 Y95.998 E20.06595
G1 X93.543 Y98.777 E20.19214
G1 X93.566 Y99.501 E20.22376
G1 X93.279 Y101.625 E20.31733
G1 X92.843 Y103.161 E20.38703
G1 X91.906 Y104.867 E20.472
G1 X89.963 Y106.81 E20.59195
G1 X88.257 Y107.784 E20.67771
G1 X85.911 Y108.435 E20.78399
G1 X84.862 Y108.461 E20.82979
G1 X82.852 Y109.024 E20.92092
G1 X80.733 Y109.028 E21.01342
G1 X78.314 Y108.309 E21.12358
G1 X76.646 Y107.375 E21.20704
G1 X74.8 Y105.529 E21.321
G1 X73.768 Y103.81 E21.40853
G1 X73.092 Y101.526 E21.51251
G1 X73.025 Y99.282 E21.61051
G1 X73.371 Y98.11 E21.66386
G1 X73.326 Y97.953 E21.67099
G1 X72.997 Y95.901 E21.76171
G1 X73.257 Y94.877 E21.80783
G1 X69.014 Y94.834 E21.99306
G1 X67.732 Y94.594 E22.05
G1 X65.869 Y93.69 E22.14039
G1 X64.174 Y92.062 E22.24299
G1 X63.135 Y90.002 E22.34371
G1 X62.9 Y88.665 E22.40297
G1 X62.825 Y64.548 E23.45577
G1 X63.156 Y63.034 E23.52343
G1 X63.928 Y61.368 E23.60358
G1 X65.177 Y59.891 E23.68802
G0 F3600 X65.4 Y60.161
G1 F3300 X66.001 Y59.666 E23.72201
G1 X67.901 Y58.712 E23.81482
G1 X69.409 Y58.47 E23.88149
G1 X85.969 Y58.425 E24.60441
G1 X88.38 Y59.229 E24.71535
G1 X90.485 Y61.024 E24.83612
G1 X91.599 Y63.034 E24.93644
G1 X91.975 Y64.819 E25.01607
G1 X91.975 Y66.283 E25.07998
G1 X92.331 Y65.923 E25.10208
G1 X93.984 Y64.862 E25.18783
G1 X97.1 Y63.981 E25.32919
G1 X99.136 Y63.913 E25.41811
G1 X102.381 Y64.823 E25.56524
G1 X104.172 Y65.898 E25.65642
G1 X106.264 Y68.11 E25.78933
G1 X107.204 Y69.689 E25.86955
G1 X108.203 Y73.153 E26.02693
G1 X108.037 Y74.545 E26.08813
G1 X108.341 Y74.885 E26.10804
G1 X109.248 Y76.414 E26.18564
G1 X110.218 Y79.775 E26.33835
G1 X110.229 Y79.914 E26.34444
G1 X109.956 Y82.145 E26.44256
G1 X109.308 Y84.534 E26.55061
G1 X108.4 Y86.181 E26.63272
G1 X106.003 Y88.578 E26.7807
G1 X104.489 Y89.476 E26.85754
G1 X101.312 Y90.361 E27.00151
G1 X99.273 Y90.368 E27.09052
G1 X96.178 Y89.467 E27.23124
G1 X94.573 Y88.509 E27.31283
G1 X92.301 Y86.237 E27.4531
G1 X91.975 Y85.689 E27.48093
G1 X91.975 Y88.426 E27.60041
G1 X91.658 Y89.859 E27.66448
G1 X90.925 Y91.44 E27.74056
G1 X89.718 Y92.875 E27.82241
G1 X89.922 Y93.011 E27.83312
G1 X91.562 Y94.828 E27.93997
G1 X92.427 Y96.148 E28.00886
G1 X93.194 Y98.828 E28.13055
G1 X93.219 Y99.455 E28.15794
G1 X92.942 Y101.529 E28.24928
G1 X92.517 Y103.027 E28.31726
G1 X91.621 Y104.658 E28.39849
G1 X89.75 Y106.529 E28.514
G1 X88.122 Y107.458 E28.59583
G1 X85.86 Y108.086 E28.69831
G1 X84.81 Y108.112 E28.74416
G1 X82.806 Y108.674 E28.83502
G1 X80.786 Y108.678 E28.9232
G1 X78.447 Y107.983 E29.02972
G1 X76.858 Y107.093 E29.10922
G1 X75.079 Y105.314 E29.21905
G1 X74.092 Y103.67 E29.30276
G1 X73.441 Y101.47 E29.40291
G1 X73.377 Y99.328 E29.49646
G1 X73.736 Y98.11 E29.55189
G1 X73.672 Y97.898 E29.56156
G1 X73.354 Y95.916 E29.64919
G1 X73.705 Y94.531 E29.71156
G1 X69.078 Y94.49 E29.91356
G1 X67.844 Y94.259 E29.96836
G1 X66.071 Y93.399 E30.05438
G1 X64.461 Y91.852 E30.15185
G1 X63.471 Y89.889 E30.24783
G1 X63.245 Y88.604 E30.30478
G1 X63.175 Y64.586 E31.35327
G1 X63.49 Y63.147 E31.41757
G1 X64.227 Y61.557 E31.49408
G1 X65.4 Y60.161 E31.57367
G0 F3600 X65.668 Y60.386
G1 F3300 X66.192 Y59.962 E31.6031
G1 X68.009 Y59.05 E31.69185
G1 X69.465 Y58.816 E31.75622
G1 X85.912 Y58.775 E32.4742
G1 X88.206 Y59.54 E32.57977
G1 X90.209 Y61.248 E32.69468
G1 X91.267 Y63.156 E32.78992
G1 X91.625 Y64.858 E32.86584
G1 X91.625 Y67.157 E32.9662
G1 X92.52 Y66.218 E33.02283
G1 X94.13 Y65.185 E33.10634
G1 X97.154 Y64.33 E33.24352
G1 X99.095 Y64.265 E33.3283
G1 X102.241 Y65.147 E33.47093
G1 X103.95 Y66.173 E33.55795
G1 X105.983 Y68.322 E33.68709
G1 X106.881 Y69.831 E33.76374
G1 X107.847 Y73.18 E33.9159
G1 X107.67 Y74.664 E33.98114
G1 X108.04 Y75.064 E34.00493
G1 X108.925 Y76.556 E34.08066
G1 X109.882 Y79.872 E34.23132
G1 X109.618 Y82.053 E34.32723
G1 X108.981 Y84.401 E34.43343
G1 X108.115 Y85.972 E34.51174
G1 X105.788 Y88.299 E34.6554
G1 X104.351 Y89.151 E34.72833
G1 X101.264 Y90.011 E34.86822
G1 X99.322 Y90.018 E34.953
G1 X96.32 Y89.144 E35.08949
G1 X94.787 Y88.229 E35.16742
G1 X92.581 Y86.023 E35.30361
G1 X91.829 Y84.759 E35.36782
G1 X91.625 Y84.687 E35.37726
G1 X91.625 Y88.387 E35.53878
G1 X91.325 Y89.745 E35.59949
G1 X90.626 Y91.252 E35.67201
G1 X89.454 Y92.647 E35.75155
G1 X89.111 Y92.901 E35.77018
G1 X89.137 Y92.952 E35.77268
G1 X89.663 Y93.246 E35.79898
G1 X91.269 Y95.02 E35.90345
G1 X92.106 Y96.298 E35.97014
G1 X92.845 Y98.88 E36.08738
G1 X92.872 Y99.409 E36.1105
G1 X92.605 Y101.433 E36.19962
G1 X92.19 Y102.895 E36.26596
G1 X91.337 Y104.448 E36.34331
G1 X89.539 Y106.246 E36.45431
G1 X87.985 Y107.133 E36.53242
G1 X85.809 Y107.737 E36.63101
G1 X84.745 Y107.763 E36.67747
G1 X84.64 Y107.801 E36.68234
G1 X82.759 Y108.324 E36.76757
G1 X80.835 Y108.328 E36.85156
G1 X78.584 Y107.659 E36.95407
G1 X77.07 Y106.811 E37.02983
G1 X75.358 Y105.099 E37.13552
G1 X74.416 Y103.53 E37.21541
G1 X73.79 Y101.414 E37.31174
G1 X73.729 Y99.374 E37.40083
G1 X74.103 Y98.105 E37.45858
G1 X74.018 Y97.843 E37.47061
G1 X73.711 Y95.93 E37.55519
G1 X74.154 Y94.184 E37.63382
G1 X69.142 Y94.146 E37.85262
G1 X67.956 Y93.924 E37.90529
G1 X66.273 Y93.108 E37.98694
G1 X64.748 Y91.642 E38.07929
G1 X63.807 Y89.776 E38.17052
G1 X63.59 Y88.543 E38.22517
G1 X63.525 Y64.624 E39.26933
G1 X63.824 Y63.26 E39.33029
G1 X64.526 Y61.745 E39.40318
G1 X65.668 Y60.386 E39.48067
G0 F3600 X65.936 Y60.611
G1 F3300 X66.38 Y60.259 E39.50541
G1 X68.117 Y59.387 E39.59025
G1 X69.52 Y59.162 E39.65228
G1 X85.855 Y59.125 E40.36537
G1 X88.032 Y59.851 E40.46555
G1 X89.933 Y61.472 E40.57461
G1 X90.936 Y63.281 E40.6649
G1 X91.275 Y64.892 E40.73677
G1 X91.275 Y68.031 E40.8738
G1 X92.744 Y66.49 E40.96674
G1 X94.273 Y65.508 E41.04607
G1 X97.208 Y64.679 E41.1792
G1 X99.053 Y64.617 E41.25979
G1 X102.102 Y65.472 E41.39803
G1 X103.73 Y66.449 E41.48091
G1 X105.7 Y68.532 E41.60607
G1 X106.558 Y69.973 E41.67928
G1 X107.491 Y73.207 E41.82621
G1 X107.303 Y74.786 E41.89563
G1 X107.739 Y75.242 E41.92317
G1 X108.601 Y76.696 E41.99696
G1 X109.526 Y79.899 E42.1425
G1 X109.28 Y81.961 E42.23315
G1 X108.653 Y84.272 E42.33768
G1 X107.832 Y85.761 E42.41191
G1 X105.575 Y88.018 E42.55125
G1 X104.211 Y88.827 E42.62048
G1 X101.216 Y89.661 E42.75619
G1 X99.371 Y89.668 E42.83674
G1 X96.462 Y88.821 E42.969
G1 X95.001 Y87.949 E43.04327
G1 X92.861 Y85.809 E43.17539
G1 X92.065 Y84.471 E43.24335
G1 X91.275 Y84.195 E43.27988
G1 X91.275 Y88.347 E43.46113
G1 X90.991 Y89.632 E43.51858
G1 X90.327 Y91.064 E43.58749
G1 X89.214 Y92.389 E43.66303
G1 X88.667 Y92.793 E43.69271
G1 X88.871 Y93.205 E43.71278
G1 X89.443 Y93.524 E43.74137
G1 X90.976 Y95.212 E43.84091
G1 X91.785 Y96.448 E43.9054
G1 X92.498 Y98.937 E44.01843
G1 X92.525 Y99.364 E44.0371
G1 X92.268 Y101.337 E44.12396
G1 X91.863 Y102.763 E44.18867
G1 X91.053 Y104.238 E44.26213
G1 X89.328 Y105.963 E44.36863
G1 X87.848 Y106.808 E44.44302
G1 X85.758 Y107.388 E44.53771
G1 X84.677 Y107.414 E44.58491
G1 X84.519 Y107.472 E44.59226
G1 X82.712 Y107.974 E44.67413
G1 X80.888 Y107.978 E44.75375
G1 X78.717 Y107.333 E44.85262
G1 X77.282 Y106.529 E44.92443
G1 X75.637 Y104.884 E45.02598
G1 X74.74 Y103.39 E45.10205
G1 X74.139 Y101.358 E45.19456
G1 X74.081 Y99.42 E45.2792
G1 X74.47 Y98.097 E45.33939
G1 X74.364 Y97.788 E45.35366
G1 X74.068 Y95.944 E45.43518
G1 X74.603 Y93.837 E45.53008
G1 X69.206 Y93.802 E45.76569
G1 X68.068 Y93.589 E45.81623
G1 X66.475 Y92.817 E45.8935
G1 X65.035 Y91.432 E45.98072
G1 X64.143 Y89.663 E46.06721
G1 X63.935 Y88.482 E46.11956
G1 X63.875 Y64.662 E47.1594
G1 X64.158 Y63.373 E47.21701
G1 X64.825 Y61.933 E47.28628
G1 X65.936 Y60.611 E47.36167
G0 F3600 X66.204 Y60.836
G1 F3300 X66.537 Y60.572 E47.38022
G1 X68.225 Y59.725 E47.46266
G1 X69.576 Y59.508 E47.5224
G1 X85.798 Y59.475 E48.23055
G1 X87.858 Y60.162 E48.32535
G1 X89.657 Y61.696 E48.42855
G1 X90.605 Y63.406 E48.51391
G1 X90.925 Y64.926 E48.58172
G1 X90.925 Y68.965 E48.75803
G1 X91.035 Y68.79 E48.76706
G1 X92.965 Y66.764 E48.88921
G1 X94.419 Y65.831 E48.96462
G1 X97.262 Y65.028 E49.09359
G1 X99.011 Y64.969 E49.16998
G1 X101.963 Y65.797 E49.30382
G1 X103.508 Y66.724 E49.38247
G1 X105.419 Y68.744 E49.50386
G1 X106.235 Y70.115 E49.57351
G1 X107.135 Y73.234 E49.71522
G1 X106.935 Y74.908 E49.78882
G1 X107.458 Y75.455 E49.82186
G1 X108.278 Y76.838 E49.89204
G1 X109.17 Y79.926 E50.03236
G1 X108.942 Y81.869 E50.11776
G1 X108.326 Y84.139 E50.22044
G1 X107.547 Y85.552 E50.29087
G1 X105.36 Y87.739 E50.42589
G1 X104.073 Y88.502 E50.49121
G1 X101.168 Y89.311 E50.62285
G1 X99.42 Y89.318 E50.69915
G1 X96.604 Y88.498 E50.82719
G1 X95.215 Y87.669 E50.8978
G1 X93.141 Y85.595 E51.02584
G1 X92.378 Y84.317 E51.09082
G1 X92.317 Y84.162 E51.09809
G1 X92.126 Y84.126 E51.10658
G1 X90.925 Y83.699 E51.16222
G1 X90.925 Y88.307 E51.36338
G1 X90.657 Y89.519 E51.41756
G1 X90.028 Y90.876 E51.48286
G1 X88.946 Y92.164 E51.55629
G1 X88.613 Y92.428 E51.57484
G1 X88.156 Y92.657 E51.59715
G1 X88.286 Y92.814 E51.60605
G1 X88.605 Y93.457 E51.63739
G1 X89.222 Y93.801 E51.66822
G1 X90.683 Y95.404 E51.7629
G1 X91.464 Y96.598 E51.82519
G1 X92.152 Y98.997 E51.93413
G1 X92.178 Y99.319 E51.94824
G1 X91.931 Y101.241 E52.03283
G1 X91.537 Y102.629 E52.09582
G1 X90.768 Y104.029 E52.16554
G1 X89.115 Y105.682 E52.26759
G1 X87.713 Y106.482 E52.33806
G1 X85.707 Y107.039 E52.42894
G1 X84.61 Y107.065 E52.47684
G1 X84.425 Y107.135 E52.48548
G1 X82.665 Y107.624 E52.56522
G1 X80.937 Y107.628 E52.64065
G1 X78.854 Y107.009 E52.73552
G1 X77.494 Y106.247 E52.80357
G1 X75.916 Y104.669 E52.90099
G1 X75.064 Y103.25 E52.97324
G1 X74.488 Y101.302 E53.06192
G1 X74.433 Y99.466 E53.1421
G1 X74.838 Y98.086 E53.20489
G1 X74.71 Y97.733 E53.22128
G1 X74.425 Y95.958 E53.29976
G1 X74.926 Y93.965 E53.38946
G1 X75.187 Y93.49 E53.41312
G1 X69.27 Y93.458 E53.67143
G1 X68.179 Y93.254 E53.71988
G1 X66.677 Y92.526 E53.79274
G1 X65.322 Y91.222 E53.87484
G1 X64.479 Y89.55 E53.95658
G1 X64.28 Y88.421 E54.00662
G1 X64.225 Y64.7 E55.04214
G1 X64.492 Y63.482 E55.09658
G1 X65.122 Y62.124 E55.16193
G1 X66.204 Y60.836 E55.23536
G0 F3600 X66.472 Y61.061
G1 F3300 X66.694 Y60.885 E55.24773
G1 X68.333 Y60.063 E55.32777
G1 X69.632 Y59.854 E55.3852
G1 X85.741 Y59.825 E56.08843
G1 X87.684 Y60.473 E56.17784
G1 X89.381 Y61.92 E56.27519
G1 X90.274 Y63.531 E56.3556
G1 X90.575 Y64.96 E56.41935
G1 X90.575 Y70.336 E56.65404
G1 X91.288 Y69.031 E56.71895
G1 X93.189 Y67.036 E56.83925
G1 X94.562 Y66.154 E56.91049
G1 X97.316 Y65.377 E57.0354
G1 X98.97 Y65.321 E57.10765
G1 X101.823 Y66.121 E57.237
G1 X103.288 Y67 E57.31158
G1 X105.136 Y68.954 E57.42898
G1 X105.912 Y70.257 E57.49519
G1 X106.779 Y73.261 E57.63168
G1 X106.568 Y75.03 E57.70945
G1 X107.177 Y75.668 E57.74795
G1 X107.955 Y76.98 E57.81454
G1 X108.814 Y79.954 E57.94967
G1 X108.604 Y81.777 E58.02978
