;FLAVOR:Marlin
;TIME:4416
;Filament used: 6.11846m
;Layer height: 0.15
;MINX:80.404
;MINY:75.412
;MINZ:0.36
;MAXX:189.592
;MAXY:184.588
;MAXZ:5.985
;TARGET_MACHINE.NAME:Unknown
;Generated with Cura_SteamEngine 5.10.0
M104 S200
M105
M109 S200
G28 ;Home
G1 Z15.0 F6000 ;Move the platform down 15mm
;Prime the extruder
G92 E0
G1 F200 E3
G92 E0
M82 ;absolute extrusion mode
G92 E0
G92 E0
G1 F1500 E-6.5
;LAYER_COUNT:32
;LAYER:-6
M107
G0 F7200 X95.27 Y92.553 Z0.36
;TYPE:SUPPORT-INTERFACE
G1 F1500 E0
G1 F1800 X96.639 Y91.151 E0.23463
G1 X97.144 Y90.658 E0.31913
G1 X98.6 Y89.306 E0.55704
G1 X99.205 Y88.776 E0.65334
G1 X100.698 Y87.522 E0.8868
G1 X101.294 Y87.048 E0.97798
G1 X102.826 Y85.887 E1.20814
G1 X103.438 Y85.448 E1.29832
G1 X105.034 Y84.362 E1.52947
G1 X105.722 Y83.915 E1.62771
G1 X107.36 Y82.913 E1.85762
G1 X108.099 Y82.49 E1.95958
G1 X109.811 Y81.558 E2.19297
G1 X110.454 Y81.231 E2.27935
G1 X112.221 Y80.379 E2.51423
G1 X112.892 Y80.079 E2.60224
G1 X114.715 Y79.311 E2.8391
G1 X115.418 Y79.035 E2.92953
G1 X117.312 Y78.346 E3.17085
G1 X117.979 Y78.125 E3.25498
G1 X119.865 Y77.54 E3.49142
G1 X120.559 Y77.347 E3.57767
G1 X122.454 Y76.865 E3.8118
G1 X123.285 Y76.676 E3.91384
G1 X125.112 Y76.305 E4.13706
G1 X125.878 Y76.167 E4.23026
G1 X127.795 Y75.881 E4.46233
G1 X128.609 Y75.778 E4.56057
G1 X130.572 Y75.587 E4.79673
G1 X131.307 Y75.528 E4.88502
G1 X133.279 Y75.428 E5.12144
G1 X134.025 Y75.412 E5.21078
G1 X136.018 Y75.412 E5.44942
G1 X136.756 Y75.432 E5.53782
G1 X138.742 Y75.532 E5.77591
G1 X139.52 Y75.591 E5.86934
G1 X141.45 Y75.786 E6.1016
G1 X142.201 Y75.881 E6.19224
G1 X144.131 Y76.171 E6.42593
G1 X144.889 Y76.305 E6.5181
G1 X146.84 Y76.704 E6.75654
G1 X147.506 Y76.854 E6.83828
G1 X149.44 Y77.347 E7.07725
G1 X150.158 Y77.548 E7.16653
G1 X152.069 Y78.141 E7.40611
G1 X152.696 Y78.35 E7.48525
G1 X154.635 Y79.055 E7.73229
G1 X155.233 Y79.287 E7.80909
G1 X157.1 Y80.079 E8.05192
G1 X157.767 Y80.375 E8.13929
G1 X159.617 Y81.27 E8.38537
G1 X160.316 Y81.63 E8.47951
G1 X161.904 Y82.494 E8.69597
G1 X162.639 Y82.917 E8.79751
G1 X164.307 Y83.935 E9.03149
G1 X164.966 Y84.362 E9.12551
G1 X166.566 Y85.452 E9.35732
G1 X167.17 Y85.886 E9.44638
G1 X168.797 Y87.124 E9.69117
G1 X169.37 Y87.582 E9.77901
G1 X170.803 Y88.784 E10.00296
G1 X171.403 Y89.313 E10.09874
G1 X172.839 Y90.642 E10.33301
G1 X173.408 Y91.203 E10.42869
G1 X174.794 Y92.624 E10.66637
G1 X175.303 Y93.173 E10.75601
G1 X176.604 Y94.649 E10.99159
G1 X177.014 Y95.138 E11.068
G1 X178.296 Y96.742 E11.31386
G1 X178.734 Y97.322 E11.40089
G1 X179.944 Y99.002 E11.64879
G1 X180.318 Y99.55 E11.72823
G1 X181.413 Y101.25 E11.97035
G1 X181.784 Y101.853 E12.05513
G1 X182.794 Y103.607 E12.29747
G1 X183.145 Y104.262 E12.38645
G1 X184.053 Y106.03 E12.62443
G1 X184.345 Y106.641 E12.70552
G1 X185.165 Y108.461 E12.94453
G1 X185.449 Y109.128 E13.03134
G1 X186.177 Y110.978 E13.26938
G1 X186.43 Y111.672 E13.35783
G1 X187.071 Y113.586 E13.59952
G1 X187.26 Y114.205 E13.67701
G1 X187.829 Y116.223 E13.92806
G1 X188.006 Y116.933 E14.01568
G1 X188.445 Y118.862 E14.25255
G1 X188.571 Y119.464 E14.3262
G1 X188.929 Y121.502 E14.57396
G1 X189.031 Y122.168 E14.65463
G1 X189.29 Y124.247 E14.90549
G1 X189.345 Y124.872 E14.98061
G1 X189.359 Y124.95 E14.9901
G1 X189.504 Y126.898 E15.22399
G1 X189.544 Y127.64 E15.31296
G1 X189.592 Y129.617 E15.54975
G1 X189.592 Y130.367 E15.63956
G1 X189.544 Y132.361 E15.87838
G1 X189.508 Y133.07 E15.96338
G1 X189.357 Y135.069 E16.20342
G1 X189.29 Y135.747 E16.28499
G1 X189.047 Y137.711 E16.52195
G1 X188.952 Y138.376 E16.60238
G1 X188.575 Y140.504 E16.86115
G1 X188.429 Y141.215 E16.94806
G1 X188.006 Y143.067 E17.17552
G1 X187.829 Y143.781 E17.2636
G1 X187.288 Y145.695 E17.50176
G1 X187.071 Y146.406 E17.59076
G1 X186.422 Y148.344 E17.83548
G1 X186.177 Y149.018 E17.92135
G1 X185.437 Y150.899 E18.16338
G1 X185.165 Y151.535 E18.2462
G1 X184.345 Y153.354 E18.48511
G1 X184.002 Y154.061 E18.5792
G1 X183.105 Y155.81 E18.81455
G1 X182.794 Y156.389 E18.89325
G1 X181.78 Y158.151 E19.13667
G1 X181.385 Y158.794 E19.22702
G1 X180.319 Y160.442 E19.46203
G1 X179.872 Y161.094 E19.55669
G1 X178.749 Y162.654 E19.78684
G1 X178.299 Y163.25 E19.87626
G1 X177.026 Y164.846 E20.1207
G1 X176.545 Y165.418 E20.21019
G1 X175.231 Y166.903 E20.44761
G1 X174.726 Y167.448 E20.53657
G1 X173.361 Y168.848 E20.7707
G1 X172.837 Y169.353 E20.85783
G1 X171.399 Y170.691 E21.09302
G1 X170.795 Y171.22 E21.18916
G1 X169.303 Y172.474 E21.42252
G1 X168.71 Y172.943 E21.51305
G1 X167.17 Y174.11 E21.74441
G1 X166.578 Y174.536 E21.83174
G1 X164.962 Y175.634 E22.06567
G1 X164.274 Y176.081 E22.16391
G1 X162.635 Y177.084 E22.39399
G1 X161.908 Y177.502 E22.4944
G1 X160.185 Y178.438 E22.72918
G1 X159.546 Y178.765 E22.81513
G1 X157.775 Y179.617 E23.05044
G1 X157.108 Y179.917 E23.13801
G1 X155.301 Y180.677 E23.37274
G1 X154.578 Y180.962 E23.46579
G1 X152.751 Y181.63 E23.69871
G1 X152.029 Y181.871 E23.78985
G1 X150.131 Y182.456 E24.02766
G1 X149.436 Y182.649 E24.11403
G1 X147.546 Y183.135 E24.34769
G1 X146.724 Y183.32 E24.44857
G1 X144.893 Y183.691 E24.67227
G1 X144.118 Y183.829 E24.76652
G1 X142.201 Y184.119 E24.99867
G1 X141.388 Y184.218 E25.09673
G1 X139.424 Y184.409 E25.33301
G1 X138.693 Y184.468 E25.42082
G1 X136.72 Y184.568 E25.65736
G1 X135.975 Y184.588 E25.7466
G1 X133.981 Y184.584 E25.98535
G1 X133.239 Y184.568 E26.07422
G1 X131.258 Y184.464 E26.31174
G1 X130.48 Y184.405 E26.40516
G1 X128.545 Y184.21 E26.63803
G1 X127.795 Y184.119 E26.72849
G1 X125.865 Y183.825 E26.96225
G1 X125.103 Y183.69 E27.05491
G1 X123.272 Y183.32 E27.27857
G1 X122.49 Y183.143 E27.37458
G1 X120.556 Y182.649 E27.61358
G1 X119.842 Y182.448 E27.7024
G1 X117.915 Y181.851 E27.94395
G1 X117.229 Y181.622 E28.03054
G1 X115.357 Y180.937 E28.26923
G1 X114.675 Y180.673 E28.35679
G1 X112.884 Y179.913 E28.58975
G1 X112.177 Y179.597 E28.68247
G1 X110.374 Y178.725 E28.92228
G1 X109.767 Y178.418 E29.00373
G1 X107.977 Y177.439 E29.24802
G1 X107.353 Y177.076 E29.33446
G1 X105.721 Y176.081 E29.56332
G1 X105.029 Y175.634 E29.66196
G1 X103.415 Y174.536 E29.8957
G1 X102.819 Y174.102 E29.98397
G1 X101.195 Y172.872 E30.2279
G1 X100.694 Y172.47 E30.30482
G1 X99.197 Y171.212 E30.53895
G1 X98.584 Y170.674 E30.63661
G1 X97.16 Y169.358 E30.86877
G1 X96.588 Y168.797 E30.9647
G1 X95.203 Y167.376 E31.2023
G1 X94.765 Y166.903 E31.27949
G1 X93.448 Y165.415 E31.51742
G1 X92.902 Y164.763 E31.61924
G1 X91.685 Y163.235 E31.85314
G1 X91.235 Y162.635 E31.94294
G1 X90.124 Y161.093 E32.17051
G1 X89.674 Y160.438 E32.26566
G1 X88.592 Y158.755 E32.50523
G1 X88.205 Y158.119 E32.59437
G1 X87.202 Y156.384 E32.83433
G1 X86.89 Y155.809 E32.91266
G1 X85.947 Y153.966 E33.16054
G1 X85.643 Y153.334 E33.24452
G1 X84.811 Y151.492 E33.48653
G1 X84.547 Y150.865 E33.56798
G1 X83.811 Y148.99 E33.80917
G1 X83.542 Y148.247 E33.90378
G1 X82.93 Y146.438 E34.13244
G1 X82.737 Y145.796 E34.21271
G1 X82.171 Y143.773 E34.46424
G1 X81.989 Y143.054 E34.55305
G1 X81.567 Y141.207 E34.7799
G1 X81.401 Y140.396 E34.87902
G1 X81.044 Y138.377 E35.12452
G1 X80.949 Y137.703 E35.20602
G1 X80.718 Y135.847 E35.42996
G1 X80.639 Y135.057 E35.52503
G1 X80.492 Y133.086 E35.76168
G1 X80.452 Y132.356 E35.84922
G1 X80.404 Y130.383 E36.08553
G1 X80.404 Y129.629 E36.17581
G1 X80.452 Y127.648 E36.41308
G1 X80.492 Y126.898 E36.50301
G1 X80.639 Y124.928 E36.73955
G1 X80.722 Y124.122 E36.83657
G1 X80.969 Y122.163 E37.07299
G1 X81.059 Y121.549 E37.14729
G1 X81.429 Y119.463 E37.40096
G1 X81.568 Y118.785 E37.48383
G1 X81.989 Y116.934 E37.71112
G1 X82.203 Y116.096 E37.81468
G1 X82.736 Y114.203 E38.05016
G1 X82.925 Y113.6 E38.12582
G1 X83.566 Y111.672 E38.3691
G1 X83.819 Y110.978 E38.45754
G1 X84.547 Y109.132 E38.69514
G1 X84.835 Y108.453 E38.78346
G1 X85.651 Y106.646 E39.02086
G1 X86.003 Y105.915 E39.118
G1 X86.891 Y104.19 E39.35031
G1 X87.202 Y103.607 E39.42943
G1 X88.22 Y101.842 E39.6734
G1 X88.619 Y101.198 E39.76411
G1 X89.678 Y99.554 E39.99826
G1 X90.124 Y98.902 E40.09284
G1 X91.246 Y97.338 E40.32332
G1 X91.7 Y96.743 E40.41293
G1 X92.986 Y95.134 E40.65956
G1 X93.392 Y94.649 E40.73529
G1 X94.777 Y93.081 E40.98579
G1 X95.27 Y92.553 E41.07229
G0 F7200 X95.333 Y93.07
G1 F1800 X171.921 Y169.658 E54.04116
G0 F7200 X173.084 Y168.559
G1 F1800 X96.446 Y91.92 E67.01859
G0 F7200 X97.584 Y90.796
G1 F1800 X174.201 Y167.413 E79.99237
G0 F7200 X175.288 Y166.237
G1 F1800 X98.757 Y89.706 E92.95159
G0 F7200 X99.97 Y88.656
G1 F1800 X176.347 Y165.033 E105.88474
G0 F7200 X177.361 Y163.785
G1 F1800 X101.206 Y87.63 E118.78029
G0 F7200 X102.487 Y86.647
G1 F1800 X178.354 Y162.514 E131.62707
G0 F7200 X179.303 Y161.201
G1 F1800 X103.793 Y85.691 E144.4134
G0 F7200 X105.14 Y84.775
G1 F1800 X180.222 Y159.857 E157.12726
G0 F7200 X181.108 Y158.481
G1 F1800 X106.522 Y83.895 E169.75713
G0 F7200 X107.935 Y83.045
G1 F1800 X181.948 Y157.058 E182.28997
G0 F7200 X182.76 Y155.607
G1 F1800 X109.394 Y82.241 E194.71325
G0 F7200 X110.884 Y81.468
G1 F1800 X183.527 Y154.111 E207.01411
G0 F7200 X184.256 Y152.578
G1 F1800 X112.412 Y80.733 E219.17975
G0 F7200 X113.991 Y80.05
G1 F1800 X184.954 Y151.013 E231.19612
G0 F7200 X185.599 Y149.395
G1 F1800 X115.599 Y79.395 E243.04943
G0 F7200 X117.258 Y78.791
G1 F1800 X186.204 Y147.737 E254.72426
G0 F7200 X186.766 Y146.037
G1 F1800 X118.967 Y78.238 E266.20487
G0 F7200 X120.713 Y77.721
G1 F1800 X187.272 Y144.28 E277.4755
G0 F7200 X187.731 Y142.476
G1 F1800 X122.517 Y77.262 E288.51838
G0 F7200 X124.38 Y76.863
G1 F1800 X188.142 Y140.624 E299.3153
G0 F7200 X188.488 Y138.707
G1 F1800 X126.291 Y76.51 E309.8473
G0 F7200 X128.268 Y76.225
G1 F1800 X188.766 Y136.723 E320.09161
G0 F7200 X188.986 Y134.68
G1 F1800 X130.319 Y76.013 E330.02587
G0 F7200 X132.44 Y75.871
G1 F1800 X189.133 Y132.565 E339.62595
G0 F7200 X189.192 Y130.361
G1 F1800 X134.643 Y75.812 E348.86289
G0 F7200 X136.936 Y75.842
G1 F1800 X189.154 Y128.06 E357.70512
G0 F7200 X189.01 Y125.654
G1 F1800 X139.335 Y75.978 E366.11682
G0 F7200 X141.86 Y76.241
G1 F1800 X188.747 Y123.128 E374.05633
G0 F7200 X188.339 Y120.457
G1 F1800 X144.531 Y76.648 E381.47456
G0 F7200 X147.381 Y77.236
G1 F1800 X187.748 Y117.603 E388.31002
G0 F7200 X186.935 Y114.527
G1 F1800 X150.472 Y78.065 E394.48432
G0 F7200 X153.875 Y79.204
G1 F1800 X185.811 Y111.14 E399.89214
G0 F7200 X184.179 Y107.246
G1 F1800 X157.739 Y80.806 E404.3693
G0 F7200 X162.493 Y83.297
G1 F1800 X181.694 Y102.498 E407.62067
G0 F7200 X175.796 Y94.337
G1 F1800 X170.577 Y89.119 E408.50433
G0 F7200 X94.264 Y94.264
G1 F1800 X170.738 Y170.738 E421.4539
G0 F7200 X169.513 Y171.775
G1 F1800 X93.219 Y95.482 E434.3729
G0 F7200 X92.214 Y96.739
G1 F1800 X168.257 Y172.783 E447.24957
G0 F7200 X166.97 Y173.758
G1 F1800 X91.242 Y98.03 E460.07282
G0 F7200 X90.3 Y99.351
G1 F1800 X165.639 Y174.69 E472.8302
G0 F7200 X164.284 Y175.598
G1 F1800 X89.404 Y100.717 E485.50993
G0 F7200 X88.529 Y102.106
G1 F1800 X162.885 Y176.461 E498.10077
G0 F7200 X161.454 Y177.293
G1 F1800 X87.702 Y103.541 E510.58942
G0 F7200 X86.915 Y105.017
G1 F1800 X159.987 Y178.089 E522.96291
G0 F7200 X158.473 Y178.837
G1 F1800 X86.155 Y106.52 E535.20865
G0 F7200 X85.445 Y108.072
G1 F1800 X156.93 Y179.557 E547.31342
G0 F7200 X155.337 Y180.227
G1 F1800 X84.769 Y109.659 E559.26291
G0 F7200 X84.132 Y111.285
G1 F1800 X153.702 Y180.855 E571.0434
G0 F7200 X152.031 Y181.447
G1 F1800 X83.556 Y112.972 E582.63847
G0 F7200 X83.013 Y114.691
G1 F1800 X150.305 Y181.983 E594.03323
G0 F7200 X148.528 Y182.47
G1 F1800 X82.521 Y116.463 E605.21039
G0 F7200 X82.089 Y118.293
G1 F1800 X146.708 Y182.912 E616.15252
G0 F7200 X144.828 Y183.295
G1 F1800 X81.708 Y120.175 E626.84081
G0 F7200 X81.38 Y122.11
G1 F1800 X142.882 Y183.612 E637.25513
G0 F7200 X140.873 Y183.865
G1 F1800 X81.124 Y124.116 E647.3726
G0 F7200 X80.945 Y126.199
G1 F1800 X138.803 Y184.058 E657.16995
G0 F7200 X136.651 Y184.169
G1 F1800 X80.835 Y128.353 E666.62144
G0 F7200 X80.809 Y130.589
G1 F1800 X134.404 Y184.184 E675.69684
G0 F7200 X132.062 Y184.105
G1 F1800 X80.883 Y132.926 E684.36314
G0 F7200 X81.073 Y135.379
G1 F1800 X129.61 Y183.916 E692.58205
G0 F7200 X127.03 Y183.598
G1 F1800 X81.388 Y137.957 E700.31066
G0 F7200 X81.872 Y140.703
G1 F1800 X124.285 Y183.116 E707.49258
G0 F7200 X121.343 Y182.437
G1 F1800 X82.551 Y143.645 E714.06134
G0 F7200 X83.491 Y146.848
G1 F1800 X118.147 Y181.504 E719.92975
G0 F7200 X114.577 Y180.196
G1 F1800 X84.803 Y150.423 E724.97138
G0 F7200 X86.723 Y154.605
G1 F1800 X110.414 Y178.296 E728.98305
G0 F7200 X104.957 Y175.102
G1 F1800 X89.89 Y160.035 E731.53439
G0 F600 X89.89 Y160.035 Z0.585
G0 F7200 X103.671 Y85.776
;TIME_ELAPSED:211.655378
;LAYER:-5
;TYPE:SUPPORT
G1 F1800 X103.058 Y86.218 E731.59094
G1 X101.534 Y87.372 E731.734
G1 X100.879 Y87.894 E731.79668
G1 X99.452 Y89.092 E731.93611
G1 X98.862 Y89.612 E731.99497
G1 X97.423 Y90.946 E732.14181
G1 X96.918 Y91.44 E732.19468
G1 X95.535 Y92.855 E732.34275
G1 X95.078 Y93.347 E732.393
G1 X93.746 Y94.853 E732.54346
G1 X93.288 Y95.396 E732.59662
G1 X91.999 Y97.015 E732.75149
G1 X92.095 Y97.111 E732.76165
G1 X91.534 Y97.63 E732.81884
G1 X90.667 Y98.837 E732.93005
G1 X103.853 Y85.652 E734.32552
G1 X105.313 Y84.658 E734.45769
G1 X105.951 Y84.246 E734.51453
G1 X107.787 Y83.132 E734.67524
G1 X88.151 Y102.767 E736.75333
G1 X87.598 Y103.725 E736.8361
G1 X87.201 Y104.46 E736.89862
G1 X86.493 Y105.84 E737.01469
G1 X110.844 Y81.489 E739.59183
G1 X112.416 Y80.733 E739.72237
G1 X113.479 Y80.268 E739.8092
G1 X85.26 Y108.487 E742.7957
G1 X84.915 Y109.29 E742.86111
G1 X84.299 Y110.862 E742.98746
G1 X115.858 Y79.303 E746.32745
G1 X117.446 Y78.726 E746.45389
G1 X118.054 Y78.521 E746.5019
G1 X83.533 Y113.042 E750.15537
G1 X83.305 Y113.722 E750.20904
G1 X83.128 Y114.295 E750.25392
G1 X82.905 Y115.084 E750.31528
G1 X120.098 Y77.892 E754.25147
G1 X120.664 Y77.734 E754.29545
G1 X121.56 Y77.506 E754.36464
G1 X121.56 Y77.772 E754.38455
G1 X121.704 Y77.7 E754.39659
G1 X82.385 Y117.019 E758.55785
G1 X81.963 Y118.855 E758.69883
G1 X123.848 Y76.971 E763.13159
G1 X125.619 Y76.613 E763.26681
G1 X81.639 Y120.594 E767.9214
G1 X81.513 Y121.313 E767.97603
G1 X81.684 Y121.313 E767.98882
G1 X81.356 Y122.291 E768.06602
G1 X127.046 Y76.601 E772.90153
G1 X127.943 Y76.265 E772.97321
G1 X128.911 Y76.15 E773.04616
G1 X81.15 Y123.911 E778.10086
G1 X81.037 Y124.976 E778.18101
G1 X81 Y125.475 E778.21845
G1 X130.487 Y75.988 E783.45581
G1 X131.337 Y76.071 E783.51973
G1 X131.337 Y75.928 E783.53043
G1 X131.995 Y75.894 E783.57974
G1 X80.889 Y127.001 E788.98849
G1 X80.855 Y127.67 E789.03862
G1 X80.835 Y128.469 E789.09844
G1 X133.478 Y75.825 E794.66986
G1 X134.039 Y75.812 E794.71186
G1 X134.906 Y75.812 E794.77674
G1 X80.793 Y129.924 E800.50363
G1 X80.829 Y131.303 E800.60686
G1 X136.321 Y75.811 E806.47975
G1 X137.668 Y75.878 E806.58068
G1 X80.861 Y132.685 E812.59274
G1 X80.96 Y134 E812.69143
G1 X138.948 Y76.013 E818.82843
G1 X139.461 Y75.989 E818.86686
G1 X140.302 Y76.073 E818.93011
G1 X81.055 Y135.319 E825.20035
G1 X81.213 Y136.576 E825.29516
G1 X141.584 Y76.205 E831.68441
G1 X142.057 Y76.265 E831.72009
G1 X142.698 Y76.505 E831.77131
G1 X81.375 Y137.829 E838.26137
G1 X81.47 Y138.47 E838.30986
G1 X81.572 Y139.045 E838.35356
G1 X144.052 Y76.566 E844.96596
G1 X145.253 Y76.779 E845.05724
G1 X81.783 Y140.248 E851.77442
G1 X82.019 Y141.427 E851.8644
G1 X146.42 Y77.026 E858.68015
G1 X147.356 Y77.231 E858.75186
G1 X147.539 Y77.321 E858.76712
G1 X82.288 Y142.572 E865.67284
G1 X82.403 Y143.075 E865.71145
G1 X82.584 Y143.075 E865.725
G1 X82.584 Y143.69 E865.77102
G1 X148.702 Y77.572 E872.76849
G1 X149.336 Y77.734 E872.81746
G1 X149.819 Y77.869 E872.85499
G1 X82.876 Y144.812 E879.93978
G1 X83.187 Y145.916 E880.02561
G1 X150.904 Y78.199 E887.19231
G1 X151.983 Y78.533 E887.27684
G1 X83.54 Y146.977 E894.52043
G1 X83.895 Y148.036 E894.60401
G1 X153.033 Y78.898 E901.9211
G1 X154.069 Y79.276 E902.00363
G1 X84.273 Y149.072 E909.39036
G1 X84.672 Y150.088 E909.47204
G1 X155.094 Y79.665 E916.92508
G1 X156.089 Y80.085 E917.0059
G1 X85.079 Y151.095 E924.52111
G1 X85.514 Y152.074 E924.60128
G1 X157.081 Y80.507 E932.17544
G1 X158.048 Y80.955 E932.25519
G1 X85.953 Y153.049 E939.88517
G1 X86.292 Y153.766 E939.94453
G1 X86.471 Y153.945 E939.96347
