;FLAVOR:Marlin
;TIME:14285
;Filament used: 29.8191m
;Layer height: 0.4
;MINX:38.3
;MINY:11.425
;MINZ:0.3
;MAXX:231.7
;MAXY:179.825
;MAXZ:13.9
;TARGET_MACHINE.NAME:Unknown
;Generated with Cura_SteamEngine 5.10.0
M104 S205
M105
M109 S205
G28 ;Home
G1 Z15.0 F6000 ;Move the platform down 15mm
;Prime the extruder
G92 E0
G1 F200 E3
G92 E0
M82 ;absolute extrusion mode
G92 E0
G92 E0
G1 F1500 E-6.5
;LAYER_COUNT:35
;LAYER:0
M107
G0 F3600 X38.482 Y13.598 Z0.3
;TYPE:SKIRT
G1 F1500 E0
G1 F1800 X38.683 Y13.134 E0.02523
G1 X38.954 Y12.707 E0.05046
G1 X39.289 Y12.329 E0.07566
G1 X39.68 Y12.008 E0.1009
G1 X40.117 Y11.753 E0.12614
G1 X40.588 Y11.569 E0.15137
G1 X41.082 Y11.463 E0.17657
G1 X41.527 Y11.426 E0.19885
G1 X227.839 Y11.425 E9.49399
G1 X228.537 Y11.435 E9.52882
G1 X229.04 Y11.482 E9.55403
G1 X229.53 Y11.608 E9.57927
G1 X229.994 Y11.81 E9.60451
G1 X230.42 Y12.082 E9.62973
G1 X230.798 Y12.417 E9.65493
G1 X231.118 Y12.808 E9.68014
G1 X231.373 Y13.245 E9.70538
G1 X231.556 Y13.716 E9.73059
G1 X231.663 Y14.21 E9.75581
G1 X231.699 Y14.865 E9.78853
G1 X231.7 Y175.929 E17.82405
G1 X231.691 Y176.656 E17.86032
G1 X231.645 Y177.159 E17.88552
G1 X231.52 Y177.649 E17.91075
G1 X231.319 Y178.113 E17.93598
G1 X231.048 Y178.54 E17.96121
G1 X230.713 Y178.919 E17.98645
G1 X230.323 Y179.24 E18.01165
G1 X229.887 Y179.496 E18.03687
G1 X229.416 Y179.679 E18.06208
G1 X228.922 Y179.787 E18.08731
G1 X228.26 Y179.824 E18.12039
G1 X42.166 Y179.825 E27.40465
G1 X41.468 Y179.816 E27.43948
G1 X40.964 Y179.769 E27.46473
G1 X40.474 Y179.644 E27.48996
G1 X40.01 Y179.443 E27.51519
G1 X39.584 Y179.172 E27.54038
G1 X39.205 Y178.837 E27.56562
G1 X38.884 Y178.446 E27.59085
G1 X38.629 Y178.01 E27.61605
G1 X38.445 Y177.539 E27.64128
G1 X38.338 Y177.045 E27.6665
G1 X38.301 Y176.592 E27.68917
G1 X38.3 Y15.256 E35.73826
G1 X38.309 Y14.591 E35.77144
G1 X38.356 Y14.087 E35.79669
G1 X38.482 Y13.598 E35.82189
G1 F1500 E29.32189
;MESH:test_plate_arduino_mega.stl
G0 F3600 X40.835 Y15.049
G0 X41.924 Y15.049
G0 X53.964 Y28.066
G0 X56.238 Y29.012
G0 X56.103 Y28.73
;TYPE:WALL-INNER
G1 F1500 E35.82189
G1 F1800 X55.669 Y28.832 E35.84413
G1 X55.046 Y28.821 E35.87522
G1 X54.576 Y28.676 E35.89976
G1 X54.185 Y28.458 E35.92209
G1 X53.841 Y28.158 E35.94486
G1 X53.48 Y27.583 E35.97873
G1 X53.347 Y27.167 E36.00052
G1 X53.31 Y26.692 E36.02429
G1 X53.347 Y26.33 E36.04245
G1 X53.472 Y25.927 E36.0635
G1 X53.688 Y25.542 E36.08552
G1 X54.08 Y25.118 E36.11433
G1 X54.4 Y24.906 E36.13348
G1 X54.954 Y24.702 E36.16293
G1 X55.548 Y24.656 E36.19266
G1 X56.172 Y24.785 E36.22445
G1 X56.702 Y25.097 E36.25513
G1 X57.022 Y25.404 E36.27725
G1 X57.257 Y25.758 E36.29845
G1 X57.473 Y26.341 E36.32947
G1 X57.488 Y26.999 E36.36231
G1 X57.359 Y27.519 E36.38904
G1 X57.14 Y27.931 E36.41231
G1 X56.867 Y28.259 E36.43361
G1 X56.562 Y28.502 E36.45306
G1 X56.103 Y28.73 E36.47863
G0 F3600 X56.238 Y29.012
G0 X108.853 Y29.107
G0 X109.482 Y28.732
G1 F1800 X108.844 Y28.854 E36.51104
G1 X108.216 Y28.775 E36.54261
G1 X107.55 Y28.452 E36.57954
G1 X107.115 Y28.009 E36.61052
G1 X106.861 Y27.581 E36.63535
G1 X106.726 Y27.138 E36.65845
G1 X106.693 Y26.7 E36.68037
G1 X106.783 Y26.127 E36.7093
G1 X106.943 Y25.743 E36.73006
G1 X107.189 Y25.387 E36.75165
G1 X107.629 Y24.997 E36.78098
G1 X107.997 Y24.805 E36.80169
G1 X108.464 Y24.675 E36.82587
G1 X108.752 Y24.648 E36.84031
G1 X109.189 Y24.691 E36.86221
G1 X109.743 Y24.874 E36.89132
G1 X110.116 Y25.118 E36.91356
G1 X110.52 Y25.553 E36.94318
G1 X110.731 Y25.934 E36.9649
G1 X110.858 Y26.392 E36.98862
G1 X110.888 Y26.777 E37.00788
G1 X110.855 Y27.13 E37.02557
G1 X110.719 Y27.59 E37.0495
G1 X110.541 Y27.911 E37.06781
G1 X110.215 Y28.291 E37.09279
G1 X109.819 Y28.58 E37.11725
G1 X109.482 Y28.732 E37.13569
G0 F3600 X109.61 Y29.017
G0 X131.987 Y38.323
G0 X133.189 Y38.336
G0 X133.138 Y38.029
G1 F1800 X132.573 Y38.12 E37.16425
G1 X132.055 Y38.075 E37.19019
G1 X131.617 Y37.932 E37.21317
G1 X131.292 Y37.741 E37.23198
G1 X130.97 Y37.464 E37.25317
G1 X130.723 Y37.148 E37.27318
G1 X130.509 Y36.701 E37.29791
G1 X130.393 Y36.03 E37.33188
G1 X130.473 Y35.469 E37.36015
G1 X130.64 Y35.049 E37.3827
G1 X130.919 Y34.639 E37.40744
G1 X131.257 Y34.328 E37.43036
G1 X131.656 Y34.094 E37.45343
G1 X132.269 Y33.932 E37.48507
G1 X132.949 Y33.966 E37.51903
G1 X133.396 Y34.127 E37.54274
G1 X133.849 Y34.417 E37.56957
G1 X134.186 Y34.766 E37.59378
G1 X134.465 Y35.283 E37.62309
G1 X134.596 Y35.851 E37.65217
G1 X134.549 Y36.461 E37.68269
G1 X134.334 Y37.053 E37.71411
G1 X133.913 Y37.583 E37.74788
G1 X133.571 Y37.831 E37.76896
G1 X133.138 Y38.029 E37.79271
G0 F3600 X133.189 Y38.336
G0 X176.586 Y32.036
G0 X176.535 Y31.73
G1 F1800 X175.972 Y31.82 E37.82116
G1 X175.434 Y31.77 E37.84811
G1 X175.014 Y31.631 E37.87019
G1 X174.7 Y31.446 E37.88837
G1 X174.367 Y31.161 E37.91023
G1 X174.117 Y30.839 E37.93057
G1 X173.909 Y30.401 E37.95476
G1 X173.801 Y29.769 E37.98675
G1 X173.872 Y29.173 E38.0167
G1 X174.044 Y28.74 E38.03994
G1 X174.348 Y28.303 E38.0665
G1 X174.673 Y28.016 E38.08813
G1 X175.046 Y27.803 E38.10956
G1 X175.657 Y27.631 E38.14123
G1 X176.345 Y27.67 E38.17561
G1 X176.775 Y27.816 E38.19826
G1 X177.284 Y28.138 E38.22831
G1 X177.599 Y28.491 E38.25192
G1 X177.875 Y28.995 E38.28058
G1 X177.997 Y29.551 E38.30898
G1 X177.948 Y30.165 E38.33971
G1 X177.735 Y30.752 E38.37087
G1 X177.311 Y31.285 E38.40485
G1 X176.965 Y31.535 E38.42614
G1 X176.535 Y31.73 E38.4497
G0 F3600 X176.586 Y32.036
G0 X183.349 Y112.012
G0 X183.06 Y113.372
G0 X181.819 Y114.492
G0 X181.69 Y114.208
G1 F1800 X181.108 Y114.317 E38.47924
G1 X180.549 Y114.273 E38.50721
G1 X180.152 Y114.148 E38.52798
G1 X179.793 Y113.942 E38.54863
G1 X179.478 Y113.672 E38.56933
G1 X179.208 Y113.325 E38.59126
G1 X179.01 Y112.923 E38.61362
G1 X178.894 Y112.234 E38.64848
G1 X178.972 Y111.672 E38.67678
G1 X179.147 Y111.235 E38.70027
G1 X179.427 Y110.828 E38.72491
G1 X179.786 Y110.507 E38.74894
G1 X180.161 Y110.293 E38.77048
G1 X180.756 Y110.132 E38.80123
G1 X181.415 Y110.165 E38.83415
G1 X181.878 Y110.311 E38.85837
G1 X182.408 Y110.666 E38.8902
G1 X182.692 Y110.975 E38.91114
G1 X182.975 Y111.497 E38.94076
G1 X183.092 Y112.041 E38.96852
G1 X183.044 Y112.732 E39.00308
G1 X182.816 Y113.271 E39.03228
G1 X182.441 Y113.748 E39.06255
G1 X182.023 Y114.058 E39.08851
G1 X181.69 Y114.208 E39.10673
G0 F3600 X181.819 Y114.492
G0 X133.173 Y113.288
G0 X133.121 Y112.978
G1 F1800 X132.572 Y113.072 E39.13452
G1 X132.06 Y113.027 E39.16016
G1 X131.642 Y112.892 E39.18208
G1 X131.252 Y112.664 E39.20462
G1 X130.966 Y112.412 E39.22363
G1 X130.704 Y112.071 E39.24509
G1 X130.51 Y111.67 E39.26731
G1 X130.394 Y110.989 E39.30178
G1 X130.459 Y110.468 E39.32797
G1 X130.656 Y109.965 E39.35492
G1 X130.967 Y109.535 E39.3814
G1 X131.249 Y109.286 E39.40017
G1 X131.699 Y109.031 E39.42597
G1 X132.247 Y108.88 E39.45433
G1 X132.915 Y108.913 E39.4877
G1 X133.401 Y109.077 E39.51329
G1 X133.881 Y109.39 E39.54187
G1 X134.183 Y109.716 E39.56405
G1 X134.475 Y110.249 E39.59437
G1 X134.592 Y110.79 E39.62198
G1 X134.549 Y111.41 E39.65299
G1 X134.333 Y112 E39.68433
G1 X133.914 Y112.531 E39.71808
G1 X133.578 Y112.774 E39.73877
G1 X133.121 Y112.978 E39.76373
G0 F3600 X133.173 Y113.288
G0 X107.903 Y113.024
G0 X107.774 Y112.738
G1 F1800 X107.199 Y112.846 E39.79292
G1 X106.654 Y112.798 E39.82022
G1 X106.254 Y112.673 E39.84113
G1 X105.886 Y112.465 E39.86222
G1 X105.573 Y112.191 E39.88297
G1 X105.314 Y111.863 E39.90382
G1 X105.11 Y111.449 E39.92685
G1 X104.994 Y110.753 E39.96205
G1 X105.067 Y110.212 E39.98928
G1 X105.239 Y109.775 E40.01271
G1 X105.53 Y109.349 E40.03845
G1 X105.867 Y109.049 E40.06096
G1 X106.249 Y108.82 E40.08318
G1 X106.858 Y108.655 E40.11466
G1 X107.566 Y108.698 E40.15005
G1 X107.974 Y108.839 E40.17158
G1 X108.452 Y109.143 E40.19985
G1 X108.79 Y109.491 E40.22405
G1 X109.084 Y110.065 E40.25622
G1 X109.196 Y110.582 E40.28262
G1 X109.141 Y111.24 E40.31556
G1 X108.942 Y111.763 E40.34348
G1 X108.535 Y112.278 E40.37622
G1 X108.169 Y112.556 E40.39915
G1 X107.774 Y112.738 E40.42085
G0 F3600 X107.903 Y113.024
G0 X57.913 Y113.019
G0 X57.784 Y112.734
G1 F1800 X57.163 Y112.854 E40.45241
G1 X56.661 Y112.8 E40.4776
G1 X56.257 Y112.674 E40.49871
G1 X55.873 Y112.455 E40.52076
G1 X55.562 Y112.179 E40.54151
G1 X55.306 Y111.849 E40.56235
G1 X55.108 Y111.438 E40.58511
G1 X55.001 Y110.788 E40.61797
G1 X55.062 Y110.231 E40.64593
G1 X55.226 Y109.806 E40.66865
G1 X55.536 Y109.341 E40.69653
G1 X55.874 Y109.044 E40.71898
G1 X56.21 Y108.843 E40.73852
G1 X56.829 Y108.658 E40.77075
G1 X57.553 Y108.689 E40.8069
G1 X58.013 Y108.86 E40.83139
G1 X58.48 Y109.16 E40.85908
G1 X58.777 Y109.484 E40.88101
G1 X59.051 Y109.978 E40.90919
G1 X59.192 Y110.569 E40.9395
G1 X59.149 Y111.189 E40.97051
G1 X58.927 Y111.778 E41.00191
G1 X58.534 Y112.279 E41.03368
G1 X58.168 Y112.556 E41.05658
G1 X57.784 Y112.734 E41.07769
G0 F3600 X57.913 Y113.019
G0 X227.62 Y175.745
G0 X227.9 Y176.024
G1 F1800 X227.9 Y15.224 E49.10004
G1 X42.101 Y15.225 E58.36959
G1 X42.1 Y176.024 E66.39188
G1 X227.9 Y176.024 E75.66148
G0 F3600 X228.3 Y176.424
;TYPE:WALL-OUTER
G1 F1800 X228.3 Y14.824 E83.72374
G1 X41.701 Y14.825 E93.0332
G1 X41.7 Y176.424 E101.09541
G1 X228.3 Y176.424 E110.40492
G0 F3600 X228.3 Y176.224
G0 X228.02 Y176.145
G0 X181.582 Y114.148
G0 X181.531 Y113.84
G1 F1800 X181.02 Y113.92 E110.43072
G1 X180.611 Y113.878 E110.45124
G1 X180.295 Y113.774 E110.46783
G1 X180.013 Y113.608 E110.48416
G1 X179.75 Y113.378 E110.50159
G1 X179.538 Y113.097 E110.51915
G1 X179.396 Y112.799 E110.53562
G1 X179.301 Y112.248 E110.56352
G1 X179.347 Y111.816 E110.58519
G1 X179.507 Y111.409 E110.60701
G1 X179.739 Y111.078 E110.62717
G1 X180.023 Y110.83 E110.64598
G1 X180.319 Y110.665 E110.66289
G1 X180.786 Y110.537 E110.68705
G1 X181.384 Y110.566 E110.71692
G1 X181.707 Y110.679 E110.73399
G1 X182.114 Y110.94 E110.75811
G1 X182.359 Y111.202 E110.77601
G1 X182.593 Y111.63 E110.80034
G1 X182.692 Y112.057 E110.82221
G1 X182.648 Y112.635 E110.85113
G1 X182.484 Y113.048 E110.8733
G1 X182.13 Y113.494 E110.90171
G1 X181.849 Y113.698 E110.91903
G1 X181.531 Y113.84 E110.93641
G0 F3600 X181.334 Y113.87
G0 X181.386 Y114.181
G0 X133.079 Y112.898
G0 X133.027 Y112.589
G1 F1800 X132.52 Y112.672 E110.96204
G1 X132.124 Y112.633 E110.98189
G1 X131.779 Y112.514 E111.0001
G1 X131.508 Y112.356 E111.01575
G1 X131.255 Y112.135 E111.03251
G1 X131.045 Y111.861 E111.04973
G1 X130.897 Y111.549 E111.06696
G1 X130.8 Y110.987 E111.09541
G1 X130.85 Y110.552 E111.11726
G1 X131.011 Y110.15 E111.13886
G1 X131.237 Y109.833 E111.15829
G1 X131.505 Y109.594 E111.1762
G1 X131.804 Y109.418 E111.19351
G1 X132.279 Y109.286 E111.21811
G1 X132.897 Y109.318 E111.24898
G1 X133.221 Y109.435 E111.26617
G1 X133.61 Y109.685 E111.28924
G1 X133.861 Y109.953 E111.30756
G1 X134.099 Y110.397 E111.33269
G1 X134.193 Y110.826 E111.3546
G1 X134.145 Y111.4 E111.38334
G1 X133.981 Y111.8 E111.4049
G1 X133.64 Y112.232 E111.43236
G1 X133.335 Y112.453 E111.45115
G1 X133.027 Y112.589 E111.46795
G0 F3600 X132.83 Y112.621
G0 X132.882 Y112.932
G0 X107.663 Y112.676
G0 X107.612 Y112.369
G1 F1800 X107.14 Y112.448 E111.49183
G1 X106.712 Y112.402 E111.5133
G1 X106.379 Y112.29 E111.53083
G1 X106.096 Y112.123 E111.54722
G1 X105.842 Y111.891 E111.56439
G1 X105.635 Y111.619 E111.58144
G1 X105.501 Y111.338 E111.59697
G1 X105.4 Y110.759 E111.62629
G1 X105.451 Y110.324 E111.64815
G1 X105.62 Y109.912 E111.67036
G1 X105.849 Y109.591 E111.69003
G1 X106.111 Y109.366 E111.70726
G1 X106.39 Y109.2 E111.72346
G1 X106.879 Y109.062 E111.74881
G1 X107.481 Y109.089 E111.77887
G1 X107.8 Y109.199 E111.79571
G1 X108.222 Y109.471 E111.82076
G1 X108.452 Y109.717 E111.83756
G1 X108.69 Y110.151 E111.86225
G1 X108.792 Y110.585 E111.8845
G1 X108.749 Y111.16 E111.91326
G1 X108.586 Y111.569 E111.93523
G1 X108.24 Y112.008 E111.96311
G1 X107.93 Y112.231 E111.98217
G1 X107.612 Y112.369 E111.99946
G0 F3600 X107.415 Y112.401
G0 X107.467 Y112.71
G0 X57.766 Y112.647
G0 X57.637 Y112.362
G1 F1800 X57.158 Y112.448 E112.02374
G1 X56.729 Y112.406 E112.04525
G1 X56.392 Y112.297 E112.06292
G1 X56.09 Y112.118 E112.08043
G1 X55.866 Y111.918 E112.09541
G1 X55.646 Y111.638 E112.11318
G1 X55.5 Y111.334 E112.13
G1 X55.402 Y110.778 E112.15817
G1 X55.45 Y110.33 E112.18065
G1 X55.608 Y109.932 E112.20201
G1 X55.842 Y109.599 E112.22232
G1 X56.107 Y109.369 E112.23982
G1 X56.402 Y109.195 E112.25691
G1 X56.869 Y109.064 E112.28111
G1 X57.46 Y109.085 E112.31061
G1 X57.799 Y109.199 E112.32846
G1 X58.224 Y109.472 E112.35366
G1 X58.467 Y109.738 E112.37163
G1 X58.691 Y110.155 E112.39525
G1 X58.792 Y110.583 E112.41719
G1 X58.745 Y111.176 E112.44686
G1 X58.591 Y111.56 E112.46751
G1 X58.24 Y112.008 E112.4959
G1 X57.941 Y112.226 E112.51436
G1 X57.637 Y112.362 E112.53098
G0 F3600 X57.441 Y112.397
G0 X57.492 Y112.705
G0 X58.406 Y112.202
G0 X58.996 Y111.221
G0 X56.083 Y28.643
G0 X55.948 Y28.361
G1 F1800 X55.618 Y28.435 E112.54785
G1 X55.099 Y28.42 E112.57375
G1 X54.72 Y28.303 E112.59354
G1 X54.416 Y28.132 E112.61094
G1 X54.15 Y27.896 E112.62868
G1 X53.842 Y27.413 E112.65726
G1 X53.739 Y27.088 E112.67427
G1 X53.708 Y26.729 E112.69225
G1 X53.739 Y26.408 E112.70834
G1 X53.832 Y26.104 E112.7242
G1 X54.008 Y25.783 E112.74246
G1 X54.338 Y25.423 E112.76683
G1 X54.637 Y25.231 E112.78455
G1 X55.128 Y25.072 E112.8103
G1 X55.479 Y25.05 E112.82785
G1 X56.024 Y25.165 E112.85564
G1 X56.461 Y25.416 E112.88078
G1 X56.727 Y25.677 E112.89937
G1 X56.899 Y25.938 E112.91497
G1 X57.076 Y26.432 E112.94115
G1 X57.084 Y27.016 E112.97029
G1 X56.97 Y27.417 E112.99108
G1 X56.81 Y27.705 E113.00752
G1 X56.591 Y27.969 E113.02463
G1 X56.313 Y28.186 E113.04223
G1 X55.948 Y28.361 E113.06242
G0 F3600 X55.753 Y28.404
G0 X55.82 Y28.71
G0 X109.372 Y28.673
G0 X109.32 Y28.365
G1 F1800 X108.808 Y28.448 E113.0883
G1 X108.306 Y28.377 E113.11359
G1 X107.804 Y28.135 E113.1414
G1 X107.395 Y27.722 E113.1704
G1 X107.222 Y27.408 E113.18828
G1 X107.126 Y27.099 E113.20443
G1 X107.092 Y26.732 E113.22281
G1 X107.16 Y26.263 E113.24646
G1 X107.295 Y25.933 E113.26424
G1 X107.489 Y25.651 E113.28132
G1 X107.843 Y25.337 E113.30493
G1 X108.075 Y25.204 E113.31827
G1 X108.469 Y25.08 E113.33888
G1 X108.752 Y25.048 E113.35309
G1 X109.169 Y25.093 E113.37401
G1 X109.565 Y25.232 E113.39495
G1 X109.858 Y25.423 E113.4124
G1 X110.195 Y25.787 E113.43715
G1 X110.361 Y26.087 E113.45425
G1 X110.457 Y26.41 E113.47106
G1 X110.488 Y26.767 E113.48894
G1 X110.459 Y27.076 E113.50443
G1 X110.365 Y27.4 E113.52126
G1 X110.196 Y27.708 E113.53878
G1 X109.902 Y28.035 E113.56072
G1 X109.639 Y28.223 E113.57685
G1 X109.32 Y28.365 E113.59427
G0 F3600 X109.123 Y28.396
G0 X109.175 Y28.707
G0 X132.071 Y37.929
G0 X133.065 Y37.951
G0 X133.014 Y37.644
G1 F1800 X132.52 Y37.72 E113.61921
G1 X132.102 Y37.675 E113.64018
G1 X131.781 Y37.567 E113.65708
G1 X131.496 Y37.394 E113.67371
G1 X131.248 Y37.176 E113.69019
G1 X131.038 Y36.897 E113.70761
G1 X130.901 Y36.613 E113.72334
G1 X130.8 Y36.037 E113.75251
G1 X130.853 Y35.593 E113.77482
G1 X131.005 Y35.214 E113.7952
G1 X131.248 Y34.868 E113.81629
G1 X131.501 Y34.645 E113.83311
G1 X131.81 Y34.468 E113.85088
G1 X132.273 Y34.339 E113.87486
G1 X132.884 Y34.366 E113.90537
G1 X133.193 Y34.472 E113.92167
G1 X133.631 Y34.755 E113.94769
G1 X133.852 Y34.993 E113.96389
G1 X134.094 Y35.433 E113.98894
G1 X134.192 Y35.86 E114.0108
G1 X134.15 Y36.425 E114.03907
G1 X133.977 Y36.859 E114.06237
G1 X133.643 Y37.281 E114.08922
G1 X133.33 Y37.507 E114.10849
G1 X133.014 Y37.644 E114.12567
G0 F3600 X132.817 Y37.674
G0 X132.869 Y37.984
G0 X176.472 Y31.649
G0 X176.421 Y31.343
G1 F1800 X175.92 Y31.42 E114.15096
G1 X175.502 Y31.375 E114.17193
G1 X175.187 Y31.27 E114.1885
G1 X174.9 Y31.098 E114.20519
G1 X174.652 Y30.88 E114.22166
G1 X174.449 Y30.616 E114.23828
G1 X174.296 Y30.299 E114.25584
G1 X174.2 Y29.737 E114.28428
G1 X174.249 Y29.307 E114.30588
G1 X174.404 Y28.916 E114.32686
G1 X174.646 Y28.57 E114.34792
G1 X174.907 Y28.341 E114.36525
G1 X175.202 Y28.171 E114.38223
G1 X175.678 Y28.038 E114.40689
G1 X176.27 Y28.063 E114.43645
G1 X176.621 Y28.187 E114.45502
G1 X177.039 Y28.463 E114.48001
G1 X177.264 Y28.71 E114.49668
G1 X177.491 Y29.125 E114.52028
G1 X177.592 Y29.557 E114.54242
G1 X177.55 Y30.125 E114.57083
