;FLAVOR:Marlin
;TIME:1123
;Filament used: 2.37743m
;Layer height: 0.2
;MINX:47.8
;MINY:40.312
;MINZ:0.3
;MAXX:127.2
;MAXY:132.7
;MAXZ:2.9
;TARGET_MACHINE.NAME:Unknown
;Generated with Cura_SteamEngine 5.10.0
M104 S200
M105
M109 S200
G28 ;Home
G1 Z15.0 F6000 ;Move the platform down 15mm
;Prime the extruder
G92 E0
G1 F200 E3
G92 E0
M82 ;absolute extrusion mode
G92 E0
G92 E0
G1 F1500 E-6.5
;LAYER_COUNT:14
;LAYER:0
M107
G0 F3600 X48.887 Y46.091 Z0.3
;TYPE:SKIRT
G1 F1500 E0
G1 F4200 X53.287 Y41.688 E0.31055
G1 X53.77 Y41.218 E0.34417
G1 X54.159 Y40.895 E0.3694
G1 X54.594 Y40.637 E0.39463
G1 X55.065 Y40.451 E0.41989
G1 X55.558 Y40.342 E0.44508
G1 X56.063 Y40.312 E0.47032
G1 X56.694 Y40.373 E0.50195
G1 X58.528 Y40.957 E0.59798
G1 X61.205 Y41.754 E0.73733
G1 X63.83 Y42.456 E0.87289
G1 X66.532 Y43.096 E1.01142
G1 X69.197 Y43.649 E1.14721
G1 X71.865 Y44.124 E1.28241
G1 X74.596 Y44.531 E1.42017
G1 X77.283 Y44.854 E1.55519
G1 X80.038 Y45.107 E1.69321
G1 X82.78 Y45.28 E1.83028
G1 X85.498 Y45.375 E1.96597
G1 X88.251 Y45.393 E2.10332
G1 X90.965 Y45.334 E2.23875
G1 X93.719 Y45.196 E2.37632
G1 X96.425 Y44.984 E2.51174
G1 X99.169 Y44.69 E2.64942
G1 X101.887 Y44.322 E2.78626
G1 X104.549 Y43.883 E2.92086
G1 X107.27 Y43.356 E3.05914
G1 X109.925 Y42.765 E3.19484
G1 X112.602 Y42.086 E3.33262
G1 X115.218 Y41.344 E3.46828
G1 X118.009 Y40.468 E3.61422
G1 X118.501 Y40.352 E3.63944
G1 X119.005 Y40.314 E3.66466
G1 X119.509 Y40.356 E3.68989
G1 X120 Y40.477 E3.71512
G1 X120.465 Y40.674 E3.74032
G1 X121.001 Y41.009 E3.77185
G1 X121.898 Y41.872 E3.83395
G1 X125.812 Y45.787 E4.11014
G1 X126.284 Y46.272 E4.1439
G1 X126.607 Y46.661 E4.16913
G1 X126.865 Y47.096 E4.19436
G1 X127.051 Y47.566 E4.21958
G1 X127.187 Y48.181 E4.251
G1 X127.2 Y49.01 E4.29237
G1 X127.2 Y128.808 E8.2735
G1 X127.19 Y129.535 E8.30978
G1 X127.143 Y130.038 E8.33498
G1 X127.017 Y130.528 E8.36022
G1 X126.816 Y130.992 E8.38545
G1 X126.544 Y131.418 E8.41067
G1 X126.209 Y131.797 E8.4359
G1 X125.818 Y132.117 E8.46111
G1 X125.382 Y132.372 E8.48631
G1 X124.911 Y132.556 E8.51154
G1 X124.416 Y132.662 E8.53679
G1 X123.972 Y132.699 E8.55902
G1 X116.437 Y132.7 E8.93494
G1 X115.722 Y132.688 E8.97062
G1 X115.129 Y132.63 E9.00035
G1 X113.152 Y132.073 E9.10282
G1 X110.501 Y131.385 E9.23946
G1 X107.804 Y130.766 E9.37751
G1 X105.118 Y130.228 E9.51418
G1 X102.449 Y129.773 E9.64926
G1 X99.744 Y129.388 E9.78557
G1 X97.02 Y129.081 E9.92233
G1 X94.266 Y128.848 E10.06022
G1 X91.556 Y128.696 E10.19563
G1 X88.803 Y128.619 E10.33304
G1 X86.086 Y128.621 E10.46859
G1 X83.335 Y128.7 E10.60589
G1 X80.585 Y128.858 E10.74332
G1 X77.871 Y129.09 E10.87921
G1 X75.175 Y129.397 E11.01459
G1 X72.457 Y129.785 E11.15156
G1 X69.721 Y130.256 E11.29007
G1 X67.061 Y130.79 E11.42543
G1 X64.431 Y131.396 E11.56007
G1 X61.755 Y132.095 E11.69806
G1 X60.083 Y132.569 E11.78476
G1 X59.504 Y132.685 E11.81422
G1 X58.654 Y132.7 E11.85664
G1 X51.666 Y132.7 E12.20527
G1 X50.968 Y132.691 E12.2401
G1 X50.464 Y132.644 E12.26535
G1 X49.974 Y132.519 E12.29058
G1 X49.51 Y132.318 E12.31581
G1 X49.084 Y132.047 E12.341
G1 X48.705 Y131.712 E12.36623
G1 X48.384 Y131.321 E12.39147
G1 X48.129 Y130.885 E12.41667
G1 X47.945 Y130.414 E12.4419
G1 X47.838 Y129.92 E12.46712
G1 X47.801 Y129.467 E12.48979
G1 X47.8 Y49.161 E16.49627
G1 X47.81 Y48.459 E16.5313
G1 X47.857 Y47.956 E16.5565
G1 X47.983 Y47.466 E16.58175
G1 X48.185 Y47.003 E16.60695
G1 X48.456 Y46.576 E16.63218
G1 X48.887 Y46.091 E16.66455
G1 F1500 E10.16455
;MESH:test_plate.stl
G0 F3600 X50.655 Y47.905
G0 X51.428 Y48.677
G0 X55.557 Y93.796
G0 X56.103 Y94.023
G0 X84.806 Y95.96
G0 X85.311 Y96.019
G0 X85.967 Y96.305
G0 X86.37 Y96.618
G0 X86.803 Y97.173
G0 X87.872 Y100.302
G0 X87.555 Y100.618
;TYPE:WALL-INNER
G1 F1500 E16.66455
G1 F4200 X87.843 Y100.709 E16.67962
G1 X116.033 Y128.9 E18.66861
G1 X123.4 Y128.9 E19.03615
G1 X123.4 Y48.749 E23.0349
G1 X119.6 Y44.952 E23.30291
G1 X119.6 Y93.493 E25.72463
G1 X119.483 Y93.777 E25.73995
G1 X119.365 Y93.897 E25.74835
G1 X119.07 Y94.031 E25.76451
G1 X118.883 Y94.042 E25.77386
G1 X118.573 Y93.923 E25.79042
G1 X102.247 Y77.6 E26.9422
G1 X72.749 Y77.6 E28.41387
G1 X56.43 Y93.92 E29.56529
G1 X56.145 Y94.038 E29.58068
G1 X55.943 Y94.034 E29.59076
G1 X55.635 Y93.897 E29.60758
G1 X55.431 Y93.613 E29.62503
G1 X55.4 Y93.42 E29.63478
G1 X55.4 Y44.95 E32.05296
G1 X51.6 Y48.749 E32.32103
G1 X51.6 Y128.9 E36.31978
G1 X58.963 Y128.9 E36.68712
G1 X87.137 Y100.729 E38.67485
G1 X87.313 Y100.645 E38.68457
G1 X87.555 Y100.618 E38.69672
G0 F3600 X87.872 Y100.302
G0 X87.5 Y100.03
G0 X60.344 Y126.741
G0 X59.049 Y127.371
G0 X59.032 Y127.063
G1 F4200 X58.432 Y127.092 E38.72669
G1 X57.812 Y126.988 E38.75806
G1 X57.247 Y126.744 E38.78876
G1 X56.913 Y126.51 E38.80911
G1 X56.556 Y126.153 E38.83429
G1 X56.262 Y125.713 E38.8607
G1 X56.07 Y125.249 E38.88575
G1 X55.976 Y124.832 E38.90707
G1 X55.962 Y124.265 E38.93537
G1 X56.138 Y123.534 E38.97288
G1 X56.352 Y123.124 E38.99596
G1 X56.643 Y122.739 E39.02003
G1 X82.98 Y96.398 E40.87839
G1 X83.646 Y95.997 E40.91718
G1 X84.213 Y95.826 E40.94672
G1 X84.74 Y95.789 E40.97308
G1 X85.37 Y95.875 E41.0048
G1 X86.028 Y96.165 E41.04068
G1 X86.476 Y96.507 E41.0688
G1 X86.919 Y97.081 E41.10497
G1 X87.138 Y97.567 E41.13157
G1 X87.25 Y98.067 E41.15713
G1 X87.268 Y98.475 E41.1775
G1 X87.202 Y98.979 E41.20286
G1 X87.046 Y99.433 E41.22681
G1 X86.721 Y100.013 E41.25998
G1 X60.185 Y126.549 E43.13224
G1 X59.598 Y126.879 E43.16584
G1 X59.032 Y127.063 E43.19553
G0 F3600 X59.049 Y127.371
G0 X60.253 Y127.28
G0 X87.5 Y100.03
G0 X110.925 Y123.451
G0 X119.81 Y122.779
G0 X119.744 Y122.475
G1 F4200 X119.228 Y122.572 E43.22172
G1 X118.516 Y122.549 E43.25726
G1 X117.851 Y122.318 E43.29239
G1 X117.371 Y122.033 E43.32024
G1 X91.926 Y96.586 E45.11559
G1 X91.681 Y96.27 E45.13554
G1 X91.462 Y95.854 E45.15899
G1 X91.306 Y95.334 E45.18608
G1 X91.269 Y94.689 E45.21831
G1 X91.354 Y94.168 E45.24465
G1 X91.53 Y93.696 E45.26978
G1 X91.846 Y93.208 E45.29878
G1 X92.165 Y92.88 E45.32161
G1 X92.589 Y92.585 E45.34738
G1 X93.057 Y92.377 E45.37293
G1 X93.561 Y92.268 E45.39866
G1 X94.119 Y92.262 E45.4265
G1 X94.817 Y92.431 E45.46233
G1 X95.165 Y92.599 E45.4816
G1 X95.589 Y92.91 E45.50784
G1 X120.941 Y118.251 E47.29617
G1 X121.277 Y118.748 E47.3261
G1 X121.564 Y119.494 E47.36598
G1 X121.592 Y120.112 E47.39684
G1 X121.524 Y120.608 E47.42182
G1 X121.353 Y121.086 E47.44715
G1 X121.09 Y121.53 E47.47289
G1 X120.702 Y121.959 E47.50175
G1 X120.22 Y122.277 E47.53056
G1 X119.744 Y122.475 E47.55628
G0 F3600 X119.659 Y122.084
;TYPE:WALL-OUTER
G1 F4200 X119.263 Y122.169 E47.57649
G1 X118.591 Y122.151 E47.61002
G1 X118.054 Y121.973 E47.63825
G1 X117.606 Y121.702 E47.66437
G1 X92.228 Y96.324 E49.45493
G1 X92.031 Y96.075 E49.47077
G1 X91.828 Y95.693 E49.49235
G1 X91.699 Y95.258 E49.51499
G1 X91.668 Y94.712 E49.54227
G1 X91.739 Y94.277 E49.56426
G1 X91.888 Y93.874 E49.58569
G1 X92.124 Y93.497 E49.60788
G1 X92.441 Y93.171 E49.63057
G1 X92.785 Y92.933 E49.65144
G1 X93.181 Y92.757 E49.67306
G1 X93.608 Y92.665 E49.69485
G1 X94.042 Y92.656 E49.71651
G1 X94.681 Y92.807 E49.74927
G1 X94.975 Y92.951 E49.7656
G1 X95.327 Y93.212 E49.78746
G1 X120.681 Y118.561 E51.57615
G1 X120.881 Y118.849 E51.59364
G1 X121.166 Y119.577 E51.63264
G1 X121.192 Y120.112 E51.65937
G1 X121.13 Y120.539 E51.68089
G1 X120.962 Y120.978 E51.70434
G1 X120.726 Y121.35 E51.72632
G1 X120.454 Y121.638 E51.74609
G1 X120.058 Y121.911 E51.77008
G1 X119.659 Y122.084 E51.79178
G0 F3600 X119.464 Y122.125
G0 X119.53 Y122.431
G0 X120.203 Y122.123
G0 X120.6 Y121.846
G0 X120.939 Y121.487
G0 X121.197 Y121.074
G0 X121.368 Y120.621
G0 X119.51 Y93.455
G0 X119.198 Y93.455
G1 F4200 X119.122 Y93.579 E51.79904
G1 X118.923 Y93.644 E51.80948
G1 X118.815 Y93.598 E51.81534
G1 X102.413 Y77.2 E52.97244
G1 X72.583 Y77.2 E54.46067
G1 X56.187 Y93.596 E55.6175
G1 X56.018 Y93.641 E55.62622
G1 X55.878 Y93.579 E55.63386
G1 X55.8 Y93.471 E55.64051
G1 X55.8 Y43.984 E58.10942
G1 X51.2 Y48.583 E58.43394
G1 X51.2 Y129.3 E62.46093
G1 X59.129 Y129.3 E62.85651
G1 X87.391 Y101.047 E64.85023
G1 X87.519 Y101.016 E64.8568
G1 X87.614 Y101.047 E64.86178
G1 X115.867 Y129.3 E66.85519
G1 X123.8 Y129.3 E67.25097
G1 X123.8 Y48.583 E71.27795
G1 X119.2 Y43.987 E71.60237
G1 X119.198 Y93.455 E74.07034
G0 F3600 X119.122 Y93.579
G0 X119.07 Y93.596
G0 X119.22 Y93.961
G0 X98.055 Y95.583
G0 X95.496 Y93.024
G0 X94.768 Y92.572
G0 X94.082 Y92.409
G0 X93.584 Y92.416
G0 X93.108 Y92.519
G0 X92.661 Y92.716
G0 X92.264 Y92.994
G0 X91.925 Y93.352
G0 X87.5 Y100.596
G0 X68.042 Y120.074
G0 X59.568 Y126.795
G0 X59.474 Y126.499
G1 F4200 X58.982 Y126.659 E74.09615
G1 X58.432 Y126.692 E74.12364
G1 X57.964 Y126.618 E74.14727
G1 X57.504 Y126.43 E74.17207
G1 X57.189 Y126.221 E74.19093
G1 X56.909 Y125.953 E74.21026
G1 X56.628 Y125.553 E74.23465
G1 X56.46 Y125.161 E74.25593
G1 X56.37 Y124.763 E74.27629
G1 X56.369 Y124.285 E74.30013
G1 X56.524 Y123.659 E74.33231
G1 X56.674 Y123.361 E74.34895
G1 X56.926 Y123.022 E74.37003
G1 X83.244 Y96.704 E76.2269
G1 X83.838 Y96.349 E76.26143
G1 X84.26 Y96.224 E76.28339
G1 X84.718 Y96.189 E76.3063
G1 X85.225 Y96.255 E76.33181
G1 X85.827 Y96.515 E76.36452
G1 X86.19 Y96.794 E76.38737
G1 X86.591 Y97.313 E76.42009
G1 X86.768 Y97.725 E76.44246
G1 X86.856 Y98.139 E76.46357
G1 X86.867 Y98.483 E76.48075
G1 X86.812 Y98.892 E76.50133
G1 X86.653 Y99.334 E76.52477
G1 X86.378 Y99.79 E76.55134
G1 X59.958 Y126.21 E78.41541
G1 X59.474 Y126.499 E78.44353
G0 F3600 X59.284 Y126.56
G0 X59.378 Y126.856
G0 X63.99 Y124.109
G0 X87.5 Y100.596
G0 X106.006 Y119.1
G0 X119.976 Y122.795
;TYPE:SKIN
G1 F4200 X120.533 Y122.534 E78.47422
G1 X120.889 Y122.287 E78.49584
G1 X121.312 Y121.863 E78.52572
G1 X121.681 Y121.291 E78.55968
G1 X121.898 Y120.667 E78.59264
G1 X121.971 Y120.136 E78.61938
G1 X121.944 Y119.569 E78.6477
G1 X121.88 Y119.265 E78.6632
G1 X121.586 Y118.487 E78.70469
G1 X121.21 Y117.986 E78.73594
G1 X95.846 Y92.63 E80.52523
G1 X95.343 Y92.263 E80.55629
G1 X94.921 Y92.065 E80.57955
G1 X94.163 Y91.878 E80.6185
G1 X93.505 Y91.89 E80.65133
G1 X92.933 Y92.013 E80.68052
G1 X92.396 Y92.254 E80.70989
G1 X91.921 Y92.588 E80.73886
G1 X91.514 Y93.008 E80.76804
G1 X91.201 Y93.506 E80.79738
G1 X90.975 Y94.09 E80.82862
G1 X90.888 Y94.668 E80.85778
G1 X90.927 Y95.392 E80.89396
G1 X91.105 Y95.999 E80.92552
G1 X91.376 Y96.5 E80.95393
G1 X91.631 Y96.825 E80.97454
G1 X117.145 Y122.34 E82.77473
G1 X117.649 Y122.641 E82.80402
G1 X118.44 Y122.927 E82.84598
G1 X119.343 Y122.95 E82.89104
G1 X119.976 Y122.795 E82.92356
G0 F3600 X118.48 Y122.797
G0 X117.809 Y122.582
G0 X87.999 Y100.371
G1 F4200 X87.629 Y100.245 E82.94306
G1 F4158.4 X87.166 Y100.289 E82.96649
G1 F3943.7 X86.871 Y100.427 E82.9838
G1 F3888.9 X87.013 Y100.269 E82.99524
G1 F4097.6 X87.406 Y99.553 E83.03701
G1 F4200 X87.566 Y99.081 E83.06188
G1 X87.647 Y98.507 E83.0908
G1 X87.628 Y98.03 E83.11461
G1 X87.508 Y97.469 E83.14324
G1 X87.245 Y96.885 E83.17519
G1 X86.758 Y96.26 E83.21472
G1 X86.228 Y95.842 E83.24839
G1 X85.454 Y95.497 E83.29067
G1 X84.754 Y95.405 E83.3259
G1 X84.149 Y95.45 E83.35616
G1 X83.537 Y95.62 E83.38785
G1 X82.772 Y96.072 E83.43218
G1 X56.374 Y122.466 E85.29456
G1 X56.044 Y122.899 E85.32172
G1 X55.79 Y123.379 E85.34882
G1 X55.585 Y124.196 E85.39084
G1 X55.598 Y124.895 E85.42572
G1 X55.696 Y125.332 E85.44806
G1 X55.911 Y125.861 E85.47655
G1 X56.241 Y126.367 E85.50669
G1 X56.642 Y126.774 E85.5352
G1 X57.067 Y127.076 E85.56121
G1 X57.776 Y127.388 E85.59985
G1 X58.405 Y127.471 E85.63151
G1 X59.098 Y127.439 E85.66612
G1 X59.714 Y127.239 E85.69843
G1 F3962.3 X60.396 Y126.892 E85.73889
G1 X59.898 Y127.422 E85.77735
G1 F4200 X58.801 Y128.52 E85.85479
G1 X51.98 Y128.52 E86.19509
G1 X51.98 Y48.907 E90.167
G1 X55.02 Y45.868 E90.38145
G1 X55.022 Y93.448 E92.75523
G1 X55.062 Y93.7 E92.76796
G1 X55.194 Y93.977 E92.78327
G1 X55.38 Y94.18 E92.797
G1 X55.871 Y94.406 E92.82397
G1 X56.342 Y94.38 E92.8475
G1 X56.659 Y94.218 E92.86526
G1 X72.907 Y77.98 E94.01129
G1 X102.085 Y77.98 E95.46699
G1 X118.332 Y94.209 E96.61267
G1 X118.722 Y94.399 E96.63431
G1 X119.033 Y94.418 E96.64986
G1 X119.405 Y94.309 E96.6692
G1 X119.62 Y94.176 E96.68181
G1 X119.809 Y93.961 E96.69609
G1 X119.978 Y93.543 E96.71859
G1 X119.981 Y45.872 E99.0969
G1 X123.02 Y48.907 E99.31118
G1 X123.02 Y128.52 E103.28309
G1 X116.191 Y128.52 E103.62379
G1 X88.158 Y100.486 E105.6017
G1 X87.999 Y100.371 E105.61149
G0 F3600 X87.5 Y100.03
G0 X86.871 Y100.427
G1 F3766.8 X60.396 Y126.892 E107.69387
G0 F3600 X59.214 Y127.267
G0 X52.18 Y127.982
G1 F4200 X52.518 Y128.32 E107.71772
G0 F3600 X53.084 Y128.32
G1 F4200 X52.18 Y127.416 E107.7815
G0 F3600 X52.18 Y126.851
G1 F4200 X53.65 Y128.32 E107.88518
G0 F3600 X54.215 Y128.32
G1 F4200 X52.18 Y126.285 E108.02876
G0 F3600 X52.18 Y125.719
G1 F4200 X54.781 Y128.32 E108.21227
G0 F3600 X55.347 Y128.32
G1 F4200 X52.18 Y125.154 E108.43569
G0 F3600 X52.18 Y124.588
G1 F4200 X55.912 Y128.32 E108.699
G0 F3600 X56.478 Y128.32
G1 F4200 X52.18 Y124.022 E109.00225
G0 F3600 X52.18 Y123.457
G1 F4200 X57.044 Y128.32 E109.34539
G0 F3600 X57.609 Y128.32
G1 F4200 X52.18 Y122.891 E109.72844
G0 F3600 X52.18 Y122.325
G1 F4200 X55.683 Y125.828 E109.97559
G1 X55.753 Y125.898
G0 F3600 X55.416 Y124.995
G1 F4200 X52.18 Y121.76 E110.20388
G0 F3600 X52.18 Y121.194
G1 F4200 X55.386 Y124.399 E110.43004
G0 F3600 X55.453 Y123.901
G1 F4200 X52.18 Y120.628 E110.66097
G0 F3600 X52.18 Y120.062
G1 F4200 X55.564 Y123.446 E110.89973
G0 F3600 X55.736 Y123.052
G1 F4200 X52.18 Y119.497 E111.15059
G0 F3600 X52.18 Y118.931
G1 F4200 X55.95 Y122.701 E111.41658
G0 F3600 X56.194 Y122.379
G1 F4200 X52.18 Y118.365 E111.69979
G0 F3600 X52.18 Y117.8
G1 F4200 X56.47 Y122.089 E112.00244
G0 F3600 X56.752 Y121.806
G1 F4200 X52.18 Y117.234 E112.32502
G0 F3600 X52.18 Y116.668
G1 F4200 X57.035 Y121.523 E112.66756
G0 F3600 X57.318 Y121.241
G1 F4200 X52.18 Y116.103 E113.03008
G0 F3600 X52.18 Y115.537
G1 F4200 X57.601 Y120.958 E113.41256
G0 F3600 X57.884 Y120.675
G1 F4200 X52.18 Y114.971 E113.81501
G0 F3600 X52.18 Y114.406
G1 F4200 X58.167 Y120.392 E114.23739
G0 F3600 X58.449 Y120.109
G1 F4200 X52.18 Y113.84 E114.6797
G0 F3600 X52.18 Y113.274
G1 F4200 X58.732 Y119.826 E115.14198
G0 F3600 X59.015 Y119.543
G1 F4200 X52.18 Y112.709 E115.62419
G0 F3600 X52.18 Y112.143
G1 F4200 X59.298 Y119.261 E116.1264
G0 F3600 X59.581 Y118.978
G1 F4200 X52.18 Y111.577 E116.64858
G0 F3600 X52.18 Y111.012
G1 F4200 X59.864 Y118.695 E117.1907
G0 F3600 X60.147 Y118.412
G1 F4200 X52.18 Y110.446 E117.75277
G0 F3600 X52.18 Y109.88
G1 F4200 X60.429 Y118.129 E118.33479
G0 F3600 X60.712 Y117.846
G1 F4200 X52.18 Y109.314 E118.93677
G0 F3600 X52.18 Y108.749
G1 F4200 X60.995 Y117.564 E119.55871
G0 F3600 X61.278 Y117.281
G1 F4200 X52.18 Y108.183 E120.20062
G0 F3600 X52.18 Y107.617
G1 F4200 X61.561 Y116.998 E120.8625
G0 F3600 X61.844 Y116.715
G1 F4200 X52.18 Y107.052 E121.54432
G0 F3600 X52.18 Y106.486
G1 F4200 X62.126 Y116.432 E122.24606
G0 F3600 X62.409 Y116.149
G1 F4200 X52.18 Y105.92 E122.96777
G0 F3600 X52.18 Y105.355
G1 F4200 X62.692 Y115.867 E123.70945
G0 F3600 X62.975 Y115.584
G1 F4200 X52.18 Y104.789 E124.4711
G0 F3600 X52.18 Y104.223
G1 F4200 X63.258 Y115.301 E125.25271
G0 F3600 X63.541 Y115.018
G1 F4200 X52.18 Y103.658 E126.05425
G0 F3600 X52.18 Y103.092
G1 F4200 X63.823 Y114.735 E126.87573
G0 F3600 X64.106 Y114.452
G1 F4200 X52.18 Y102.526 E127.71717
G0 F3600 X52.18 Y101.961
G1 F4200 X64.389 Y114.169 E128.57855
G0 F3600 X64.672 Y113.887
G1 F4200 X52.18 Y101.395 E129.45993
G0 F3600 X52.18 Y100.829
G1 F4200 X64.955 Y113.604 E130.36127
G0 F3600 X65.238 Y113.321
G1 F4200 X52.18 Y100.263 E131.28258
G0 F3600 X52.18 Y99.698
G1 F4200 X65.521 Y113.038 E132.22383
G0 F3600 X65.803 Y112.755
G1 F4200 X52.18 Y99.132 E133.18501
G0 F3600 X52.18 Y98.566
G1 F4200 X66.086 Y112.472 E134.16615
G0 F3600 X66.369 Y112.19
G1 F4200 X52.18 Y98.001 E135.16726
G0 F3600 X52.18 Y97.435
G1 F4200 X66.652 Y111.907 E136.18834
G0 F3600 X66.935 Y111.624
G1 F4200 X52.18 Y96.869 E137.22938
G0 F3600 X52.18 Y96.304
G1 F4200 X67.218 Y111.341 E138.29036
G0 F3600 X67.5 Y111.058
G1 F4200 X52.18 Y95.738 E139.37127
G0 F3600 X52.18 Y95.172
G1 F4200 X67.783 Y110.775 E140.47214
G0 F3600 X68.066 Y110.493
