;FLAVOR:Marlin
;TIME:4508
;Filament used: 8.86303m
;Layer height: 0.4
;MINX:50.8
;MINY:41.8
;MINZ:0.3
;MAXX:219.2
;MAXY:148.2
;MAXZ:3.1
;TARGET_MACHINE.NAME:Unknown
;Generated with Cura_SteamEngine 5.10.0
M104 S205
M105
M109 S205
G28 ;Home
G1 Z15.0 F6000 ;Move the platform down 15mm
;Prime the extruder
G92 E0
G1 F200 E3
G92 E0
M82 ;absolute extrusion mode
G92 E0
G92 E0
G1 F1500 E-6.5
;LAYER_COUNT:8
;LAYER:0
M107
G0 F3600 X51.454 Y43.082 Z0.3
;TYPE:SKIRT
G1 F1500 E0
G1 F1800 X51.789 Y42.704 E0.0252
G1 X52.18 Y42.383 E0.05044
G1 X52.617 Y42.128 E0.07568
G1 X53.088 Y41.944 E0.10091
G1 X53.582 Y41.838 E0.12611
G1 X54.027 Y41.801 E0.14839
G1 X215.339 Y41.8 E8.19628
G1 X216.037 Y41.81 E8.23111
G1 X216.54 Y41.857 E8.25631
G1 X217.03 Y41.983 E8.28155
G1 X217.494 Y42.185 E8.3068
G1 X217.92 Y42.457 E8.33202
G1 X218.298 Y42.792 E8.35722
G1 X218.618 Y43.183 E8.38242
G1 X218.873 Y43.62 E8.40766
G1 X219.056 Y44.091 E8.43287
G1 X219.163 Y44.585 E8.45809
G1 X219.199 Y45.24 E8.49082
G1 X219.2 Y144.304 E13.43314
G1 X219.191 Y145.031 E13.46942
G1 X219.145 Y145.534 E13.49461
G1 X219.02 Y146.024 E13.51984
G1 X218.819 Y146.488 E13.54507
G1 X218.548 Y146.915 E13.5703
G1 X218.213 Y147.294 E13.59554
G1 X217.823 Y147.615 E13.62074
G1 X217.387 Y147.871 E13.64596
G1 X216.916 Y148.054 E13.67117
G1 X216.422 Y148.162 E13.6964
G1 X215.76 Y148.199 E13.72948
G1 X54.666 Y148.2 E21.76649
G1 X53.968 Y148.191 E21.80132
G1 X53.464 Y148.144 E21.82657
G1 X52.974 Y148.019 E21.8518
G1 X52.51 Y147.818 E21.87703
G1 X52.084 Y147.547 E21.90222
G1 X51.705 Y147.212 E21.92745
G1 X51.384 Y146.821 E21.95269
G1 X51.129 Y146.385 E21.97789
G1 X50.945 Y145.914 E22.00312
G1 X50.838 Y145.42 E22.02834
G1 X50.801 Y144.967 E22.05101
G1 X50.8 Y45.631 E27.00691
G1 X50.809 Y44.966 E27.04009
G1 X50.856 Y44.462 E27.06534
G1 X50.982 Y43.973 E27.09053
G1 X51.183 Y43.509 E27.11576
G1 X51.454 Y43.082 E27.14099
G1 F1500 E20.64099
;MESH:test_plate_reprap_screen.stl
G0 F3600 X53.335 Y45.424
G0 X54.424 Y45.424
G0 X89.784 Y73.13
G0 X92.05 Y73.717
G0 X91.965 Y73.414
;TYPE:WALL-INNER
G1 F1500 E27.14099
G1 F1800 X91.505 Y73.547 E27.16488
G1 X90.933 Y73.596 E27.19352
G1 X90.341 Y73.511 E27.22336
G1 X89.722 Y73.267 E27.25656
G1 X89.248 Y72.918 E27.28592
G1 X88.778 Y72.361 E27.32228
G1 X88.478 Y71.652 E27.36069
G1 X88.394 Y70.878 E27.39953
G1 X88.51 Y70.231 E27.43233
G1 X88.787 Y69.63 E27.46534
G1 X89.002 Y69.333 E27.48363
G1 X89.382 Y68.963 E27.51009
G1 X89.966 Y68.617 E27.54396
G1 X90.542 Y68.437 E27.57407
G1 X91.01 Y68.401 E27.59749
G1 X91.517 Y68.452 E27.62291
G1 X92.107 Y68.648 E27.65392
G1 X92.72 Y69.043 E27.69031
G1 X93.219 Y69.636 E27.72897
G1 X93.464 Y70.195 E27.75942
G1 X93.6 Y70.857 E27.79314
G1 X93.572 Y71.373 E27.81892
G1 X93.493 Y71.725 E27.83692
G1 X93.227 Y72.343 E27.87048
G1 X92.97 Y72.695 E27.89223
G1 X92.607 Y73.039 E27.91718
G1 X91.965 Y73.414 E27.95427
G0 F3600 X92.05 Y73.717
G0 X135.541 Y67.41
G0 X135.541 Y66.965
G1 F1800 X135.238 Y67.1 E27.97082
G1 X92.423 Y67.1 E30.10687
G1 X92.234 Y67.039 E30.11678
G1 X92.019 Y66.86 E30.13074
G1 X91.904 Y66.575 E30.14607
G1 X91.904 Y52.429 E30.85182
G1 X91.946 Y52.269 E30.86007
G1 X92.054 Y52.097 E30.8702
G1 X92.245 Y51.956 E30.88205
G1 X92.409 Y51.9 E30.89069
G1 X135.251 Y51.9 E33.02809
G1 X135.52 Y52.019 E33.04276
G1 X135.67 Y52.183 E33.05385
G1 X135.756 Y52.429 E33.06685
G1 X135.759 Y66.545 E33.7711
G1 X135.706 Y66.75 E33.78167
G1 X135.541 Y66.965 E33.79519
G0 F3600 X135.541 Y67.41
G0 X178.929 Y73.852
G0 X180.15 Y73.67
G0 X179.996 Y73.4
G1 F1800 X179.444 Y73.564 E33.82392
G1 X178.88 Y73.593 E33.85209
G1 X178.392 Y73.533 E33.87662
G1 X177.706 Y73.258 E33.91349
G1 X177.263 Y72.932 E33.94093
G1 X176.773 Y72.356 E33.97866
G1 X176.481 Y71.646 E34.01696
G1 X176.395 Y70.893 E34.05477
G1 X176.509 Y70.248 E34.08745
G1 X176.771 Y69.656 E34.11975
G1 X177.049 Y69.281 E34.14304
G1 X177.388 Y68.958 E34.1664
G1 X177.999 Y68.599 E34.20176
G1 X178.528 Y68.44 E34.22931
G1 X179.087 Y68.4 E34.25727
G1 X179.558 Y68.458 E34.28095
G1 X180.116 Y68.653 E34.31044
G1 X180.721 Y69.046 E34.34643
G1 X181.217 Y69.633 E34.38477
G1 X181.458 Y70.166 E34.41396
G1 X181.589 Y70.803 E34.4464
G1 X181.574 Y71.354 E34.4739
G1 X181.467 Y71.809 E34.49722
G1 X181.219 Y72.35 E34.52691
G1 X180.984 Y72.679 E34.54708
G1 X180.583 Y73.056 E34.57454
G1 X179.996 Y73.4 E34.60849
G0 F3600 X180.15 Y73.67
G0 X175.838 Y130.338
G0 X175.388 Y129.959
G1 F1800 X175.068 Y130.097 E34.62587
G1 X94.932 Y130.097 E38.62387
G1 X94.673 Y130.004 E38.6376
G1 X94.542 Y129.889 E38.6463
G1 X94.406 Y129.589 E38.66273
G1 X94.402 Y77.419 E41.2655
G1 X94.509 Y77.153 E41.27981
G1 X94.718 Y76.969 E41.2937
G1 X94.926 Y76.904 E41.30457
G1 X175.067 Y76.903 E45.30282
G1 X175.281 Y76.969 E45.314
G1 X175.409 Y77.061 E45.32186
G1 X175.534 Y77.224 E45.33211
G1 X175.599 Y77.463 E45.34446
G1 X175.599 Y129.548 E47.943
G1 X175.531 Y129.782 E47.95515
G1 X175.388 Y129.959 E47.96651
G0 F3600 X175.388 Y130.41
G0 X176.232 Y136.711
G0 X176.56 Y137.491
G0 X177.095 Y138.128
G0 X178.351 Y138.78
G0 X180.049 Y138.718
G0 X179.965 Y138.419
G1 F1800 X179.448 Y138.56 E47.99324
G1 X178.948 Y138.596 E48.01825
G1 X178.341 Y138.512 E48.04882
G1 X177.697 Y138.261 E48.08331
G1 X177.217 Y137.883 E48.11379
G1 X176.778 Y137.351 E48.1482
G1 X176.474 Y136.64 E48.18678
G1 X176.4 Y135.88 E48.22487
G1 X176.509 Y135.228 E48.25785
G1 X176.805 Y134.605 E48.29226
G1 X177.003 Y134.331 E48.30913
G1 X177.388 Y133.958 E48.33587
G1 X178.036 Y133.582 E48.37325
G1 X178.552 Y133.436 E48.4
G1 X179.067 Y133.4 E48.42576
G1 X179.638 Y133.48 E48.45453
G1 X180.094 Y133.638 E48.4786
G1 X180.718 Y134.042 E48.51569
G1 X181.209 Y134.631 E48.55395
G1 X181.429 Y135.08 E48.57889
G1 X181.572 Y135.625 E48.607
G1 X181.596 Y136.128 E48.63213
G1 X181.506 Y136.686 E48.66032
G1 X181.389 Y137.024 E48.67817
G1 X181.039 Y137.6 E48.71179
G1 X180.62 Y138.036 E48.74196
G1 X179.965 Y138.419 E48.77982
G0 F3600 X180.049 Y138.718
G0 X215.12 Y144.12
G0 X215.4 Y144.4
G1 F1800 X215.4 Y45.6 E53.70897
G1 X54.6 Y45.6 E61.73131
G1 X54.6 Y144.4 E66.66047
G1 X215.4 Y144.4 E74.68281
G0 F3600 X215.12 Y144.12
G0 X92.049 Y138.718
G0 X91.965 Y138.419
G1 F1800 X91.448 Y138.56 E74.70955
G1 X90.948 Y138.596 E74.73456
G1 X90.341 Y138.512 E74.76513
G1 X89.697 Y138.261 E74.79961
G1 X89.217 Y137.883 E74.83009
G1 X88.778 Y137.351 E74.8645
G1 X88.475 Y136.642 E74.90297
G1 X88.395 Y135.881 E74.94115
G1 X88.512 Y135.226 E74.97434
G1 X88.76 Y134.678 E75.00435
G1 X88.996 Y134.34 E75.02492
G1 X89.413 Y133.94 E75.05375
G1 X90.027 Y133.586 E75.0891
G1 X90.489 Y133.45 E75.11313
G1 X91.063 Y133.4 E75.14188
G1 X91.575 Y133.462 E75.16761
G1 X92.081 Y133.635 E75.19429
G1 X92.702 Y134.031 E75.23103
G1 X93.216 Y134.631 E75.27045
G1 X93.457 Y135.164 E75.29963
G1 X93.576 Y135.67 E75.32556
G1 X93.596 Y136.133 E75.34869
G1 X93.53 Y136.586 E75.37152
G1 X93.395 Y137.023 E75.39434
G1 X93.039 Y137.6 E75.42817
G1 X92.62 Y138.036 E75.45834
G1 X91.965 Y138.419 E75.49619
G0 F3600 X91.834 Y138.033
;TYPE:WALL-OUTER
G1 F1800 X91.379 Y138.166 E75.51984
G1 X90.925 Y138.195 E75.54254
G1 X90.487 Y138.139 E75.56457
G1 X89.899 Y137.91 E75.59605
G1 X89.523 Y137.625 E75.61959
G1 X89.12 Y137.144 E75.65089
G1 X88.867 Y136.539 E75.68361
G1 X88.8 Y135.877 E75.71681
G1 X88.897 Y135.346 E75.74374
G1 X89.119 Y134.854 E75.77067
G1 X89.321 Y134.575 E75.78785
G1 X89.628 Y134.278 E75.80916
G1 X90.187 Y133.952 E75.84145
G1 X90.597 Y133.835 E75.86272
G1 X91.077 Y133.801 E75.88672
G1 X91.488 Y133.852 E75.90739
G1 X91.907 Y133.995 E75.92947
G1 X92.454 Y134.35 E75.96201
G1 X92.885 Y134.869 E75.99566
G1 X93.07 Y135.265 E76.01747
G1 X93.17 Y135.649 E76.03727
G1 X93.196 Y136.111 E76.06035
G1 X93.126 Y136.56 E76.08302
G1 X93.015 Y136.878 E76.09983
G1 X92.668 Y137.428 E76.13227
G1 X92.346 Y137.733 E76.1544
G1 X91.834 Y138.033 E76.18401
G0 F3600 X91.643 Y138.089
G0 X91.728 Y138.393
G0 X92.521 Y137.924
G0 X93.253 Y136.967
G0 X91.966 Y73.315
G0 X91.81 Y73.045
G1 F1800 X91.377 Y73.166 E76.20644
G1 X90.925 Y73.195 E76.22903
G1 X90.509 Y73.146 E76.24993
G1 X89.904 Y72.911 E76.28231
G1 X89.533 Y72.637 E76.30532
G1 X89.128 Y72.156 E76.33669
G1 X88.873 Y71.563 E76.3689
G1 X88.8 Y70.879 E76.40321
G1 X88.892 Y70.363 E76.42936
G1 X89.123 Y69.847 E76.45757
G1 X89.319 Y69.577 E76.47421
G1 X89.628 Y69.278 E76.49567
G1 X90.213 Y68.943 E76.5293
G1 X90.615 Y68.831 E76.55012
G1 X91.077 Y68.801 E76.57322
G1 X91.509 Y68.858 E76.59496
G1 X91.916 Y69 E76.61646
G1 X92.454 Y69.348 E76.64843
G1 X92.885 Y69.869 E76.68216
G1 X93.072 Y70.275 E76.70446
G1 X93.192 Y70.859 E76.73421
G1 X93.175 Y71.322 E76.75732
G1 X93.091 Y71.671 E76.77523
G1 X92.868 Y72.156 E76.80186
G1 X92.676 Y72.424 E76.81831
G1 X92.365 Y72.72 E76.83973
G1 X91.81 Y73.045 E76.87182
G0 F3600 X91.618 Y73.098
G0 X91.702 Y73.4
G0 X135.598 Y66.938
G0 X135.36 Y66.549
G1 F1800 X135.305 Y66.638 E76.87704
G1 X135.195 Y66.698 E76.88329
G1 X92.466 Y66.698 E79.01505
G1 X92.376 Y66.658 E79.01996
G1 X92.301 Y66.525 E79.02758
G1 X92.301 Y52.476 E79.72849
G1 X92.351 Y52.365 E79.73456
G1 X92.456 Y52.304 E79.74062
G1 X135.204 Y52.304 E81.87332
G1 X135.309 Y52.365 E81.87938
G1 X135.359 Y52.476 E81.88546
G1 X135.36 Y66.549 E82.58756
G0 F3600 X135.305 Y66.638
G0 X135.222 Y66.683
G0 X135.222 Y67.01
G0 X178.94 Y73.45
G0 X179.889 Y73.348
G0 X179.805 Y73.047
G1 F1800 X179.359 Y73.168 E82.61062
G1 X178.925 Y73.195 E82.63231
G1 X178.513 Y73.147 E82.653
G1 X177.899 Y72.908 E82.68588
G1 X177.538 Y72.642 E82.70825
G1 X177.118 Y72.144 E82.74075
G1 X176.869 Y71.549 E82.77293
G1 X176.8 Y70.886 E82.80618
G1 X176.895 Y70.354 E82.83315
G1 X177.118 Y69.856 E82.86037
G1 X177.312 Y69.585 E82.877
G1 X177.63 Y69.276 E82.89912
G1 X178.189 Y68.951 E82.93138
G1 X178.624 Y68.829 E82.95392
G1 X179.064 Y68.8 E82.97592
G1 X179.482 Y68.851 E82.99692
G1 X179.919 Y69.001 E83.01998
G1 X180.449 Y69.346 E83.05153
G1 X180.864 Y69.835 E83.08352
G1 X181.065 Y70.247 E83.10639
G1 X181.196 Y70.884 E83.13884
G1 X181.173 Y71.333 E83.16127
G1 X181.095 Y71.662 E83.17814
G1 X180.876 Y72.144 E83.20455
G1 X180.675 Y72.425 E83.22179
G1 X180.376 Y72.712 E83.24246
G1 X179.805 Y73.047 E83.27549
G0 F3600 X179.612 Y73.099
G0 X179.696 Y73.402
G0 X175.51 Y129.516
G0 X175.2 Y129.516
G1 F1800 X175.164 Y129.616 E83.28079
G1 X175.023 Y129.699 E83.28896
G1 X94.977 Y129.699 E87.28247
G1 X94.831 Y129.609 E87.29103
G1 X94.8 Y129.513 E87.29606
G1 X94.8 Y77.483 E89.89185
G1 X94.836 Y77.384 E89.8971
G1 X94.975 Y77.301 E89.90518
G1 X175.052 Y77.301 E93.90024
G1 X175.195 Y77.451 E93.91058
G1 X175.2 Y129.516 E96.50811
G0 F3600 X175.164 Y129.616
G0 X175.084 Y129.663
G0 X175.084 Y130.01
G0 X176.623 Y136.611
G0 X177.369 Y137.832
G0 X178.45 Y138.39
G0 X179.989 Y138.302
G0 X179.834 Y138.033
G1 F1800 X179.379 Y138.166 E96.53176
G1 X178.925 Y138.195 E96.55446
G1 X178.487 Y138.139 E96.57648
G1 X177.899 Y137.91 E96.60797
G1 X177.523 Y137.625 E96.63151
G1 X177.12 Y137.144 E96.66281
G1 X176.867 Y136.539 E96.69553
G1 X176.8 Y135.89 E96.72808
G1 X176.905 Y135.325 E96.75675
G1 X177.129 Y134.839 E96.78345
G1 X177.313 Y134.585 E96.7991
G1 X177.63 Y134.276 E96.82118
G1 X178.19 Y133.951 E96.85348
G1 X178.618 Y133.83 E96.87567
G1 X179.077 Y133.801 E96.89862
G1 X179.509 Y133.858 E96.92036
G1 X179.917 Y134 E96.94191
G1 X180.449 Y134.346 E96.97357
G1 X180.873 Y134.847 E97.00632
G1 X181.061 Y135.237 E97.02792
G1 X181.173 Y135.661 E97.0498
G1 X181.196 Y136.11 E97.07223
G1 X181.126 Y136.56 E97.09495
G1 X181.015 Y136.878 E97.11175
G1 X180.668 Y137.428 E97.14419
G1 X180.346 Y137.733 E97.16632
G1 X179.834 Y138.033 E97.19593
G0 F3600 X179.643 Y138.089
G0 X179.728 Y138.393
G0 X215.52 Y144.52
G0 X215.8 Y144.8
G1 F1800 X215.8 Y45.2 E102.16499
G1 X54.2 Y45.2 E110.22725
G1 X54.2 Y144.8 E115.19631
G1 X215.8 Y144.8 E123.25857
G0 F3600 X215.8 Y144.6
G0 X215.52 Y144.52
G0 X91.515 Y138.934
;TYPE:SKIN
G1 F1800 X92.19 Y138.719 E123.29391
G1 X92.771 Y138.385 E123.32735
G1 X93.293 Y137.913 E123.36246
G1 X93.72 Y137.204 E123.40375
G1 X93.899 Y136.675 E123.43161
G1 X93.971 Y136.163 E123.45741
G1 X93.956 Y135.653 E123.48286
G1 X93.815 Y135.037 E123.51439
G1 X93.541 Y134.43 E123.54761
G1 X92.963 Y133.748 E123.59222
G1 X92.222 Y133.282 E123.63589
G1 X91.651 Y133.087 E123.66599
G1 X91.05 Y133.02 E123.69616
G1 X90.414 Y133.076 E123.72801
G1 X89.894 Y133.228 E123.75504
G1 X89.143 Y133.655 E123.79814
G1 X88.696 Y134.101 E123.82964
G1 X88.426 Y134.492 E123.85335
G1 X88.137 Y135.143 E123.88888
G1 X88.012 Y135.862 E123.92529
G1 X88.101 Y136.728 E123.96873
G1 X88.44 Y137.547 E124.01295
G1 X88.922 Y138.125 E124.0505
G1 X89.498 Y138.588 E124.08737
G1 X90.33 Y138.913 E124.13193
G1 X90.928 Y138.972 E124.16191
G1 X91.515 Y138.934 E124.19125
G0 F3600 X92.764 Y138.246
G0 X93.618 Y137.137
G0 X93.834 Y136.248
G0 X91.524 Y73.93
G1 F1800 X92.204 Y73.718 E124.22679
G1 X92.836 Y73.338 E124.26358
G1 X93.285 Y72.91 E124.29453
G1 X93.5 Y72.608 E124.31302
G1 X93.801 Y71.992 E124.34723
G1 X93.947 Y71.426 E124.37639
G1 X93.96 Y70.744 E124.41042
G1 X93.836 Y70.119 E124.44221
G1 X93.544 Y69.428 E124.47964
G1 X92.975 Y68.757 E124.52353
G1 X92.301 Y68.32 E124.56361
G1 X91.662 Y68.085 E124.59757
G1 X90.975 Y68.02 E124.632
G1 X90.468 Y68.063 E124.65739
G1 X89.807 Y68.273 E124.69199
G1 X89.148 Y68.662 E124.73017
G1 X88.753 Y69.039 E124.75741
G1 X88.459 Y69.429 E124.78177
G1 X88.149 Y70.097 E124.81851
G1 X88.012 Y70.847 E124.85655
G1 X88.108 Y71.752 E124.90195
G1 X88.452 Y72.564 E124.94595
G1 X89.011 Y73.222 E124.98903
G1 X89.521 Y73.595 E125.02055
G1 X90.313 Y73.898 E125.06285
G1 X90.898 Y73.975 E125.09229
G1 X91.524 Y73.93 E125.1236
G0 F3600 X135.693 Y67.41
G0 X135.693 Y67.321
G1 F1800 X136.008 Y66.993 E125.14629
G1 X136.136 Y66.674 E125.16344
G1 X136.131 Y52.38 E125.87657
G1 X136.065 Y52.122 E125.88986
G1 X135.888 Y51.84 E125.90647
G1 X135.606 Y51.63 E125.92401
G1 X135.314 Y51.52 E125.93958
G1 X92.345 Y51.523 E128.08331
G1 X92.103 Y51.602 E128.09601
G1 X91.768 Y51.84 E128.11651
G1 X91.591 Y52.122 E128.13312
G1 X91.525 Y52.38 E128.14641
G1 X91.52 Y66.655 E128.85859
G1 X91.695 Y67.054 E128.88033
G1 X92.043 Y67.365 E128.90361
G1 X92.365 Y67.478 E128.92064
G1 X135.185 Y67.478 E131.05694
G1 X135.432 Y67.441 E131.0694
G1 X135.693 Y67.321 E131.08373
G0 F3600 X135.693 Y67.41
G0 X174.085 Y73.143
G0 X179.576 Y73.916
G1 F1800 X180.12 Y73.766 E131.11188
G1 X180.8 Y73.364 E131.15129
G1 X181.247 Y72.953 E131.18159
G1 X181.561 Y72.517 E131.20839
G1 X181.84 Y71.904 E131.24199
G1 X181.95 Y71.403 E131.26758
G1 X181.964 Y70.75 E131.30017
G1 X181.805 Y69.986 E131.3391
G1 X181.53 Y69.415 E131.37072
G1 X180.959 Y68.746 E131.4146
G1 X180.259 Y68.297 E131.45609
G1 X179.68 Y68.095 E131.48669
G1 X179.086 Y68.017 E131.51658
G1 X178.458 Y68.066 E131.548
G1 X177.865 Y68.233 E131.57874
G1 X177.149 Y68.66 E131.62033
G1 X176.712 Y69.084 E131.65071
G1 X176.43 Y69.472 E131.67464
G1 X176.147 Y70.118 E131.70982
G1 X176.012 Y70.854 E131.74715
G1 X176.104 Y71.748 E131.79199
G1 X176.447 Y72.567 E131.83629
G1 X177.026 Y73.23 E131.8802
G1 X177.612 Y73.63 E131.9156
G1 X178.329 Y73.903 E131.95388
G1 X178.903 Y73.975 E131.98274
G1 X179.576 Y73.916 E132.01644
G0 F3600 X175.838 Y130.338
G0 X175.467 Y130.357
G1 F1800 X175.7 Y130.182 E132.03098
G1 X175.881 Y129.92 E132.04687
G1 X175.975 Y129.583 E132.06432
G1 X175.976 Y77.44 E134.66575
G1 X175.87 Y77.047 E134.68606
G1 X175.67 Y76.778 E134.70278
G1 X175.478 Y76.643 E134.71449
G1 X175.117 Y76.526 E134.73342
G1 X94.931 Y76.521 E138.73392
G1 X94.5 Y76.652 E138.75639
G1 X94.212 Y76.912 E138.77575
G1 X94.089 Y77.138 E138.78859
G1 X94.02 Y77.419 E138.80302
G1 X94.02 Y129.603 E141.40649
G1 X94.083 Y129.857 E141.41955
G1 X94.258 Y130.141 E141.43619
G1 X94.611 Y130.401 E141.45806
G1 X94.874 Y130.47 E141.47163
G1 X175.105 Y130.472 E145.47437
G1 X175.467 Y130.357 E145.49332
G0 F3600 X175.467 Y130.41
G0 X176.232 Y136.711
G0 X176.56 Y137.491
G0 X177.095 Y138.128
G0 X178.207 Y138.723
G0 X179.515 Y138.934
G1 F1800 X180.19 Y138.719 E145.52866
G1 X180.771 Y138.385 E145.5621
G1 X181.293 Y137.913 E145.59721
G1 X181.72 Y137.204 E145.6385
G1 X181.899 Y136.675 E145.66636
G1 X181.975 Y136.161 E145.69228
G1 X181.939 Y135.52 E145.72431
G1 X181.775 Y134.925 E145.75511
G1 X181.484 Y134.36 E145.78681
