;FLAVOR:Marlin
;TIME:8802
;Filament used: 17.3944m
;Layer height: 0.3
;MINX:20.5
;MINY:51.3
;MINZ:0.3
;MAXX:249.5
;MAXY:138.7
;MAXZ:8.1
;TARGET_MACHINE.NAME:Unknown
;Generated with Cura_SteamEngine 5.10.0
M104 S205
M105
M109 S205
G28 ;Home
G1 Z15.0 F6000 ;Move the platform down 15mm
;Prime the extruder
G92 E0
G1 F200 E3
G92 E0
M82 ;absolute extrusion mode
G92 E0
G92 E0
G1 F1500 E-6.5
;LAYER_COUNT:27
;LAYER:0
M107
G0 F3600 X22.317 Y51.628 Z0.3
;TYPE:SKIRT
G1 F1500 E0
G1 F2400 X22.788 Y51.444 E0.02397
G1 X23.282 Y51.338 E0.04791
G1 X23.727 Y51.301 E0.06908
G1 X245.639 Y51.3 E10.58675
G1 X246.337 Y51.31 E10.61984
G1 X246.84 Y51.357 E10.64378
G1 X247.33 Y51.483 E10.66776
G1 X247.794 Y51.685 E10.69174
G1 X248.22 Y51.957 E10.7157
G1 X248.598 Y52.292 E10.73964
G1 X248.918 Y52.683 E10.76358
G1 X249.173 Y53.12 E10.78756
G1 X249.356 Y53.591 E10.81151
G1 X249.463 Y54.085 E10.83547
G1 X249.499 Y54.74 E10.86656
G1 X249.5 Y134.804 E14.66125
G1 X249.491 Y135.531 E14.69571
G1 X249.445 Y136.034 E14.71965
G1 X249.32 Y136.524 E14.74362
G1 X249.119 Y136.988 E14.76758
G1 X248.848 Y137.415 E14.79155
G1 X248.513 Y137.794 E14.81553
G1 X248.123 Y138.115 E14.83947
G1 X247.687 Y138.371 E14.86343
G1 X247.216 Y138.554 E14.88738
G1 X246.722 Y138.662 E14.91135
G1 X246.06 Y138.699 E14.94277
G1 X24.366 Y138.7 E25.45011
G1 X23.668 Y138.691 E25.4832
G1 X23.164 Y138.644 E25.50719
G1 X22.674 Y138.519 E25.53116
G1 X22.21 Y138.318 E25.55512
G1 X21.784 Y138.047 E25.57905
G1 X21.405 Y137.712 E25.60303
G1 X21.084 Y137.321 E25.627
G1 X20.829 Y136.885 E25.65094
G1 X20.645 Y136.414 E25.67491
G1 X20.538 Y135.92 E25.69886
G1 X20.501 Y135.467 E25.72041
G1 X20.5 Y55.131 E29.52799
G1 X20.509 Y54.466 E29.55951
G1 X20.556 Y53.962 E29.5835
G1 X20.682 Y53.473 E29.60743
G1 X20.883 Y53.009 E29.6314
G1 X21.154 Y52.582 E29.65537
G1 X21.489 Y52.204 E29.67931
G1 X21.88 Y51.883 E29.70328
G1 X22.317 Y51.628 E29.72726
G1 F1500 E23.22726
;MESH:test_plate_arduino_mega.stl
G0 F3600 X24.124 Y53.835
G0 X24.124 Y54.924
G0 X37.111 Y73.791
G0 X37.807 Y74.283
G0 X39.339 Y74.786
G0 X39.27 Y74.481
;TYPE:WALL-INNER
G1 F1500 E29.72726
G1 F2400 X38.805 Y74.587 E29.74987
G1 X38.392 Y74.592 E29.76944
G1 X37.853 Y74.476 E29.79558
G1 X37.341 Y74.2 E29.82314
G1 X36.998 Y73.89 E29.84506
G1 X36.728 Y73.498 E29.86762
G1 X36.583 Y73.17 E29.88461
G1 X36.492 Y72.792 E29.90304
G1 X36.487 Y72.243 E29.92906
G1 X36.567 Y71.883 E29.94654
G1 X36.757 Y71.446 E29.96913
G1 X36.998 Y71.11 E29.98872
G1 X37.303 Y70.827 E30.00844
G1 X37.818 Y70.538 E30.03643
G1 X38.351 Y70.407 E30.06245
G1 X38.788 Y70.407 E30.08316
G1 X39.316 Y70.527 E30.10882
G1 X39.852 Y70.832 E30.13805
G1 X40.16 Y71.122 E30.1581
G1 X40.402 Y71.465 E30.178
G1 X40.568 Y71.836 E30.19726
G1 X40.676 Y72.501 E30.22919
G1 X40.606 Y73.038 E30.25486
G1 X40.432 Y73.488 E30.27772
G1 X40.045 Y73.995 E30.30795
G1 X39.649 Y74.305 E30.33179
G1 X39.27 Y74.481 E30.3516
G0 F3600 X39.339 Y74.786
G0 X40.934 Y122.537
G0 X40.657 Y123.603
G0 X39.422 Y124.759
G0 X39.286 Y124.475
G1 F2400 X38.788 Y124.589 E30.37581
G1 X38.355 Y124.589 E30.39633
G1 X37.846 Y124.469 E30.42112
G1 X37.382 Y124.224 E30.44599
G1 X36.997 Y123.888 E30.47021
G1 X36.728 Y123.498 E30.49266
G1 X36.583 Y123.17 E30.50966
G1 X36.492 Y122.792 E30.52808
G1 X36.487 Y122.243 E30.55411
G1 X36.567 Y121.883 E30.57158
G1 X36.757 Y121.446 E30.59417
G1 X36.998 Y121.11 E30.61377
G1 X37.338 Y120.802 E30.63551
G1 X37.846 Y120.522 E30.663
G1 X38.388 Y120.404 E30.68929
G1 X38.805 Y120.409 E30.70906
G1 X39.27 Y120.515 E30.73166
G1 X39.796 Y120.793 E30.75986
G1 X40.169 Y121.133 E30.78378
G1 X40.376 Y121.421 E30.80059
G1 X40.577 Y121.848 E30.82296
G1 X40.674 Y122.476 E30.85308
G1 X40.606 Y123.037 E30.87986
G1 X40.432 Y123.487 E30.90273
G1 X40.019 Y124.023 E30.9348
G1 X39.67 Y124.292 E30.95568
G1 X39.286 Y124.475 E30.97584
G0 F3600 X39.422 Y124.759
G0 X122.595 Y126.544
G0 X123.454 Y126.435
G0 X123.356 Y126.138
G1 F2400 X123.044 Y126.239 E30.99139
G1 X122.576 Y126.292 E31.01371
G1 X122.181 Y126.253 E31.03252
G1 X121.703 Y126.101 E31.05629
G1 X121.377 Y125.92 E31.07397
G1 X120.937 Y125.511 E31.10244
G1 X120.704 Y125.147 E31.12292
G1 X120.541 Y124.721 E31.14454
G1 X120.476 Y124.219 E31.16853
G1 X120.525 Y123.723 E31.19216
G1 X120.68 Y123.281 E31.21436
G1 X120.923 Y122.886 E31.23634
G1 X121.236 Y122.568 E31.25748
G1 X121.755 Y122.248 E31.28638
G1 X122.294 Y122.11 E31.31275
G1 X122.859 Y122.111 E31.33953
G1 X123.376 Y122.247 E31.36487
G1 X123.696 Y122.408 E31.38185
G1 X124.115 Y122.765 E31.40794
G1 X124.359 Y123.087 E31.42708
G1 X124.594 Y123.606 E31.45409
G1 X124.676 Y124.146 E31.47997
G1 X124.609 Y124.715 E31.50713
G1 X124.443 Y125.149 E31.52915
G1 X124.214 Y125.507 E31.54929
G1 X123.837 Y125.868 E31.57403
G1 X123.356 Y126.138 E31.60018
G0 F3600 X123.454 Y126.435
G0 X148.944 Y125.342
G0 X149.411 Y124.975
G1 F2400 X148.917 Y125.089 E31.6242
G1 X148.448 Y125.084 E31.64643
G1 X147.971 Y124.97 E31.66968
G1 X147.441 Y124.683 E31.69824
G1 X147.12 Y124.388 E31.71891
G1 X146.852 Y123.998 E31.74134
G1 X146.705 Y123.663 E31.75867
G1 X146.617 Y123.271 E31.77772
G1 X146.612 Y122.778 E31.80108
G1 X146.697 Y122.359 E31.82135
G1 X146.893 Y121.925 E31.84392
G1 X147.098 Y121.639 E31.86059
G1 X147.432 Y121.323 E31.88239
G1 X147.96 Y121.027 E31.91108
G1 X148.478 Y120.907 E31.93628
G1 X148.933 Y120.909 E31.95784
G1 X149.432 Y121.025 E31.98212
G1 X149.957 Y121.313 E32.0105
G1 X150.289 Y121.628 E32.03219
G1 X150.526 Y121.965 E32.05172
G1 X150.708 Y122.396 E32.0739
G1 X150.798 Y122.976 E32.10171
G1 X150.73 Y123.537 E32.1285
G1 X150.544 Y123.999 E32.1521
G1 X150.147 Y124.523 E32.18326
G1 X149.739 Y124.822 E32.20723
G1 X149.411 Y124.975 E32.22439
G0 F3600 X149.547 Y125.259
G0 X150.326 Y124.706
G0 X150.782 Y124.103
G0 X151.042 Y123.149
G0 X150.815 Y76.75
G0 X150.68 Y76.469
G1 F2400 X150.166 Y76.589 E32.24941
G1 X149.767 Y76.592 E32.26832
G1 X149.252 Y76.48 E32.2933
G1 X148.72 Y76.202 E32.32175
G1 X148.347 Y75.857 E32.34583
G1 X148.124 Y75.539 E32.36424
G1 X147.968 Y75.194 E32.38218
G1 X147.86 Y74.718 E32.40531
G1 X147.868 Y74.209 E32.42944
G1 X147.959 Y73.828 E32.44801
G1 X148.118 Y73.472 E32.46649
G1 X148.386 Y73.097 E32.48833
G1 X148.711 Y72.804 E32.50907
G1 X149.194 Y72.538 E32.53521
G1 X149.75 Y72.405 E32.5623
G1 X150.186 Y72.41 E32.58297
G1 X150.654 Y72.518 E32.60573
G1 X151.185 Y72.804 E32.63432
G1 X151.507 Y73.09 E32.65473
G1 X151.778 Y73.465 E32.67666
G1 X151.954 Y73.87 E32.69759
G1 X152.054 Y74.53 E32.72923
G1 X151.974 Y75.054 E32.75435
G1 X151.807 Y75.49 E32.77648
G1 X151.397 Y76.027 E32.8085
G1 X151.051 Y76.289 E32.82907
G1 X150.68 Y76.469 E32.84861
G0 F3600 X150.815 Y76.75
G0 X149.918 Y76.842
G0 X123.106 Y73.161
G0 X123.077 Y72.852
G1 F2400 X122.42 Y72.9 E32.87983
G1 X122.002 Y72.826 E32.89995
G1 X121.528 Y72.624 E32.92437
G1 X121.084 Y72.286 E32.95082
G1 X120.792 Y71.925 E32.97283
G1 X120.552 Y71.393 E33.00049
G1 X120.464 Y70.844 E33.02684
G1 X120.572 Y70.171 E33.05915
G1 X120.791 Y69.697 E33.0839
G1 X121.096 Y69.315 E33.10706
G1 X121.582 Y68.945 E33.13601
G1 X122.27 Y68.724 E33.17026
G1 X122.851 Y68.726 E33.1978
G1 X123.383 Y68.868 E33.2239
G1 X123.766 Y69.077 E33.24458
G1 X124.131 Y69.398 E33.26761
G1 X124.463 Y69.894 E33.2959
G1 X124.65 Y70.487 E33.32537
G1 X124.669 Y70.91 E33.34544
G1 X124.597 Y71.38 E33.36798
G1 X124.438 Y71.775 E33.38816
G1 X124.203 Y72.132 E33.40842
G1 X123.67 Y72.606 E33.44222
G1 X123.077 Y72.852 E33.47265
G0 F3600 X123.106 Y73.161
G0 X150.194 Y72.158
G0 X225.144 Y76.842
G0 X225.608 Y76.476
G1 F2400 X225.09 Y76.591 E33.4978
G1 X224.686 Y76.589 E33.51695
G1 X224.146 Y76.46 E33.54326
G1 X223.662 Y76.198 E33.56935
G1 X223.298 Y75.862 E33.59282
G1 X223.081 Y75.555 E33.61064
G1 X222.912 Y75.184 E33.62996
G1 X222.813 Y74.736 E33.65171
G1 X222.812 Y74.288 E33.67294
G1 X222.916 Y73.802 E33.6965
G1 X223.089 Y73.431 E33.7159
G1 X223.334 Y73.097 E33.73553
G1 X223.659 Y72.804 E33.75627
G1 X224.169 Y72.523 E33.78387
G1 X224.702 Y72.405 E33.80974
G1 X225.139 Y72.41 E33.83046
G1 X225.641 Y72.527 E33.85489
G1 X226.176 Y72.832 E33.88407
G1 X226.507 Y73.152 E33.9059
G1 X226.725 Y73.463 E33.9239
G1 X226.902 Y73.853 E33.9442
G1 X227.006 Y74.536 E33.97694
G1 X226.917 Y75.085 E34.0033
G1 X226.735 Y75.513 E34.02534
G1 X226.373 Y75.995 E34.05391
G1 X226.007 Y76.284 E34.07602
G1 X225.608 Y76.476 E34.097
G0 F3600 X225.744 Y76.76
G0 X233.559 Y117.937
G0 X233.282 Y119.003
G0 X232.047 Y120.159
G0 X231.911 Y119.875
G1 F2400 X231.417 Y119.989 E34.12103
G1 X230.984 Y119.989 E34.14155
G1 X230.446 Y119.86 E34.16777
G1 X229.962 Y119.598 E34.19386
G1 X229.634 Y119.303 E34.21477
G1 X229.389 Y118.968 E34.23444
G1 X229.199 Y118.544 E34.25646
G1 X229.112 Y118.119 E34.27702
G1 X229.112 Y117.683 E34.29769
G1 X229.199 Y117.252 E34.31852
G1 X229.372 Y116.861 E34.33879
G1 X229.59 Y116.549 E34.35683
G1 X229.964 Y116.2 E34.38107
G1 X230.461 Y115.926 E34.40797
G1 X231.017 Y115.804 E34.43495
G1 X231.38 Y115.804 E34.45216
G1 X231.926 Y115.922 E34.47863
G1 X232.474 Y116.23 E34.50843
G1 X232.769 Y116.505 E34.52754
G1 X233.015 Y116.845 E34.54743
G1 X233.195 Y117.247 E34.56831
G1 X233.3 Y117.904 E34.59984
G1 X233.236 Y118.408 E34.62392
G1 X233.055 Y118.88 E34.64788
G1 X232.646 Y119.429 E34.68033
G1 X232.288 Y119.696 E34.70149
G1 X231.911 Y119.875 E34.72127
G0 F3600 X232.047 Y120.159
G0 X245.42 Y134.62
G0 X245.7 Y134.9
G1 F2400 X245.7 Y55.1 E38.50345
G1 X24.301 Y55.101 E48.99681
G1 X24.3 Y134.9 E52.77894
G1 X245.7 Y134.9 E63.27234
G0 F3600 X246.1 Y135.3
;TYPE:WALL-OUTER
G1 F2400 X246.1 Y54.7 E67.09244
G1 X23.901 Y54.701 E77.62371
G1 X23.9 Y135.3 E81.44376
G1 X246.1 Y135.3 E91.97508
G0 F3600 X246.1 Y135.1
G0 X245.82 Y135.02
G0 X231.914 Y119.778
G0 X231.779 Y119.497
G1 F2400 X231.371 Y119.591 E91.99492
G1 X231.007 Y119.587 E92.01218
G1 X230.621 Y119.499 E92.03094
G1 X230.168 Y119.254 E92.05535
G1 X229.926 Y119.029 E92.07101
G1 X229.729 Y118.758 E92.08689
G1 X229.583 Y118.432 E92.10382
G1 X229.514 Y118.12 E92.11897
G1 X229.513 Y117.684 E92.13963
G1 X229.591 Y117.341 E92.1563
G1 X229.737 Y117.031 E92.17254
G1 X229.926 Y116.77 E92.18782
G1 X230.159 Y116.553 E92.20291
G1 X230.606 Y116.303 E92.22718
G1 X231.028 Y116.204 E92.24772
G1 X231.381 Y116.206 E92.26446
G1 X231.783 Y116.3 E92.28402
G1 X232.228 Y116.546 E92.30812
G1 X232.47 Y116.771 E92.32378
G1 X232.659 Y117.03 E92.33898
G1 X232.812 Y117.362 E92.35631
G1 X232.9 Y117.925 E92.38331
G1 X232.842 Y118.339 E92.40313
G1 X232.707 Y118.683 E92.42064
G1 X232.355 Y119.149 E92.44832
G1 X232.083 Y119.352 E92.46441
G1 X231.779 Y119.497 E92.48037
G0 F3600 X231.585 Y119.541
G0 X231.654 Y119.846
G0 X232.541 Y119.321
G0 X233.08 Y118.423
G0 X225.547 Y76.402
G0 X225.478 Y76.098
G1 F2400 X225.062 Y76.192 E92.50058
G1 X224.707 Y76.187 E92.51741
G1 X224.299 Y76.09 E92.53729
G1 X223.857 Y75.845 E92.56124
G1 X223.609 Y75.609 E92.57746
G1 X223.419 Y75.339 E92.59311
G1 X223.286 Y75.041 E92.60858
G1 X223.212 Y74.704 E92.62493
G1 X223.214 Y74.278 E92.64512
G1 X223.289 Y73.947 E92.66121
G1 X223.429 Y73.642 E92.67711
G1 X223.617 Y73.381 E92.69236
G1 X223.868 Y73.147 E92.70862
G1 X224.303 Y72.904 E92.73224
G1 X224.732 Y72.804 E92.75312
G1 X225.064 Y72.804 E92.76885
G1 X225.493 Y72.904 E92.78973
G1 X225.928 Y73.146 E92.81332
G1 X226.183 Y73.386 E92.82992
G1 X226.366 Y73.641 E92.8448
G1 X226.509 Y73.953 E92.86106
G1 X226.6 Y74.551 E92.88973
G1 X226.542 Y74.939 E92.90833
G1 X226.4 Y75.294 E92.92645
G1 X226.071 Y75.732 E92.95241
G1 X225.778 Y75.955 E92.96986
G1 X225.478 Y76.098 E92.98561
G0 F3600 X225.283 Y76.142
G0 X225.352 Y76.447
G0 X150.588 Y76.404
G0 X150.52 Y76.101
G1 F2400 X150.131 Y76.19 E93.00453
G1 X149.76 Y76.189 E93.02211
G1 X149.345 Y76.087 E93.04237
G1 X148.914 Y75.849 E93.0657
G1 X148.661 Y75.609 E93.08223
G1 X148.479 Y75.354 E93.09708
G1 X148.334 Y75.029 E93.11394
G1 X148.26 Y74.708 E93.12956
G1 X148.262 Y74.277 E93.14999
G1 X148.338 Y73.956 E93.16562
G1 X148.481 Y73.643 E93.18193
G1 X148.669 Y73.381 E93.19721
G1 X148.92 Y73.147 E93.21348
G1 X149.355 Y72.904 E93.23709
G1 X149.78 Y72.804 E93.25779
G1 X150.112 Y72.804 E93.27352
G1 X150.545 Y72.904 E93.29458
G1 X150.976 Y73.146 E93.31801
G1 X151.217 Y73.366 E93.33348
G1 X151.425 Y73.653 E93.35028
G1 X151.569 Y73.98 E93.36721
G1 X151.648 Y74.523 E93.39322
G1 X151.588 Y74.948 E93.41356
G1 X151.449 Y75.299 E93.43145
G1 X151.107 Y75.745 E93.45809
G1 X150.825 Y75.958 E93.47484
G1 X150.52 Y76.101 E93.49081
G0 F3600 X150.326 Y76.145
G0 X150.395 Y76.448
G0 X123.006 Y72.769
G0 X122.977 Y72.457
G1 F2400 X122.478 Y72.504 E93.51456
G1 X122.145 Y72.452 E93.53054
G1 X121.691 Y72.258 E93.55394
G1 X121.366 Y72.002 E93.57354
G1 X121.138 Y71.725 E93.59055
G1 X120.934 Y71.261 E93.61457
G1 X120.872 Y70.829 E93.63526
G1 X120.958 Y70.275 E93.66183
G1 X121.138 Y69.896 E93.68171
G1 X121.365 Y69.611 E93.69898
G1 X121.771 Y69.306 E93.72305
G1 X122.313 Y69.126 E93.75012
G1 X122.815 Y69.124 E93.77391
G1 X123.232 Y69.238 E93.7944
G1 X123.536 Y69.404 E93.81082
G1 X123.852 Y69.686 E93.83089
G1 X124.088 Y70.035 E93.85086
G1 X124.25 Y70.51 E93.87465
G1 X124.269 Y70.914 E93.89381
G1 X124.213 Y71.268 E93.9108
G1 X124.083 Y71.591 E93.9273
G1 X123.897 Y71.874 E93.94335
G1 X123.483 Y72.244 E93.96967
G1 X122.977 Y72.457 E93.99569
G0 F3600 X122.778 Y72.475
G0 X122.807 Y72.788
G0 X124.528 Y124.15
G0 X124.312 Y125.083
G0 X123.412 Y126.017
G0 X123.256 Y125.746
G1 F2400 X122.964 Y125.847 E94.01033
G1 X122.561 Y125.892 E94.02955
G1 X122.292 Y125.869 E94.04235
G1 X121.893 Y125.749 E94.0621
G1 X121.611 Y125.595 E94.07733
G1 X121.245 Y125.256 E94.10097
G1 X121.061 Y124.967 E94.11721
G1 X120.932 Y124.635 E94.13409
G1 X120.876 Y124.244 E94.15281
G1 X120.916 Y123.809 E94.17351
G1 X121.029 Y123.477 E94.19014
G1 X121.252 Y123.116 E94.21025
G1 X121.502 Y122.874 E94.22674
G1 X121.914 Y122.621 E94.24965
G1 X122.337 Y122.508 E94.2704
G1 X122.844 Y122.513 E94.29444
G1 X123.239 Y122.623 E94.31387
G1 X123.468 Y122.741 E94.32608
G1 X123.849 Y123.066 E94.34981
G1 X124.008 Y123.279 E94.36241
G1 X124.212 Y123.724 E94.38561
G1 X124.272 Y124.147 E94.40586
G1 X124.217 Y124.636 E94.42919
G1 X124.087 Y124.967 E94.44604
G1 X123.904 Y125.255 E94.46221
G1 X123.597 Y125.548 E94.48233
G1 X123.256 Y125.746 E94.50102
G0 F3600 X123.068 Y125.811
G0 X123.168 Y126.109
G0 X144.01 Y125.164
G0 X149.414 Y124.878
G0 X149.279 Y124.597
G1 F2400 X148.883 Y124.69 E94.52029
G1 X148.517 Y124.69 E94.53764
G1 X148.113 Y124.596 E94.5573
G1 X147.675 Y124.359 E94.5809
G1 X147.421 Y124.124 E94.5973
G1 X147.226 Y123.852 E94.61317
G1 X147.085 Y123.539 E94.62944
G1 X147.013 Y123.216 E94.64512
G1 X147.013 Y122.784 E94.6656
G1 X147.088 Y122.449 E94.68187
G1 X147.223 Y122.153 E94.69729
G1 X147.423 Y121.873 E94.7136
G1 X147.677 Y121.639 E94.72996
G1 X148.122 Y121.397 E94.75397
G1 X148.513 Y121.306 E94.773
G1 X148.888 Y121.307 E94.79077
G1 X149.299 Y121.407 E94.81082
G1 X149.727 Y121.645 E94.83403
G1 X149.983 Y121.886 E94.8507
G1 X150.162 Y122.134 E94.86519
G1 X150.309 Y122.451 E94.88175
G1 X150.4 Y123.053 E94.91061
G1 X150.34 Y123.449 E94.92959
G1 X150.203 Y123.789 E94.94697
G1 X149.863 Y124.241 E94.97377
G1 X149.567 Y124.461 E94.99125
G1 X149.279 Y124.597 E95.00635
G0 F3600 X149.085 Y124.642
G0 X149.154 Y124.946
G0 X122.274 Y126.121
G0 X39.309 Y124.368
G0 X39.175 Y124.089
G1 F2400 X38.743 Y124.191 E95.02739
G1 X38.379 Y124.187 E95.04464
G1 X37.988 Y124.095 E95.06368
G1 X37.551 Y123.859 E95.08722
G1 X37.297 Y123.624 E95.10362
G1 X37.102 Y123.352 E95.11948
G1 X36.962 Y123.041 E95.13564
G1 X36.886 Y122.723 E95.15114
G1 X36.886 Y122.277 E95.17228
G1 X36.962 Y121.955 E95.18796
G1 X37.103 Y121.647 E95.20401
G1 X37.298 Y121.375 E95.21988
G1 X37.544 Y121.146 E95.2358
G1 X37.989 Y120.9 E95.2599
G1 X38.386 Y120.806 E95.27924
G1 X38.749 Y120.805 E95.29645
G1 X39.156 Y120.899 E95.31624
G1 X39.616 Y121.157 E95.34124
G1 X39.859 Y121.386 E95.35707
G1 X40.049 Y121.653 E95.3726
G1 X40.184 Y121.949 E95.38802
G1 X40.276 Y122.553 E95.41697
G1 X40.216 Y122.949 E95.43596
G1 X40.087 Y123.274 E95.45253
G1 X39.735 Y123.741 E95.48025
G1 X39.478 Y123.94 E95.49565
G1 X39.175 Y124.089 E95.51166
G0 F3600 X38.981 Y124.134
G0 X39.05 Y124.441
G0 X39.916 Y123.921
G0 X40.455 Y123.023
