;FLAVOR:Marlin
;TIME:1048
;Filament used: 2.19863m
;Layer height: 0.2
;MINX:47.8
;MINY:43.264
;MINZ:0.3
;MAXX:127.2
;MAXY:129.736
;MAXZ:2.9
;TARGET_MACHINE.NAME:Unknown
;Generated with Cura_SteamEngine 5.10.0
M104 S200
M105
M109 S200
G28 ;Home
G1 Z15.0 F6000 ;Move the platform down 15mm
;Prime the extruder
G92 E0
G1 F200 E3
G92 E0
M82 ;absolute extrusion mode
G92 E0
G92 E0
G1 F1500 E-6.5
;LAYER_COUNT:14
;LAYER:0
M107
G0 F3600 X49.115 Y50.895 Z0.3
;TYPE:SKIRT
G1 F1500 E0
G1 F4200 X55.357 Y44.653 E0.44041
G1 X55.845 Y44.179 E0.47435
G1 X56.235 Y43.856 E0.49961
G1 X56.67 Y43.599 E0.52482
G1 X57.14 Y43.414 E0.55002
G1 X57.748 Y43.28 E0.58108
G1 X58.627 Y43.264 E0.62494
G1 X65.339 Y43.264 E0.9598
G1 X66.041 Y43.274 E0.99483
G1 X66.63 Y43.338 E1.02439
G1 X69.8 Y43.98 E1.18575
G1 X72.519 Y44.446 E1.32338
G1 X75.198 Y44.827 E1.45838
G1 X77.97 Y45.141 E1.59756
G1 X80.651 Y45.37 E1.7318
G1 X83.393 Y45.524 E1.86882
G1 X86.149 Y45.602 E2.00637
G1 X88.865 Y45.602 E2.14187
G1 X91.618 Y45.524 E2.27927
G1 X94.365 Y45.368 E2.41654
G1 X97.075 Y45.138 E2.55223
G1 X99.78 Y44.83 E2.68806
G1 X102.501 Y44.442 E2.82518
G1 X105.214 Y43.977 E2.96251
G1 X108.328 Y43.346 E3.12102
G1 X108.903 Y43.283 E3.14988
G1 X109.924 Y43.264 E3.20083
G1 X116.268 Y43.264 E3.51733
G1 X116.97 Y43.274 E3.55236
G1 X117.473 Y43.321 E3.57756
G1 X117.963 Y43.447 E3.6028
G1 X118.426 Y43.649 E3.62801
G1 X118.948 Y43.98 E3.65884
G1 X119.567 Y44.576 E3.70171
G1 X125.821 Y50.831 E4.143
G1 X126.297 Y51.323 E4.17716
G1 X126.619 Y51.713 E4.20239
G1 X126.875 Y52.149 E4.22761
G1 X127.059 Y52.619 E4.25279
G1 X127.167 Y53.113 E4.27802
G1 X127.197 Y53.548 E4.29977
G1 X127.2 Y125.844 E7.90664
G1 X127.19 Y126.571 E7.94291
G1 X127.143 Y127.074 E7.96811
G1 X127.017 Y127.564 E7.99336
G1 X126.816 Y128.028 E8.01858
G1 X126.544 Y128.454 E8.0438
G1 X126.209 Y128.833 E8.06904
G1 X125.818 Y129.153 E8.09424
G1 X125.382 Y129.408 E8.11944
G1 X124.911 Y129.592 E8.14467
G1 X124.416 Y129.698 E8.16993
G1 X123.972 Y129.735 E8.19215
G1 X117.851 Y129.736 E8.49753
G1 X117.137 Y129.724 E8.53316
G1 X116.533 Y129.665 E8.56344
G1 X113.219 Y128.696 E8.73569
G1 X110.534 Y127.996 E8.87413
G1 X107.908 Y127.392 E9.00856
G1 X105.174 Y126.845 E9.14766
G1 X102.494 Y126.385 E9.28332
G1 X99.784 Y126 E9.41988
G1 X97.103 Y125.695 E9.5545
G1 X94.334 Y125.46 E9.69314
G1 X91.616 Y125.306 E9.82896
G1 X88.864 Y125.228 E9.96632
G1 X86.147 Y125.228 E10.10187
G1 X83.394 Y125.306 E10.23927
G1 X80.647 Y125.462 E10.37654
G1 X77.968 Y125.69 E10.51068
G1 X75.201 Y126.004 E10.64961
G1 X72.511 Y126.387 E10.78517
G1 X69.814 Y126.85 E10.92169
G1 X67.134 Y127.386 E11.05805
G1 X64.468 Y128 E11.19453
G1 X61.805 Y128.693 E11.33182
G1 X59.769 Y129.278 E11.4375
G1 X58.721 Y129.591 E11.49207
G1 X58.124 Y129.719 E11.52253
G1 X57.241 Y129.736 E11.56659
G1 X51.666 Y129.736 E11.84473
G1 X50.968 Y129.727 E11.87956
G1 X50.464 Y129.68 E11.90481
G1 X49.974 Y129.555 E11.93004
G1 X49.51 Y129.354 E11.95527
G1 X49.084 Y129.083 E11.98046
G1 X48.705 Y128.748 E12.00569
G1 X48.384 Y128.357 E12.03093
G1 X48.129 Y127.921 E12.05613
G1 X47.945 Y127.45 E12.08136
G1 X47.838 Y126.956 E12.10658
G1 X47.801 Y126.503 E12.12925
G1 X47.8 Y54.197 E15.73661
G1 X47.81 Y53.495 E15.77164
G1 X47.857 Y52.992 E15.79684
G1 X47.983 Y52.502 E15.82208
G1 X48.185 Y52.039 E15.84729
G1 X48.514 Y51.521 E15.8779
G1 X49.115 Y50.895 E15.9212
G1 F1500 E9.4212
;MESH:test_plate.stl
G0 F3600 X50.655 Y52.941
G0 X51.428 Y53.713
G0 X55.557 Y96.76
G0 X74.281 Y105.847
G0 X76.059 Y106.335
G0 X75.946 Y106.046
;TYPE:WALL-INNER
G1 F1500 E15.9212
G1 F4200 X75.375 Y106.159 E15.95024
G1 X74.724 Y106.133 E15.98274
G1 X74.16 Y105.955 E16.01225
G1 X73.633 Y105.655 E16.0425
G1 X73.325 Y105.387 E16.06287
G1 X73.002 Y104.986 E16.08856
G1 X72.782 Y104.58 E16.1116
G1 X72.628 Y104.086 E16.13741
G1 X72.58 Y103.706 E16.15652
G1 X72.617 Y103.122 E16.18571
G1 X72.736 Y102.657 E16.20966
G1 X73.088 Y102.015 E16.24619
G1 X73.423 Y101.643 E16.27116
G1 X73.87 Y101.313 E16.29888
G1 X74.346 Y101.098 E16.32494
G1 X74.868 Y100.979 E16.35165
G1 X75.618 Y100.994 E16.38908
G1 X76.343 Y101.24 E16.42727
G1 X76.749 Y101.495 E16.45119
G1 X77.127 Y101.845 E16.47689
G1 X77.463 Y102.31 E16.50552
G1 X77.676 Y102.85 E16.53448
G1 X77.768 Y103.389 E16.56176
G1 X77.736 Y104.071 E16.59582
G1 X77.535 Y104.646 E16.62621
G1 X77.203 Y105.193 E16.65813
G1 X76.847 Y105.555 E16.68346
G1 X76.423 Y105.843 E16.70903
G1 X75.946 Y106.046 E16.7349
G0 F3600 X76.059 Y106.335
G0 X77.884 Y105.267
G0 X87.5 Y95.651
G0 X100.461 Y101.013
G0 X100.956 Y101.333
G0 X101.36 Y101.727
G0 X101.681 Y102.194
G0 X101.903 Y102.718
G0 X102.021 Y103.295
G0 X101.982 Y104.101
G0 X101.804 Y104.688
G0 X101.383 Y105.378
G0 X100.963 Y105.792
G0 X99.94 Y106.375
G0 X99.887 Y106.071
G1 F4200 X99.303 Y106.156 E16.76434
G1 X98.724 Y106.133 E16.79325
G1 X98.16 Y105.955 E16.82275
G1 F4363.6 X97.68 Y105.672 E16.84951
G1 F4666.7 X97.377 Y105.407 E16.86759
G1 F4590.2 X97.01 Y104.982 E16.89322
G1 F4296.7 X96.763 Y104.527 E16.91847
G1 F4200 X96.62 Y104.038 E16.94389
G1 X96.58 Y103.642 E16.96374
G1 X96.6 Y103.238 E16.98392
G1 X96.728 Y102.672 E17.01287
G1 X97.052 Y102.074 E17.04681
G1 X97.405 Y101.662 E17.07387
G1 X97.87 Y101.307 E17.10306
G1 X98.403 Y101.082 E17.13192
G1 X98.873 Y100.982 E17.1559
G1 X99.622 Y100.995 E17.19327
G1 X100.326 Y101.232 E17.23033
G1 X100.798 Y101.529 E17.25815
G1 X101.167 Y101.888 E17.28384
G1 X101.486 Y102.367 E17.31255
G1 X101.662 Y102.795 E17.33564
G1 X101.768 Y103.336 E17.36314
G1 X101.734 Y104.046 E17.3986
G1 X101.57 Y104.577 E17.42633
G1 X101.227 Y105.158 E17.45999
G1 X100.847 Y105.555 E17.48741
G1 X100.424 Y105.843 E17.51294
G1 X99.887 Y106.071 E17.54204
G0 F3600 X99.94 Y106.375
G0 X119.843 Y97.027
G0 X119.483 Y96.741
G1 F4200 X119.365 Y96.861 E17.55044
G1 X119.069 Y96.996 E17.56667
G1 X118.805 Y96.992 E17.57984
G1 X118.519 Y96.833 E17.59617
G1 X102.247 Y80.564 E18.74414
G1 X72.749 Y80.565 E20.2158
G1 X56.418 Y96.888 E21.36776
G1 X56.117 Y97.006 E21.38389
G1 X55.93 Y96.995 E21.39324
G1 X55.635 Y96.861 E21.4094
G1 X55.431 Y96.577 E21.42685
G1 X55.4 Y96.384 E21.4366
G1 X55.4 Y56.464 E23.42821
G1 X55.436 Y56.258 E23.43865
G1 X55.532 Y56.087 E23.44843
G1 X64.548 Y47.064 E24.08481
G1 X58.321 Y47.064 E24.39547
G1 X51.6 Y53.785 E24.86968
G1 X51.6 Y125.936 E28.4693
G1 X57.551 Y125.936 E28.7662
G1 X59.004 Y124.483 E28.86872
G1 F3844.4 X59.405 Y124.031 E28.90165
G1 F3146.1 X59.536 Y123.815 E28.91848
G1 F2837.8 X60.032 Y123.32 E28.97022
G1 F3387.1 X60.381 Y123.104 E28.99561
G1 F4200 X87.123 Y96.363 E30.88237
G1 X87.355 Y96.253 E30.89518
G1 X87.645 Y96.253 E30.90964
G1 X87.87 Y96.356 E30.92199
G1 X96.434 Y104.921 E31.52626
G1 F4468.1 X97.181 Y105.703 E31.57698
G1 X97.863 Y106.351 E31.6211
G1 F4200 X114.949 Y123.441 E32.82675
G1 F4456.2 X115.316 Y123.838 E32.85217
G1 F4666.7 X115.688 Y124.206 E32.87566
G1 F4397.9 X116.115 Y124.604 E32.90348
G1 F4200 X117.445 Y125.936 E32.99738
G1 X123.4 Y125.936 E33.29448
G1 X123.4 Y53.785 E36.89411
G1 X116.679 Y47.064 E37.36831
G1 X110.452 Y47.064 E37.67898
G1 X119.468 Y56.087 E38.31535
G1 X119.565 Y56.258 E38.32516
G1 X119.6 Y56.464 E38.33559
G1 X119.6 Y96.457 E40.33084
G1 X119.483 Y96.741 E40.34617
G0 F3600 X119.91 Y96.741
G0 X120.351 Y121.729
G0 X120.322 Y122.302
G0 X120.22 Y122.748
G0 X119.949 Y123.351
G0 X119.683 Y123.724
G0 X119.285 Y124.114
G0 X118.224 Y124.704
G0 X118.164 Y124.401
G1 F4200 X117.852 Y124.464 E40.36205
G1 X117.249 Y124.472 E40.39213
G1 X116.738 Y124.37 E40.41813
G1 X116.265 Y124.17 E40.44375
G1 F4397.9 X115.922 Y123.929 E40.46373
G1 F4615.4 X115.52 Y123.543 E40.48903
G1 F4409.4 X115.251 Y123.189 E40.51016
G1 F4200 X115.036 Y122.715 E40.53612
G1 X114.894 Y122.019 E40.57156
G1 X114.962 Y121.316 E40.6068
G1 X115.118 Y120.837 E40.63193
G1 X115.31 Y120.484 E40.65198
G1 X115.632 Y120.08 E40.67775
G1 X116.026 Y119.745 E40.70355
G1 X116.426 Y119.516 E40.72655
G1 X116.938 Y119.345 E40.75348
G1 X117.491 Y119.29 E40.78121
G1 X118.013 Y119.34 E40.80737
G1 X118.565 Y119.509 E40.83617
G1 X119.053 Y119.806 E40.86467
G1 X119.354 Y120.066 E40.88451
G1 X119.681 Y120.476 E40.91068
G1 X119.986 Y121.108 E40.94569
G1 X120.096 Y121.784 E40.97986
G1 X120.068 Y122.288 E41.00504
G1 X119.956 Y122.721 E41.02735
G1 X119.749 Y123.184 E41.05266
G1 X119.519 Y123.52 E41.07297
G1 X119.127 Y123.92 E41.10091
G1 X118.643 Y124.216 E41.12922
G1 X118.164 Y124.401 E41.15483
G0 F3600 X118.224 Y124.704
G0 X119.285 Y124.114
G0 X119.683 Y123.724
G0 X119.949 Y123.351
G0 X120.22 Y122.748
G0 X120.322 Y122.302
G0 X120.351 Y121.729
G0 X120.227 Y121.039
G0 X119.938 Y120.401
G0 X119.587 Y119.942
G0 X100.956 Y101.333
G0 X100.461 Y101.013
G0 X87.5 Y95.651
G0 X59.13 Y124.022
G0 X58.388 Y124.014
G0 X58.319 Y123.711
G1 F4019.1 X57.881 Y123.81 E41.17825
G1 F4200 X57.307 Y123.839 E41.20692
G1 X56.758 Y123.734 E41.23481
G1 X56.378 Y123.587 E41.25513
G1 X55.939 Y123.319 E41.28079
G1 X55.558 Y122.968 E41.30664
G1 X55.311 Y122.643 E41.327
G1 X55.041 Y122.085 E41.35793
G1 X54.928 Y121.648 E41.38045
G1 X54.9 Y121.144 E41.40563
G1 X54.961 Y120.678 E41.42908
G1 X55.077 Y120.294 E41.44909
G1 X55.347 Y119.774 E41.47832
G1 X55.806 Y119.274 E41.51219
G1 X56.259 Y118.959 E41.53971
G1 X56.733 Y118.761 E41.56534
G1 X57.24 Y118.657 E41.59116
G1 X57.693 Y118.65 E41.61377
G1 X58.203 Y118.738 E41.63959
G1 X58.684 Y118.924 E41.66531
G1 X59.076 Y119.179 E41.68865
G1 X59.489 Y119.56 E41.71668
G1 X59.804 Y120.043 E41.74545
G1 X59.999 Y120.538 E41.77199
G1 X60.096 Y121.166 E41.80369
G1 X60.055 Y121.695 E41.83016
G1 X59.924 Y122.176 E41.85504
G1 F3387.1 X59.587 Y122.934 E41.90635
G1 F2837.8 X59.132 Y123.383 E41.95355
G1 F3146.1 X58.964 Y123.426 E41.9651
G1 F3684.2 X58.319 Y123.711 E42.00521
G0 F3600 X58.181 Y123.332
;TYPE:WALL-OUTER
G1 F4200 X57.793 Y123.42 E42.02506
G1 X57.317 Y123.434 E42.04882
G1 X56.892 Y123.357 E42.07037
G1 X56.612 Y123.257 E42.0852
G1 X56.203 Y123.019 E42.10881
G1 X55.876 Y122.726 E42.13071
G1 X55.631 Y122.404 E42.1509
G1 X55.405 Y121.919 E42.17759
G1 X55.322 Y121.579 E42.19505
G1 X55.3 Y121.144 E42.21678
G1 X55.344 Y120.794 E42.23438
G1 X55.476 Y120.371 E42.25649
G1 X55.696 Y119.984 E42.2787
G1 X56.139 Y119.511 E42.31103
G1 X56.511 Y119.277 E42.33296
G1 X56.879 Y119.133 E42.35267
G1 X57.312 Y119.051 E42.37466
G1 X57.658 Y119.048 E42.39192
G1 X58.113 Y119.129 E42.41498
G1 X58.503 Y119.281 E42.43586
G1 X58.883 Y119.535 E42.45866
G1 X59.167 Y119.807 E42.47828
G1 X59.418 Y120.167 E42.50018
G1 X59.605 Y120.608 E42.52408
G1 X59.696 Y121.146 E42.5513
G1 X59.669 Y121.589 E42.57344
G1 X59.538 Y122.07 E42.59831
G1 X59.38 Y122.384 E42.61585
G1 X59.129 Y122.721 E42.63681
G1 X58.764 Y123.038 E42.66093
G1 X58.181 Y123.332 E42.69351
G0 F3600 X57.987 Y123.376
G0 X58.056 Y123.68
G0 X58.927 Y123.238
G0 X75.812 Y105.991
G0 X75.758 Y105.686
G1 F4200 X75.362 Y105.754 E42.71355
G1 X74.773 Y105.729 E42.74296
G1 X74.352 Y105.604 E42.76487
G1 X73.888 Y105.347 E42.79134
G1 X73.656 Y105.155 E42.80636
G1 X73.352 Y104.793 E42.82994
G1 X73.151 Y104.426 E42.85082
G1 X73.018 Y103.997 E42.87323
G1 X72.98 Y103.684 E42.88896
G1 X73.005 Y103.219 E42.91219
G1 X73.106 Y102.819 E42.93277
G1 X73.412 Y102.25 E42.96501
G1 X73.714 Y101.918 E42.9874
G1 X74.089 Y101.649 E43.01042
G1 X74.491 Y101.472 E43.03234
G1 X74.896 Y101.381 E43.05304
G1 X75.565 Y101.396 E43.08643
G1 X76.173 Y101.602 E43.11846
G1 X76.533 Y101.831 E43.13974
G1 X76.848 Y102.132 E43.16148
G1 X77.117 Y102.522 E43.18512
G1 X77.284 Y102.931 E43.20716
G1 X77.368 Y103.37 E43.22946
G1 X77.339 Y103.994 E43.26062
G1 X77.192 Y104.44 E43.28405
G1 X76.871 Y104.974 E43.31513
G1 X76.538 Y105.292 E43.33811
G1 X76.17 Y105.526 E43.35986
G1 X75.758 Y105.686 E43.38191
G0 F3600 X75.561 Y105.719
G0 X75.615 Y106.026
G0 X79.558 Y104.159
G0 X87.5 Y96.217
G0 X97.277 Y105.994
G0 X99.812 Y105.991
G0 X99.758 Y105.686
G1 F4200 X99.319 Y105.756 E43.40409
G1 X98.773 Y105.729 E43.43136
G1 X98.352 Y105.604 E43.45327
G1 X97.888 Y105.347 E43.47974
G1 X97.642 Y105.142 E43.49571
G1 X97.352 Y104.793 E43.51835
G1 X97.16 Y104.445 E43.53818
G1 X97.017 Y103.989 E43.56202
G1 X96.98 Y103.662 E43.57844
G1 X97.006 Y103.219 E43.60058
G1 X97.101 Y102.835 E43.62032
G1 X97.432 Y102.224 E43.65498
G1 X97.7 Y101.932 E43.67476
G1 X98.089 Y101.649 E43.69876
G1 X98.473 Y101.477 E43.71975
G1 X98.907 Y101.38 E43.74194
G1 X99.539 Y101.392 E43.77347
G1 X100.168 Y101.6 E43.80652
G1 X100.549 Y101.843 E43.82907
G1 X100.861 Y102.146 E43.85077
G1 X101.117 Y102.522 E43.87346
G1 X101.28 Y102.913 E43.8946
G1 X101.367 Y103.336 E43.91614
G1 X101.336 Y104.001 E43.94935
G1 X101.204 Y104.417 E43.97113
G1 X100.871 Y104.974 E44.0035
G1 X100.538 Y105.292 E44.02648
G1 X100.206 Y105.508 E44.04624
G1 X99.758 Y105.686 E44.07029
G0 F3600 X99.561 Y105.717
G0 X99.615 Y106.026
G0 X119.443 Y96.76
G0 X119.198 Y96.419
G1 F4200 X119.122 Y96.543 E44.07754
G1 X118.986 Y96.604 E44.08498
G1 X118.811 Y96.559 E44.09399
G1 X102.413 Y80.164 E45.25086
G1 X72.583 Y80.165 E46.73908
G1 X56.166 Y96.576 E47.89718
G1 X56.014 Y96.604 E47.90489
G1 X55.878 Y96.543 E47.91232
G1 X55.8 Y96.435 E47.91897
G1 X55.8 Y56.382 E49.91722
G1 X65.514 Y46.664 E50.60274
G1 X58.155 Y46.664 E50.96988
G1 X51.2 Y53.619 E51.46059
G1 X51.2 Y126.336 E55.08846
G1 X57.717 Y126.336 E55.41359
G1 X87.384 Y96.668 E57.5068
G1 X87.549 Y96.641 E57.51514
G1 X87.616 Y96.668 E57.51874
G1 X117.279 Y126.336 E59.6118
G1 X123.8 Y126.336 E59.93714
G1 X123.8 Y53.619 E63.565
G1 X116.845 Y46.664 E64.05572
G1 X109.487 Y46.664 E64.42281
G1 X119.2 Y56.382 E65.10829
G1 X119.198 Y96.419 E67.10574
G0 F3600 X119.122 Y96.543
G0 X119.072 Y96.565
G0 X119.22 Y96.925
G0 X119.925 Y122.246
G0 X119.6 Y123.15
G0 X119.033 Y123.801
G0 X118.144 Y124.313
G0 X118.084 Y124.009
G1 F4200 X117.783 Y124.07 E67.12107
G1 X117.317 Y124.078 E67.14432
G1 X116.925 Y124.01 E67.16417
G1 X116.48 Y123.833 E67.18806
G1 X116.141 Y123.616 E67.20814
G1 X115.826 Y123.314 E67.22991
G1 X115.559 Y122.927 E67.25337
G1 X115.391 Y122.516 E67.27552
G1 X115.3 Y121.973 E67.30299
G1 X115.344 Y121.433 E67.33002
G1 X115.46 Y121.053 E67.34984
G1 X115.628 Y120.726 E67.36818
G1 X115.898 Y120.378 E67.39016
G1 X116.194 Y120.114 E67.40994
G1 X116.606 Y119.874 E67.43373
G1 X117.025 Y119.736 E67.45574
G1 X117.529 Y119.688 E67.481
G1 X117.965 Y119.737 E67.50289
G1 X118.417 Y119.887 E67.52665
G1 X118.791 Y120.108 E67.54832
G1 X119.12 Y120.398 E67.5702
G1 X119.387 Y120.757 E67.59252
G1 X119.605 Y121.256 E67.61969
G1 X119.696 Y121.784 E67.64642
G1 X119.674 Y122.219 E67.66815
G1 X119.591 Y122.558 E67.68556
G1 X119.389 Y123.011 E67.71031
G1 X119.195 Y123.286 E67.7271
G1 X118.856 Y123.617 E67.75074
G1 X118.492 Y123.846 E67.77219
G1 X118.084 Y124.009 E67.79411
G0 F3600 X117.888 Y124.048
G0 X117.948 Y124.353
G0 X116.842 Y124.249
G0 X116.382 Y124.069
G0 X113.716 Y122.454
G0 X87.5 Y96.217
G0 X76.965 Y105.959
;TYPE:SKIN
G1 F4028.8 X77.489 Y105.453 E67.832
G0 F3600 X87.5 Y95.651
G0 X96.571 Y104.735
G0 X96.596 Y104.744
G1 F4941.2 X96.603 Y104.754 E67.83251
G0 F3600 X96.576 Y104.745
G0 X96.385 Y104.148
G0 X96.328 Y103.702
G0 X96.356 Y103.147
G0 X96.499 Y102.575
G0 X96.884 Y101.863
G0 X97.285 Y101.43
G0 X97.745 Y101.097
G0 X98.264 Y100.862
G0 X118.803 Y97.458
G0 X119.739 Y97.07
G0 X119.809 Y96.925
G1 F4200 X119.978 Y96.507 E67.85501
G1 X119.98 Y56.468 E69.85256
G1 X119.93 Y56.157 E69.86828
G1 X119.764 Y55.85 E69.88569
G1 X111.37 Y47.444 E70.47835
G1 X116.517 Y47.444 E70.73514
G1 X123.02 Y53.943 E71.19382
G1 X123.02 Y125.556 E74.76661
G1 X118.42 Y125.556 E74.9961
G1 F3492.7 X117.977 Y125.475 E75.02312
G1 F3010.8 X117.635 Y125.479 E75.04692
G1 F3027 X117.048 Y124.894 E75.10429
G1 X117.329 Y124.935 E75.12395
G1 F3010.8 X117.929 Y124.917 E75.16572
G1 F3492.7 X118.273 Y124.763 E75.18834
G1 F4200 X118.78 Y124.567 E75.21545
G1 X119.362 Y124.222 E75.24921
G1 X119.808 Y123.764 E75.2811
G1 X120.078 Y123.373 E75.30481
G1 X120.303 Y122.874 E75.33212
G1 X120.442 Y122.355 E75.35892
G1 X120.47 Y121.752 E75.38904
G1 X120.349 Y120.99 E75.42753
G1 X120 Y120.279 E75.46705
G1 X119.625 Y119.803 E75.49728
G1 X119.175 Y119.429 E75.52647
G1 X118.614 Y119.124 E75.55833
G1 X118.053 Y118.96 E75.58749
G1 X117.453 Y118.912 E75.61752
G1 X116.833 Y118.974 E75.6486
