;FLAVOR:Marlin
;TIME:1100
;Filament used: 2.30885m
;Layer height: 0.2
;MINX:47.8
;MINY:46.602
;MINZ:0.3
;MAXX:127.2
;MAXY:126.41
;MAXZ:2.9
;TARGET_MACHINE.NAME:Unknown
;Generated with Cura_SteamEngine 5.10.0
M104 S200
M105
M109 S200
G28 ;Home
G1 Z15.0 F6000 ;Move the platform down 15mm
;Prime the extruder
G92 E0
G1 F200 E3
G92 E0
M82 ;absolute extrusion mode
G92 E0
G92 E0
G1 F1500 E-6.5
;LAYER_COUNT:14
;LAYER:0
M107
G0 F3600 X48.793 Y50.915 Z0.3
;TYPE:SKIRT
G1 F1500 E0
G1 F4200 X49.184 Y50.594 E0.02524
G1 X49.677 Y50.306 E0.05372
G1 X50.731 Y49.903 E0.11002
G1 X58.705 Y47.001 E0.53337
G1 X59.343 Y46.779 E0.56707
G1 X59.832 Y46.651 E0.59229
G1 X60.336 Y46.602 E0.61756
G1 X60.955 Y46.639 E0.64849
G1 X62.347 Y47.011 E0.72038
G1 X65.053 Y47.696 E0.85964
G1 X67.738 Y48.297 E0.99691
G1 X70.406 Y48.814 E1.13249
G1 X73.087 Y49.256 E1.26805
G1 X75.823 Y49.629 E1.40581
G1 X78.555 Y49.922 E1.5429
G1 X81.264 Y50.135 E1.67847
G1 X84.018 Y50.274 E1.81604
G1 X86.733 Y50.334 E1.95152
G1 X89.487 Y50.316 E2.08892
G1 X92.203 Y50.223 E2.2245
G1 X94.952 Y50.05 E2.36192
G1 X97.693 Y49.8 E2.49924
G1 X100.392 Y49.476 E2.63486
G1 X103.111 Y49.071 E2.77201
G1 X105.78 Y48.596 E2.90726
G1 X108.451 Y48.045 E3.04332
G1 X111.171 Y47.4 E3.18279
G1 X113.786 Y46.707 E3.31775
G1 X114.283 Y46.616 E3.34296
G1 X114.788 Y46.605 E3.36816
G1 X115.404 Y46.69 E3.39918
G1 X116.282 Y46.996 E3.44557
G1 X124.485 Y49.982 E3.88109
G1 X125.122 Y50.224 E3.91509
G1 X125.579 Y50.44 E3.94031
G1 X125.997 Y50.726 E3.96557
G1 X126.364 Y51.073 E3.99077
G1 X126.671 Y51.474 E4.01597
G1 X126.912 Y51.919 E4.04122
G1 X127.079 Y52.396 E4.06643
G1 X127.183 Y52.962 E4.09514
G1 X127.2 Y53.991 E4.14648
G1 X127.2 Y122.518 E7.56531
G1 X127.19 Y123.245 E7.60158
G1 X127.143 Y123.748 E7.62679
G1 X127.017 Y124.238 E7.65203
G1 X126.816 Y124.702 E7.67726
G1 X126.544 Y125.128 E7.70247
G1 X126.209 Y125.507 E7.72771
G1 X125.818 Y125.827 E7.75292
G1 X125.382 Y126.082 E7.77812
G1 X124.911 Y126.266 E7.80334
G1 X124.416 Y126.372 E7.8286
G1 X123.972 Y126.409 E7.85083
G1 X113.613 Y126.41 E8.36764
G1 X112.902 Y126.399 E8.40312
G1 X112.313 Y126.343 E8.43263
G1 X111.068 Y125.999 E8.49707
G1 X108.428 Y125.312 E8.63317
G1 X105.731 Y124.693 E8.77122
G1 X103.056 Y124.156 E8.90734
G1 X100.359 Y123.694 E9.04386
G1 X97.681 Y123.313 E9.17881
G1 X94.908 Y122.999 E9.31804
G1 X92.228 Y122.77 E9.45223
G1 X89.485 Y122.616 E9.58929
G1 X86.73 Y122.538 E9.7268
G1 X84.013 Y122.538 E9.86235
G1 X81.261 Y122.616 E9.9997
G1 X78.511 Y122.772 E10.13712
G1 X75.806 Y123.002 E10.27256
G1 X73.1 Y123.31 E10.40844
G1 X70.378 Y123.698 E10.54561
G1 X67.689 Y124.159 E10.68172
G1 X64.988 Y124.701 E10.81916
G1 X62.317 Y125.315 E10.95589
G1 X59.668 Y126.006 E11.09247
G1 X58.64 Y126.287 E11.14564
G1 X58.068 Y126.395 E11.17468
G1 X57.24 Y126.41 E11.216
G1 X51.666 Y126.41 E11.49409
G1 X50.968 Y126.401 E11.52891
G1 X50.464 Y126.354 E11.55417
G1 X49.974 Y126.229 E11.5794
G1 X49.51 Y126.028 E11.60463
G1 X49.084 Y125.757 E11.62981
G1 X48.705 Y125.422 E11.65505
G1 X48.384 Y125.031 E11.68029
G1 X48.129 Y124.595 E11.70549
G1 X47.945 Y124.124 E11.73072
G1 X47.838 Y123.63 E11.75593
G1 X47.801 Y123.177 E11.77861
G1 X47.8 Y53.861 E15.2368
G1 X47.81 Y53.175 E15.27103
G1 X47.858 Y52.672 E15.29624
G1 X47.984 Y52.182 E15.32148
G1 X48.185 Y51.719 E15.34666
G1 X48.457 Y51.293 E15.37188
G1 X48.793 Y50.915 E15.39711
G1 F1500 E8.89711
;MESH:test_plate.stl
G0 F3600 X51.053 Y52.484
G0 X51.426 Y53.508
G0 X55.557 Y91.586
G0 X55.999 Y91.77
G0 X85.734 Y94.702
G0 X85.403 Y95.032
;TYPE:WALL-INNER
G1 F1500 E15.39711
G1 F4200 X85.627 Y95.086 E15.4086
G1 X85.771 Y95.179 E15.41715
G1 X113.205 Y122.608 E17.3526
G1 X123.4 Y122.608 E17.86123
G1 X123.4 Y53.629 E21.3026
G1 X115.2 Y50.645 E21.73795
G1 X115.2 Y55.367 E21.97353
G1 X119.286 Y56.854 E22.19046
G1 X119.512 Y57.074 E22.2062
G1 X119.6 Y57.388 E22.22246
G1 X119.6 Y91.281 E23.91339
G1 X119.483 Y91.565 E23.92872
G1 X119.365 Y91.685 E23.93711
G1 X119.068 Y91.82 E23.95339
G1 X118.804 Y91.816 E23.96656
G1 X118.519 Y91.657 E23.98284
G1 X102.247 Y75.388 E25.13082
G1 X72.749 Y75.389 E26.60248
G1 X56.465 Y91.672 E27.75137
G1 X56.148 Y91.826 E27.76895
G1 X55.944 Y91.822 E27.77913
G1 X55.635 Y91.685 E27.79599
G1 X55.431 Y91.401 E27.81344
G1 X55.4 Y91.208 E27.82319
G1 X55.4 Y57.259 E29.51691
G1 X55.582 Y56.957 E29.5345
G1 X55.794 Y56.824 E29.54699
G1 X59.796 Y55.367 E29.75947
G1 X59.796 Y50.645 E29.99505
G1 X51.6 Y53.629 E30.43021
G1 X51.6 Y122.608 E33.87158
G1 X57.551 Y122.608 E34.16848
G1 X59.243 Y120.916 E34.28786
G1 F3387.1 X59.519 Y120.504 E34.31854
G1 F2842.6 X60.049 Y119.977 E34.37363
G1 F3393.9 X60.399 Y119.759 E34.39909
G1 F4200 X76.924 Y103.235 E35.56498
G1 F3387.1 X77.188 Y102.835 E35.59463
G1 F2837.8 X77.729 Y102.297 E35.65097
G1 F3393.9 X78.081 Y102.077 E35.6766
G1 F4200 X85.018 Y95.149 E36.16572
G1 X85.262 Y95.042 E36.17901
G1 X85.403 Y95.032 E36.18607
G0 F3600 X85.734 Y94.702
G0 X85.379 Y94.447
G0 X76.971 Y102.458
G0 X76.022 Y103.021
G0 X75.953 Y102.717
G1 F4200 X75.437 Y102.824 E36.21236
G1 X74.924 Y102.824 E36.23795
G1 X74.395 Y102.713 E36.26492
G1 X73.771 Y102.435 E36.299
G1 X73.311 Y102.042 E36.32918
G1 X72.898 Y101.493 E36.36346
G1 X72.698 Y101.025 E36.38885
G1 X72.577 Y100.37 E36.42208
G1 X72.623 Y99.72 E36.45459
G1 X72.836 Y99.104 E36.48711
G1 X73.1 Y98.67 E36.51245
G1 X73.423 Y98.319 E36.53625
G1 X73.897 Y97.974 E36.5655
G1 X74.436 Y97.747 E36.59468
G1 X74.97 Y97.646 E36.62179
G1 X75.372 Y97.646 E36.64185
G1 X75.862 Y97.729 E36.66664
G1 X76.359 Y97.924 E36.69328
G1 X76.843 Y98.245 E36.72225
G1 X77.202 Y98.61 E36.74779
G1 X77.485 Y99.041 E36.77352
G1 X77.641 Y99.409 E36.79346
G1 X77.772 Y99.979 E36.82264
G1 X77.74 Y100.66 E36.85665
G1 X77.593 Y101.193 E36.88423
G1 X77.4 Y101.543 E36.90417
G1 F3393.9 X77.281 Y101.92 E36.92858
G1 F2847.5 X76.837 Y102.371 E36.97515
G1 F3387.1 X76.425 Y102.515 E37.00215
G1 F4200 X75.953 Y102.717 E37.02777
G0 F3600 X76.022 Y103.021
G0 X77.665 Y102.162
G0 X85.379 Y94.447
G0 X93.91 Y102.978
G0 X99.532 Y103.071
G0 X100.192 Y102.963
G0 X100.065 Y102.679
G1 F4200 X99.504 Y102.824 E37.05668
G1 X98.924 Y102.824 E37.08561
G1 X98.395 Y102.713 E37.11258
G1 X97.781 Y102.44 E37.1461
G1 X97.363 Y102.101 E37.17295
G1 X96.894 Y101.499 E37.21103
G1 X96.677 Y100.941 E37.2409
G1 X96.576 Y100.37 E37.26983
G1 X96.623 Y99.718 E37.30244
G1 X96.858 Y99.065 E37.33706
G1 X97.14 Y98.623 E37.36322
G1 X97.494 Y98.259 E37.38855
G1 X97.861 Y97.994 E37.41113
G1 X98.449 Y97.739 E37.44311
G1 X98.987 Y97.644 E37.47037
G1 X99.371 Y97.646 E37.48952
G1 X99.858 Y97.728 E37.51416
G1 X100.363 Y97.925 E37.54121
G1 X100.769 Y98.184 E37.56523
G1 X101.167 Y98.564 E37.59269
G1 X101.485 Y99.041 E37.62129
G1 X101.662 Y99.466 E37.64426
G1 X101.771 Y99.991 E37.67101
G1 X101.735 Y100.738 E37.70832
G1 X101.566 Y101.271 E37.73621
G1 X101.226 Y101.832 E37.76894
G1 X100.85 Y102.228 E37.79619
G1 X100.509 Y102.468 E37.81699
G1 X100.065 Y102.679 E37.84151
G0 F3600 X100.192 Y102.963
G0 X115.236 Y120.299
G0 X115.732 Y120.807
G0 X116.443 Y121.214
G0 X116.899 Y121.342
G0 X118.09 Y121.411
G0 X118.052 Y121.1
G1 F4200 X117.552 Y121.16 E37.86664
G1 X117.109 Y121.131 E37.88879
G1 X116.537 Y120.985 E37.91824
G1 X115.955 Y120.648 E37.95179
G1 X115.478 Y120.192 E37.98471
G1 X115.153 Y119.691 E38.01451
G1 X114.948 Y119.046 E38.04827
G1 X114.9 Y118.49 E38.07612
G1 X114.94 Y118.097 E38.09582
G1 X115.077 Y117.614 E38.12087
G1 X115.359 Y117.082 E38.15091
G1 X115.866 Y116.536 E38.18808
G1 X116.312 Y116.248 E38.21457
G1 X116.782 Y116.064 E38.23975
G1 X117.288 Y115.966 E38.26547
G1 X117.747 Y115.973 E38.28837
G1 X118.257 Y116.076 E38.31433
G1 X118.74 Y116.277 E38.34043
G1 X119.163 Y116.565 E38.36596
G1 X119.451 Y116.845 E38.386
G1 X119.749 Y117.262 E38.41157
G1 X119.988 Y117.788 E38.44039
G1 X120.096 Y118.456 E38.47415
G1 X120.068 Y118.964 E38.49953
G1 X119.852 Y119.679 E38.5368
G1 X119.537 Y120.17 E38.5659
G1 X119.134 Y120.59 E38.59494
G1 X118.569 Y120.935 E38.62797
G1 X118.052 Y121.1 E38.65504
G0 F3600 X118.09 Y121.411
G0 X112.274 Y121.342
G0 X85.379 Y94.447
G0 X59.108 Y120.718
G0 X58.294 Y120.709
G0 X58.241 Y120.403
G1 F4200 X57.565 Y120.522 E38.68929
G1 X56.957 Y120.453 E38.71981
G1 X56.323 Y120.242 E38.75315
G1 X55.84 Y119.914 E38.78228
G1 X55.474 Y119.546 E38.80817
G1 X55.191 Y119.115 E38.8339
G1 X54.997 Y118.618 E38.86051
G1 X54.897 Y118.063 E38.88865
G1 X54.937 Y117.48 E38.9178
G1 X55.097 Y116.901 E38.94777
G1 X55.494 Y116.249 E38.98586
G1 X55.911 Y115.859 E39.01434
G1 X56.244 Y115.643 E39.03414
G1 X56.743 Y115.431 E39.06119
G1 X57.31 Y115.324 E39.08998
G1 X58.05 Y115.374 E39.12698
G1 X58.558 Y115.538 E39.15361
G1 X59.02 Y115.807 E39.18029
G1 X59.562 Y116.33 E39.21786
G1 X59.853 Y116.818 E39.24621
G1 X59.999 Y117.214 E39.26727
G1 X60.096 Y117.842 E39.29897
G1 X60.055 Y118.373 E39.32554
G1 X59.923 Y118.849 E39.35018
G1 X59.72 Y119.225 E39.3715
G1 F3393.9 X59.601 Y119.6 E39.39579
G1 F2847.5 X59.164 Y120.044 E39.44164
G1 F3387.1 X58.747 Y120.196 E39.46909
G1 F4200 X58.241 Y120.403 E39.49637
G0 F3600 X58.219 Y119.995
;TYPE:WALL-OUTER
G1 F4200 X57.532 Y120.116 E39.53117
G1 X57.084 Y120.074 E39.55362
G1 X56.478 Y119.864 E39.58562
G1 X56.117 Y119.625 E39.60722
G1 X55.803 Y119.318 E39.62912
G1 X55.559 Y118.959 E39.65078
G1 X55.403 Y118.591 E39.67072
G1 X55.302 Y118.055 E39.69793
G1 X55.344 Y117.465 E39.72744
G1 X55.481 Y117.039 E39.74977
G1 X55.824 Y116.488 E39.78215
G1 X56.135 Y116.19 E39.80364
G1 X56.412 Y116.006 E39.82023
G1 X56.821 Y115.823 E39.84258
G1 X57.358 Y115.724 E39.86983
G1 X57.977 Y115.767 E39.90078
G1 X58.397 Y115.904 E39.92282
G1 X58.78 Y116.127 E39.94493
G1 X59.259 Y116.602 E39.97859
G1 X59.482 Y116.968 E39.99997
G1 X59.594 Y117.244 E40.01483
G1 X59.693 Y117.776 E40.04183
G1 X59.669 Y118.266 E40.0663
G1 X59.515 Y118.793 E40.0937
G1 X59.196 Y119.315 E40.12422
G1 X58.893 Y119.619 E40.14563
G1 X58.583 Y119.831 E40.16437
G1 X58.219 Y119.995 E40.18428
G0 F3600 X58.023 Y120.029
G0 X58.077 Y120.342
G0 X58.72 Y120.042
G0 X59.1 Y119.724
G0 X75.931 Y102.632
G0 X75.862 Y102.327
G1 F4200 X75.429 Y102.424 E40.20642
G1 X74.993 Y102.43 E40.22818
G1 X74.558 Y102.347 E40.25027
G1 X74.01 Y102.103 E40.2802
G1 X73.629 Y101.798 E40.30455
G1 X73.235 Y101.274 E40.33725
G1 X73.083 Y100.914 E40.35675
G1 X72.98 Y100.36 E40.38486
G1 X73.021 Y99.797 E40.41303
G1 X73.187 Y99.299 E40.43922
G1 X73.408 Y98.928 E40.46076
G1 X73.706 Y98.602 E40.48279
G1 X74.067 Y98.337 E40.50514
G1 X74.564 Y98.126 E40.53207
G1 X75.006 Y98.044 E40.5545
G1 X75.338 Y98.044 E40.57107
G1 X75.765 Y98.117 E40.59268
G1 X76.179 Y98.281 E40.61489
G1 X76.533 Y98.507 E40.63585
G1 X76.848 Y98.808 E40.65758
G1 X77.117 Y99.197 E40.68118
G1 X77.273 Y99.565 E40.70112
G1 X77.364 Y99.991 E40.72285
G1 X77.339 Y100.669 E40.7567
G1 X77.192 Y101.116 E40.78018
G1 X76.853 Y101.663 E40.81228
G1 X76.569 Y101.943 E40.83218
G1 X76.259 Y102.151 E40.85081
G1 X75.862 Y102.327 E40.87247
G0 F3600 X75.667 Y102.37
G0 X75.736 Y102.676
G0 X79.178 Y101.214
G0 X85.379 Y95.013
G0 X92.988 Y102.622
G0 X99.481 Y102.672
G0 X100.026 Y102.6
G0 X99.899 Y102.315
G1 F4200 X99.429 Y102.424 E40.89654
G1 X98.993 Y102.43 E40.9183
G1 X98.558 Y102.347 E40.94039
G1 X97.966 Y102.077 E40.97285
G1 X97.646 Y101.818 E40.99339
G1 X97.235 Y101.274 E41.02741
G1 X97.083 Y100.914 E41.0469
G1 X96.98 Y100.325 E41.07673
G1 X97.026 Y99.78 E41.10402
G1 X97.2 Y99.272 E41.13081
G1 X97.433 Y98.895 E41.15292
G1 X97.701 Y98.607 E41.17255
G1 X98.068 Y98.336 E41.19531
G1 X98.552 Y98.13 E41.22155
G1 X99.011 Y98.044 E41.24485
G1 X99.337 Y98.044 E41.26111
G1 X99.764 Y98.117 E41.28273
G1 X100.18 Y98.281 E41.30503
G1 X100.549 Y98.519 E41.32694
G1 X100.861 Y98.822 E41.34864
G1 X101.108 Y99.179 E41.3703
G1 X101.28 Y99.584 E41.39225
G1 X101.368 Y100.014 E41.41415
G1 X101.337 Y100.668 E41.44681
G1 X101.206 Y101.087 E41.46871
G1 X100.884 Y101.624 E41.49995
G1 X100.569 Y101.943 E41.52232
G1 X100.287 Y102.135 E41.53934
G1 X99.899 Y102.315 E41.56068
G0 F3600 X99.704 Y102.36
G0 X99.773 Y102.668
G0 X100.398 Y102.365
G0 X119.443 Y91.586
G0 X119.198 Y91.243
G1 F4200 X119.122 Y91.367 E41.56793
G1 X118.986 Y91.428 E41.57537
G1 X118.83 Y91.397 E41.5833
G1 X102.413 Y74.988 E42.74133
G1 X72.583 Y74.989 E44.22956
G1 X56.18 Y91.39 E45.38681
G1 X56.018 Y91.429 E45.39512
G1 X55.878 Y91.367 E45.40276
G1 X55.8 Y91.259 E45.4094
G1 X55.8 Y57.348 E47.10123
G1 X55.893 Y57.218 E47.1092
G1 X60.196 Y55.647 E47.33774
G1 X60.196 Y50.074 E47.61578
G1 X51.2 Y53.349 E48.09341
G1 X51.2 Y123.008 E51.56871
G1 X57.717 Y123.008 E51.89384
G1 X85.245 Y95.48 E53.83609
G1 X85.385 Y95.432 E53.84348
G1 X85.487 Y95.46 E53.84875
G1 X113.039 Y123.008 E55.79256
G1 X123.8 Y123.008 E56.32942
G1 X123.8 Y53.349 E59.80473
G1 X114.8 Y50.074 E60.28254
G1 X114.8 Y55.647 E60.56058
G1 X119.107 Y57.218 E60.78931
G1 X119.2 Y57.348 E60.79728
G1 X119.198 Y91.243 E62.48831
G0 F3600 X119.122 Y91.367
G0 X119.072 Y91.389
G0 X119.221 Y91.75
G0 X119.924 Y118.938
G0 X119.713 Y119.621
G0 X119.386 Y120.128
G0 X118.483 Y120.869
G0 X118.384 Y120.574
G1 F4200 X117.975 Y120.707 E62.50977
G1 X117.579 Y120.759 E62.52969
G1 X117.137 Y120.732 E62.55178
G1 X116.667 Y120.598 E62.57617
G1 X116.132 Y120.289 E62.60699
G1 X115.737 Y119.877 E62.63547
G1 X115.509 Y119.493 E62.65775
G1 X115.321 Y118.9 E62.68878
G1 X115.301 Y118.435 E62.712
G1 X115.344 Y118.114 E62.72816
G1 X115.476 Y117.692 E62.75022
G1 X115.682 Y117.318 E62.77152
G1 X116.12 Y116.845 E62.80368
G1 X116.493 Y116.605 E62.82581
G1 X116.914 Y116.443 E62.84832
G1 X117.328 Y116.364 E62.86934
G1 X117.676 Y116.367 E62.88671
G1 X118.113 Y116.449 E62.90889
G1 X118.522 Y116.612 E62.93085
G1 X118.884 Y116.852 E62.95252
G1 X119.198 Y117.163 E62.97457
G1 X119.418 Y117.487 E62.99411
G1 X119.605 Y117.928 E63.01801
G1 X119.696 Y118.456 E63.04474
G1 X119.674 Y118.895 E63.06667
G1 X119.474 Y119.529 E63.09984
G1 X119.173 Y119.987 E63.12718
G1 X118.857 Y120.291 E63.14905
G1 X118.384 Y120.574 E63.17655
G0 F3600 X118.194 Y120.635
G0 X118.294 Y120.933
G0 X117.56 Y121.012
G0 X117.076 Y120.976
G0 X116.598 Y120.842
G0 X116.098 Y120.554
G0 X85.743 Y94.711
G0 X85.735 Y94.719
;TYPE:SKIN
G1 F4200 X85.387 Y94.653 E63.19423
G1 X84.959 Y94.74 E63.21601
G1 X84.738 Y94.887 E63.22926
G1 X77.837 Y101.779 E63.71584
G1 X77.734 Y101.818 E63.72134
G1 X77.746 Y101.7 E63.72725
G1 X77.941 Y101.339 E63.74772
G1 X78.114 Y100.721 E63.77974
G1 X78.144 Y99.91 E63.82023
G1 X77.986 Y99.247 E63.85423
G1 X77.754 Y98.747 E63.88173
G1 X77.41 Y98.273 E63.91095
G1 X76.976 Y97.868 E63.94057
G1 X76.547 Y97.594 E63.96596
G1 X75.952 Y97.357 E63.99792
G1 X75.418 Y97.266 E64.02494
G1 X74.841 Y97.279 E64.05374
G1 X74.318 Y97.384 E64.08035
G1 X73.705 Y97.637 E64.11343
G1 X73.194 Y98.01 E64.145
G1 X72.796 Y98.439 E64.17419
G1 X72.478 Y98.964 E64.20482
G1 X72.249 Y99.66 E64.24137
G1 X72.196 Y100.396 E64.27818
G1 X72.335 Y101.136 E64.31575
G1 X72.565 Y101.679 E64.34517
G1 X73.008 Y102.269 E64.38198
G1 X73.564 Y102.76 E64.41899
G1 X74.272 Y103.068 E64.45751
G1 X74.89 Y103.201 E64.48904
G1 X75.477 Y103.2 E64.51833
G1 X76.034 Y103.084 E64.54671
G1 X76.555 Y102.871 E64.5748
G1 X76.687 Y102.851 E64.58146
G1 X76.629 Y102.99 E64.58897
G1 X60.157 Y119.459 E65.75105
G1 X60.053 Y119.498 E65.75659
G1 X60.066 Y119.38 E65.76252
G1 X60.274 Y118.981 E65.78497
G1 X60.447 Y118.3 E65.82002
G1 X60.465 Y117.677 E65.85111
G1 X60.324 Y116.982 E65.88649
G1 X60.145 Y116.549 E65.90987
G1 X59.793 Y116.03 E65.94116
G1 X59.257 Y115.502 E65.97869
G1 X58.697 Y115.182 E66.01087
G1 X58.125 Y114.991 E66.04096
G1 X57.284 Y114.944 E66.08298
G1 X56.671 Y115.055 E66.11406
G1 X56.094 Y115.291 E66.14516
G1 X55.671 Y115.561 E66.1702
G1 X55.193 Y116.006 E66.20278
G1 X54.737 Y116.753 E66.24644
G1 X54.562 Y117.412 E66.28046
G1 X54.518 Y118.102 E66.31495
G1 X54.629 Y118.721 E66.34633
G1 X54.837 Y119.253 E66.37483
G1 X55.16 Y119.757 E66.40469
G1 X55.573 Y120.184 E66.43433
G1 X56.14 Y120.58 E66.46883
G1 X56.833 Y120.81 E66.50526
G1 X57.573 Y120.907 E66.5425
G1 X58.305 Y120.773 E66.57962
G1 X58.876 Y120.552 E66.61017
G1 X59.012 Y120.527 E66.61707
G1 X58.951 Y120.665 E66.6246
G1 X57.389 Y122.228 E66.73484
G1 X51.98 Y122.228 E67.0047
G1 X51.98 Y53.893 E70.41394
