;FLAVOR:Marlin
;TIME:1425
;Filament used: 1.62326m
;Layer height: 0.2
;MINX:58.25
;MINY:66.875
;MINZ:0.2
;MAXX:116.75
;MAXY:107.009
;MAXZ:12.5
;TARGET_MACHINE.NAME:Unknown
;Generated with Cura_SteamEngine 5.10.0
M104 S200
M105
M109 S200
G28 ;Home
G1 Z15.0 F6000 ;Move the platform down 15mm
;Prime the extruder
G92 E0
G1 F200 E3
G92 E0
M82 ;absolute extrusion mode
G92 E0
G92 E0
G1 F1500 E-6.5
;LAYER_COUNT:62
;LAYER:0
M107
G0 F3600 X62.359 Y70.021 Z0.3
;TYPE:SKIRT
G1 F1500 E0
G1 F2250 X63.629 Y68.872 E0.07476
G1 X65.75 Y67.754 E0.17943
G1 X66.938 Y67.323 E0.2346
G1 X68.625 Y66.884 E0.31069
G1 X71.993 Y66.875 E0.45772
G1 X73.554 Y67.004 E0.5261
G1 X75.966 Y67.643 E0.63502
G1 X77.274 Y68.247 E0.69792
G1 X78.522 Y69.035 E0.76235
G1 X79.881 Y70.23 E0.84135
G1 X81.508 Y72.512 E0.96369
G1 X82.396 Y74.311 E1.05127
G1 X82.493 Y74.72 E1.06962
G1 X83.104 Y74.274 E1.10264
G1 X84.906 Y73.297 E1.19213
G1 X87.607 Y72.951 E1.311
G1 X90 Y73.28 E1.41644
G1 X92.454 Y74.558 E1.53723
G1 X92.602 Y74.68 E1.5456
G1 X92.777 Y74.107 E1.57176
G1 X93.648 Y72.228 E1.66217
G1 X94.348 Y71.174 E1.7174
G1 X95.359 Y70.021 E1.78434
G1 X96.629 Y68.872 E1.8591
G1 X98.75 Y67.754 E1.96377
G1 X99.938 Y67.323 E2.01894
G1 X101.625 Y66.884 E2.09503
G1 X105.383 Y66.887 E2.25909
G1 X106.463 Y66.986 E2.30643
G1 X109.049 Y67.674 E2.42325
G1 X110.353 Y68.291 E2.48622
G1 X111.522 Y69.035 E2.54671
G1 X112.833 Y70.188 E2.62293
G1 X114.529 Y72.531 E2.74919
G1 X115.489 Y74.508 E2.84513
G1 X115.875 Y77.561 E2.97947
G1 X115.814 Y88.832 E3.4715
G1 X115.678 Y89.736 E3.51141
G1 X115.048 Y91.874 E3.60871
G1 X114.507 Y93.001 E3.66328
G1 X115.259 Y93.76 E3.70992
G1 X116.417 Y95.79 E3.81194
G1 X116.732 Y97.93 E3.90637
G1 X116.75 Y99.95 E3.99455
G1 X116.273 Y101.906 E4.08244
G1 X115.058 Y104.177 E4.19488
G1 X113 Y105.874 E4.31132
G1 X110.961 Y106.768 E4.40851
G1 X109.181 Y106.982 E4.48678
G1 X105.048 Y107 E4.6672
G1 X102.441 Y106.339 E4.78461
G1 X100.651 Y105.03 E4.88141
G1 X100.143 Y105.522 E4.91228
G1 X98.459 Y106.383 E4.99485
G1 X96.733 Y107 E5.07486
G1 X78.341 Y106.897 E5.87776
G1 X76.794 Y106.603 E5.9465
G1 X74.539 Y105.334 E6.05946
G1 X74.382 Y105.192 E6.0687
G1 X72.88 Y106.286 E6.14982
G1 X70.384 Y107.009 E6.26325
G1 X65.107 Y106.916 E6.49365
G1 X63.561 Y106.64 E6.56221
G1 X61.038 Y105.285 E6.68723
G1 X59.382 Y103.26 E6.80142
G1 X58.473 Y101.189 E6.90015
G1 X58.268 Y99.469 E6.97577
G1 X58.25 Y97.672 E7.05422
G1 X58.855 Y95.389 E7.15732
G1 X59.176 Y94.685 E7.1911
G1 X60.477 Y92.981 E7.28469
G1 X60.126 Y92.434 E7.31306
G1 X59.615 Y90.948 E7.38166
G1 X59.125 Y87.94 E7.5147
G1 X59.187 Y76.664 E8.00695
G1 X59.332 Y75.72 E8.04864
G1 X59.949 Y73.628 E8.14385
G1 X60.491 Y72.5 E8.19848
G1 X61.367 Y71.153 E8.26863
G1 X62.359 Y70.021 E8.33433
G0 F3600 X62.594 Y70.281
G1 F2250 X63.832 Y69.161 E8.40721
G1 X65.913 Y68.064 E8.5099
G1 X67.026 Y67.662 E8.56156
G1 X68.671 Y67.234 E8.63576
G1 X71.994 Y67.225 E8.78083
G1 X73.525 Y67.353 E8.84789
G1 X75.819 Y67.961 E8.95149
G1 X77.127 Y68.565 E9.01439
G1 X78.291 Y69.298 E9.07444
G1 X79.618 Y70.465 E9.15158
G1 X81.194 Y72.667 E9.26979
G1 X82.082 Y74.466 E9.35737
G1 X82.187 Y74.969 E9.3798
G1 X82.528 Y75.129 E9.39624
G1 X83.271 Y74.582 E9.43652
G1 X85.017 Y73.635 E9.52323
G1 X87.603 Y73.304 E9.63704
G1 X89.894 Y73.619 E9.73799
G1 X92.292 Y74.868 E9.85602
G1 X92.546 Y75.108 E9.87128
G1 X92.891 Y74.934 E9.88814
G1 X93.095 Y74.254 E9.91913
G1 X93.94 Y72.422 E10.00721
G1 X94.64 Y71.368 E10.06244
G1 X95.594 Y70.281 E10.12558
G1 X96.832 Y69.161 E10.19845
G1 X98.913 Y68.064 E10.30115
G1 X100.026 Y67.662 E10.3528
G1 X101.671 Y67.234 E10.42701
G1 X105.351 Y67.236 E10.58765
G1 X106.431 Y67.335 E10.635
G1 X108.9 Y67.991 E10.74652
G1 X110.166 Y68.587 E10.8076
G1 X111.291 Y69.298 E10.8657
G1 X112.572 Y70.425 E10.94018
G1 X114.214 Y72.684 E11.06209
G1 X115.149 Y74.61 E11.15555
G1 X115.525 Y77.559 E11.28533
G1 X115.468 Y88.781 E11.77522
G1 X115.342 Y89.637 E11.81299
G1 X114.712 Y91.775 E11.91029
G1 X114.22 Y92.799 E11.95989
G1 X114.062 Y93.049 E11.9728
G1 X114.978 Y93.974 E12.02963
G1 X116.08 Y95.906 E12.12672
G1 X116.382 Y97.933 E12.21618
G1 X116.4 Y99.91 E12.30249
G1 X115.944 Y101.779 E12.38647
G1 X114.782 Y103.951 E12.49401
G1 X112.816 Y105.572 E12.60524
G1 X110.864 Y106.428 E12.69829
G1 X109.179 Y106.632 E12.77238
G1 X105.09 Y106.65 E12.95088
G1 X102.593 Y106.017 E13.06333
G1 X100.619 Y104.573 E13.1701
G1 X99.937 Y105.234 E13.21156
G1 X98.3 Y106.071 E13.29182
G1 X96.673 Y106.65 E13.36721
G1 X78.406 Y106.553 E14.16465
G1 X76.916 Y106.27 E14.23086
G1 X74.711 Y105.029 E14.34131
G1 X74.423 Y104.73 E14.35943
G1 X72.723 Y105.967 E14.45121
G1 X70.339 Y106.658 E14.55957
G1 X65.168 Y106.571 E14.78533
G1 X63.676 Y106.305 E14.85149
G1 X61.266 Y105.01 E14.97093
G1 X59.682 Y103.073 E15.08016
G1 X58.815 Y101.098 E15.17431
G1 X58.616 Y99.428 E15.24773
G1 X58.6 Y97.715 E15.32251
G1 X59.193 Y95.479 E15.4235
G1 X59.477 Y94.867 E15.45295
G1 X60.904 Y92.998 E15.5556
G1 X60.443 Y92.279 E15.59289
G1 X59.946 Y90.834 E15.65959
G1 X59.475 Y87.942 E15.78751
G1 X59.533 Y76.716 E16.27757
G1 X59.668 Y75.819 E16.31717
G1 X60.285 Y73.727 E16.41238
G1 X60.785 Y72.69 E16.46264
G1 X61.631 Y71.383 E16.5306
G1 X62.594 Y70.281 E16.59449
G0 F3600 X62.829 Y70.541
G1 F2250 X64.035 Y69.45 E16.66548
G1 X66.076 Y68.374 E16.7662
G1 X67.114 Y68.001 E16.81435
G1 X68.717 Y67.584 E16.88666
G1 X71.995 Y67.575 E17.02976
G1 X73.436 Y67.692 E17.09287
G1 X75.672 Y68.279 E17.19379
G1 X76.98 Y68.883 E17.25668
G1 X78.06 Y69.561 E17.31235
G1 X79.355 Y70.7 E17.38764
G1 X80.909 Y72.871 E17.50418
G1 X81.768 Y74.62 E17.58925
G1 X81.875 Y75.21 E17.61542
G1 X82.568 Y75.535 E17.64884
G1 X83.438 Y74.89 E17.69611
G1 X85.128 Y73.974 E17.78003
G1 X87.6 Y73.657 E17.88883
G1 X89.788 Y73.958 E17.98524
G1 X92.13 Y75.178 E18.10052
G1 X92.471 Y75.537 E18.12213
G1 X93.184 Y75.179 E18.15696
G1 X93.413 Y74.4 E18.19241
G1 X94.232 Y72.616 E18.2781
G1 X94.932 Y71.562 E18.33333
G1 X95.829 Y70.541 E18.39266
G1 X97.035 Y69.45 E18.46365
G1 X99.076 Y68.374 E18.56438
G1 X100.114 Y68.001 E18.61253
G1 X101.717 Y67.584 E18.68483
G1 X105.319 Y67.585 E18.84207
G1 X106.399 Y67.684 E18.88942
G1 X108.752 Y68.308 E18.99569
G1 X109.98 Y68.883 E19.05488
G1 X111.06 Y69.561 E19.11054
G1 X112.312 Y70.662 E19.18333
G1 X113.899 Y72.837 E19.30086
G1 X114.809 Y74.712 E19.39184
G1 X115.175 Y77.557 E19.51706
G1 X115.118 Y88.779 E20.00695
G1 X115.006 Y89.539 E20.04049
G1 X114.396 Y91.624 E20.13532
G1 X113.924 Y92.612 E20.18312
G1 X113.617 Y93.097 E20.20818
G1 X114.696 Y94.187 E20.27513
G1 X115.744 Y96.023 E20.36742
G1 X116.032 Y97.936 E20.45187
G1 X116.05 Y99.87 E20.5363
G1 X115.615 Y101.652 E20.61638
G1 X114.506 Y103.725 E20.71901
G1 X112.631 Y105.271 E20.82509
G1 X110.769 Y106.087 E20.91384
G1 X109.177 Y106.282 E20.98386
G1 X105.132 Y106.3 E21.16044
G1 X102.745 Y105.695 E21.26793
G1 X100.79 Y104.265 E21.37367
G1 X100.63 Y104.075 E21.38451
G1 X99.73 Y104.947 E21.43922
G1 X98.183 Y105.741 E21.51513
G1 X96.613 Y106.3 E21.58788
G1 X78.471 Y106.209 E22.37986
G1 X77.038 Y105.937 E22.44353
G1 X74.883 Y104.724 E22.55148
G1 X74.459 Y104.239 E22.57961
G1 X74.359 Y104.344 E22.58594
G1 X72.566 Y105.648 E22.68272
G1 X70.293 Y106.307 E22.78603
G1 X65.23 Y106.226 E23.00708
G1 X63.791 Y105.969 E23.07089
G1 X61.494 Y104.735 E23.18472
G1 X59.982 Y102.886 E23.28899
G1 X59.157 Y101.007 E23.37857
G1 X58.964 Y99.387 E23.44979
G1 X58.95 Y97.757 E23.52095
G1 X59.511 Y95.626 E23.61714
G1 X59.78 Y95.046 E23.64505
G1 X61.209 Y93.175 E23.74783
G1 X61.355 Y93.053 E23.75613
G1 X60.76 Y92.124 E23.80429
G1 X60.277 Y90.72 E23.86911
G1 X59.825 Y87.944 E23.99189
G1 X59.879 Y76.767 E24.47981
G1 X60.004 Y75.917 E24.51732
G1 X60.601 Y73.878 E24.61006
G1 X61.079 Y72.88 E24.65837
G1 X61.895 Y71.613 E24.72416
G1 X62.829 Y70.541 E24.78623
G0 F3600 X63.064 Y70.801
G1 F2250 X64.239 Y69.738 E24.85539
G1 X66.195 Y68.703 E24.952
G1 X67.202 Y68.34 E24.99873
G1 X68.763 Y67.934 E25.06914
G1 X71.996 Y67.925 E25.21027
G1 X73.407 Y68.041 E25.27208
G1 X75.582 Y68.617 E25.3703
G1 X76.795 Y69.18 E25.42867
G1 X77.829 Y69.824 E25.48185
G1 X79.092 Y70.935 E25.55528
G1 X80.624 Y73.075 E25.67017
G1 X81.454 Y74.774 E25.75272
G1 X81.558 Y75.448 E25.78249
G1 X82.609 Y75.941 E25.83317
G1 X83.605 Y75.198 E25.88741
G1 X85.239 Y74.312 E25.96855
G1 X87.596 Y74.01 E26.07229
G1 X89.682 Y74.297 E26.16421
G1 X91.968 Y75.488 E26.27673
G1 X92.384 Y75.972 E26.30459
G1 X93.477 Y75.424 E26.35796
G1 X93.731 Y74.545 E26.39791
G1 X94.524 Y72.81 E26.48118
G1 X95.224 Y71.756 E26.53642
G1 X96.064 Y70.801 E26.59194
G1 X97.239 Y69.738 E26.66111
G1 X99.195 Y68.703 E26.75771
G1 X100.202 Y68.34 E26.80444
G1 X101.763 Y67.934 E26.87485
G1 X105.287 Y67.934 E27.02869
G1 X106.367 Y68.033 E27.07603
G1 X108.604 Y68.625 E27.17705
G1 X109.795 Y69.18 E27.23441
G1 X110.829 Y69.824 E27.28758
G1 X112.053 Y70.9 E27.35873
G1 X113.584 Y72.99 E27.47182
G1 X114.469 Y74.814 E27.56033
G1 X114.825 Y77.555 E27.68099
G1 X114.771 Y88.73 E28.16882
G1 X114.67 Y89.441 E28.20017
G1 X114.08 Y91.474 E28.29258
G1 X113.628 Y92.425 E28.33855
G1 X113.172 Y93.145 E28.37575
G1 X114.414 Y94.4 E28.45283
G1 X115.408 Y96.14 E28.54031
G1 X115.682 Y97.939 E28.61975
G1 X115.7 Y99.83 E28.7023
G1 X115.286 Y101.525 E28.77847
G1 X114.23 Y103.499 E28.8762
G1 X112.447 Y104.969 E28.97708
G1 X110.672 Y105.747 E29.06168
G1 X109.175 Y105.932 E29.12753
G1 X105.174 Y105.95 E29.30219
G1 X102.899 Y105.373 E29.40464
G1 X100.997 Y103.982 E29.50751
G1 X100.672 Y103.547 E29.53121
G1 X99.523 Y104.66 E29.60105
G1 X98.066 Y105.411 E29.6726
G1 X96.553 Y105.95 E29.74272
G1 X78.536 Y105.865 E30.52924
G1 X77.16 Y105.604 E30.59038
G1 X75.105 Y104.447 E30.69333
G1 X74.448 Y103.696 E30.73689
G1 X74.153 Y104.061 E30.75737
G1 X72.409 Y105.329 E30.8515
G1 X70.247 Y105.956 E30.94977
G1 X65.291 Y105.881 E31.16614
G1 X63.906 Y105.634 E31.22756
G1 X61.722 Y104.46 E31.3358
G1 X60.282 Y102.699 E31.4351
G1 X59.499 Y100.916 E31.52011
G1 X59.312 Y99.346 E31.58913
G1 X59.3 Y97.802 E31.65654
G1 X59.829 Y95.773 E31.74807
G1 X60.083 Y95.225 E31.77444
G1 X61.487 Y93.387 E31.87541
G1 X61.832 Y93.148 E31.89373
G1 X61.077 Y91.969 E31.95484
G1 X60.608 Y90.606 E32.01777
G1 X60.175 Y87.946 E32.13542
G1 X60.226 Y76.816 E32.62129
G1 X60.34 Y76.015 E32.65661
G1 X60.917 Y74.029 E32.74689
G1 X61.395 Y73.031 E32.7952
G1 X62.159 Y71.843 E32.85686
G1 X63.064 Y70.801 E32.9171
G0 F3600 X63.299 Y71.061
G1 F2250 X64.444 Y70.026 E32.98448
G1 X66.314 Y69.032 E33.07693
G1 X67.29 Y68.679 E33.12224
G1 X68.809 Y68.284 E33.19075
G1 X71.997 Y68.275 E33.32992
G1 X73.378 Y68.39 E33.39042
G1 X75.435 Y68.935 E33.48331
G1 X76.611 Y69.478 E33.53986
G1 X77.598 Y70.087 E33.59049
G1 X78.829 Y71.17 E33.66206
G1 X80.339 Y73.279 E33.77529
G1 X81.116 Y74.88 E33.85298
G1 X81.241 Y75.687 E33.88863
G1 X82.425 Y76.236 E33.9456
G1 X82.662 Y76.413 E33.95851
G1 X82.848 Y76.193 E33.97109
G1 X83.772 Y75.506 E34.02135
G1 X85.35 Y74.65 E34.09972
G1 X87.592 Y74.363 E34.19839
G1 X89.576 Y74.636 E34.28582
G1 X91.747 Y75.767 E34.39268
G1 X92.297 Y76.407 E34.42952
G1 X93.772 Y75.668 E34.50153
G1 X94.05 Y74.69 E34.54592
G1 X94.816 Y73.004 E34.62676
G1 X95.516 Y71.95 E34.68199
G1 X96.299 Y71.061 E34.73371
G1 X97.444 Y70.026 E34.80109
G1 X99.314 Y69.032 E34.89354
G1 X100.29 Y68.679 E34.93884
G1 X101.809 Y68.284 E35.00736
G1 X105.255 Y68.283 E35.15779
G1 X106.335 Y68.382 E35.20513
G1 X108.457 Y68.943 E35.30095
G1 X109.611 Y69.478 E35.35648
G1 X110.598 Y70.087 E35.40711
G1 X111.792 Y71.137 E35.47652
G1 X113.269 Y73.143 E35.58526
G1 X114.129 Y74.916 E35.67129
G1 X114.475 Y77.553 E35.78739
G1 X114.424 Y88.681 E36.27317
G1 X114.323 Y89.392 E36.30452
G1 X113.764 Y91.324 E36.39232
G1 X113.332 Y92.238 E36.43645
G1 X112.695 Y93.243 E36.4884
G1 X112.926 Y93.394 E36.50044
G1 X114.134 Y94.614 E36.57539
G1 X115.071 Y96.256 E36.65792
G1 X115.332 Y97.942 E36.7324
G1 X115.35 Y99.79 E36.81307
G1 X114.957 Y101.398 E36.88534
G1 X113.954 Y103.273 E36.97816
G1 X112.263 Y104.667 E37.07383
G1 X110.575 Y105.407 E37.15429
G1 X109.173 Y105.582 E37.21597
G1 X105.216 Y105.6 E37.38871
G1 X103.051 Y105.051 E37.48621
G1 X101.204 Y103.7 E37.5861
G1 X100.689 Y102.957 E37.62557
G1 X100.535 Y103.194 E37.63791
G1 X99.319 Y104.371 E37.71178
G1 X97.948 Y105.081 E37.77918
G1 X96.492 Y105.6 E37.84666
G1 X78.601 Y105.521 E38.62768
G1 X77.282 Y105.271 E38.68629
G1 X75.329 Y104.171 E38.78413
G1 X74.428 Y103.143 E38.84381
G1 X73.947 Y103.778 E38.87858
G1 X72.254 Y105.009 E38.96996
G1 X70.2 Y105.605 E39.06332
G1 X65.353 Y105.536 E39.27494
G1 X64.021 Y105.298 E39.334
G1 X61.95 Y104.185 E39.43664
G1 X60.582 Y102.512 E39.53098
G1 X59.84 Y100.823 E39.61151
G1 X59.662 Y99.343 E39.67659
G1 X59.65 Y97.845 E39.74198
G1 X60.147 Y95.92 E39.82877
G1 X60.386 Y95.404 E39.8536
G1 X61.765 Y93.599 E39.95276
G1 X62.32 Y93.26 E39.98115
G1 X61.394 Y91.814 E40.0561
G1 X60.939 Y90.492 E40.11714
G1 X60.525 Y87.948 E40.22965
G1 X60.573 Y76.865 E40.71347
G1 X60.687 Y76.064 E40.74879
G1 X61.233 Y74.18 E40.83442
G1 X61.711 Y73.182 E40.88273
G1 X62.424 Y72.072 E40.94032
G1 X63.299 Y71.061 E40.99869
G0 F3600 X63.534 Y71.321
G1 F2250 X64.647 Y70.315 E41.06418
G1 X66.433 Y69.361 E41.15257
G1 X67.378 Y69.018 E41.19646
G1 X68.855 Y68.634 E41.26308
G1 X71.998 Y68.625 E41.40028
G1 X73.349 Y68.739 E41.45947
G1 X75.289 Y69.253 E41.54708
G1 X76.427 Y69.776 E41.60175
G1 X77.414 Y70.385 E41.65238
G1 X78.566 Y71.405 E41.71955
G1 X80.054 Y73.483 E41.83112
G1 X80.778 Y74.984 E41.90387
G1 X80.924 Y75.926 E41.94548
G1 X82.278 Y76.554 E42.01064
G1 X82.722 Y76.911 E42.03551
G1 X83.057 Y76.473 E42.05958
G1 X83.939 Y75.814 E42.10764
G1 X85.461 Y74.989 E42.18322
G1 X87.589 Y74.716 E42.27688
G1 X89.47 Y74.975 E42.35976
G1 X91.524 Y76.045 E42.46086
G1 X92.209 Y76.843 E42.50677
G1 X93.917 Y75.986 E42.5902
G1 X94.059 Y75.941 E42.5967
G1 X94.369 Y74.834 E42.64688
G1 X95.108 Y73.198 E42.72525
G1 X95.808 Y72.144 E42.78048
G1 X96.534 Y71.321 E42.82839
G1 X97.647 Y70.315 E42.89388
G1 X99.433 Y69.361 E42.98227
G1 X100.378 Y69.018 E43.02616
G1 X101.855 Y68.634 E43.09278
G1 X105.223 Y68.632 E43.23981
G1 X106.303 Y68.731 E43.28715
G1 X108.31 Y69.261 E43.37777
G1 X109.427 Y69.776 E43.43146
G1 X110.414 Y70.385 E43.48209
G1 X111.534 Y71.376 E43.54737
G1 X112.954 Y73.296 E43.65162
G1 X113.789 Y75.018 E43.73517
G1 X114.125 Y77.551 E43.84671
G1 X114.077 Y88.632 E44.33044
G1 X113.976 Y89.343 E44.36179
G1 X113.447 Y91.175 E44.44503
G1 X113.036 Y92.051 E44.48728
G1 X112.206 Y93.36 E44.55494
G1 X112.677 Y93.64 E44.57886
G1 X113.852 Y94.827 E44.65177
G1 X114.735 Y96.374 E44.72953
G1 X114.982 Y97.945 E44.79895
G1 X115 Y99.75 E44.87775
G1 X114.628 Y101.271 E44.9461
G1 X113.678 Y103.047 E45.03403
G1 X112.079 Y104.365 E45.12449
G1 X110.478 Y105.067 E45.2008
G1 X109.171 Y105.232 E45.25831
G1 X105.258 Y105.25 E45.42913
G1 X103.205 Y104.729 E45.52159
G1 X101.459 Y103.452 E45.61602
G1 X100.666 Y102.309 E45.67675
G1 X100.292 Y102.942 E45.70885
G1 X99.112 Y104.084 E45.78053
G1 X97.83 Y104.751 E45.84362
G1 X96.431 Y105.25 E45.90846
G1 X78.666 Y105.177 E46.68398
G1 X77.404 Y104.938 E46.74005
G1 X75.553 Y103.895 E46.83279
G1 X74.408 Y102.589 E46.90862
G1 X73.7 Y103.525 E46.95985
G1 X72.097 Y104.69 E47.04635
G1 X70.152 Y105.254 E47.13476
G1 X65.414 Y105.191 E47.34161
G1 X64.136 Y104.963 E47.39828
G1 X62.178 Y103.91 E47.49533
G1 X60.882 Y102.325 E47.58471
G1 X60.181 Y100.729 E47.6608
G1 X60.012 Y99.34 E47.72189
G1 X60 Y97.888 E47.78527
G1 X60.465 Y96.067 E47.86732
G1 X60.689 Y95.583 E47.8906
G1 X62.002 Y93.864 E47.98503
G1 X62.833 Y93.357 E48.02752
G1 X62.684 Y93.178 E48.03769
G1 X61.711 Y91.659 E48.11644
G1 X61.27 Y90.378 E48.17558
G1 X60.875 Y87.949 E48.28301
G1 X60.92 Y76.914 E48.76473
G1 X61.034 Y76.113 E48.80005
G1 X61.549 Y74.33 E48.88107
G1 X62.006 Y73.37 E48.92748
G1 X62.689 Y72.301 E48.98286
G1 X63.534 Y71.321 E49.03935
G0 F3600 X63.769 Y71.581
G1 F2250 X64.853 Y70.601 E49.10314
G1 X66.553 Y69.69 E49.18734
G1 X67.466 Y69.357 E49.22976
G1 X68.901 Y68.984 E49.29448
G1 X71.999 Y68.975 E49.42972
G1 X73.319 Y69.088 E49.48756
G1 X75.143 Y69.571 E49.56993
G1 X76.245 Y70.075 E49.62283
G1 X77.182 Y70.647 E49.67075
G1 X78.303 Y71.639 E49.7361
G1 X79.769 Y73.687 E49.84604
