;FLAVOR:Marlin
;TIME:2856
;Filament used: 2.77681m
;Layer height: 0.2
;MINX:59.125
;MINY:41.777
;MINZ:0.3
;MAXX:115.875
;MAXY:107.597
;MAXZ:12.5
;TARGET_MACHINE.NAME:Unknown
;Generated with Cura_SteamEngine 5.10.0
M104 S200
M105
M109 S200
G28 ;Home
G1 Z15.0 F6000 ;Move the platform down 15mm
;Prime the extruder
G92 E0
G1 F200 E3
G92 E0
M82 ;absolute extrusion mode
G92 E0
G92 E0
G1 F1500 E-6.5
;LAYER_COUNT:62
;LAYER:0
M107
G0 F3600 X61.367 Y46.053 Z0.3
;TYPE:SKIRT
G1 F1500 E0
G1 F2250 X62.359 Y44.921 E0.06571
G1 X63.629 Y43.772 E0.14047
G1 X65.75 Y42.654 E0.24513
G1 X66.938 Y42.223 E0.3003
G1 X68.625 Y41.784 E0.3764
G1 X72.056 Y41.777 E0.52618
G1 X73.557 Y41.904 E0.59194
G1 X75.966 Y42.543 E0.70073
G1 X77.274 Y43.147 E0.76363
G1 X78.522 Y43.935 E0.82806
G1 X79.881 Y45.13 E0.90706
G1 X81.508 Y47.412 E1.0294
G1 X82.396 Y49.211 E1.11698
G1 X82.494 Y49.623 E1.13547
G1 X83.264 Y49.979 E1.1725
G1 X84.861 Y51.338 E1.26404
G1 X85.476 Y52.076 E1.30598
G1 X86.555 Y54.227 E1.41103
G1 X86.823 Y55.893 E1.48469
G1 X86.852 Y58.853 E1.61392
G1 X88.131 Y58.937 E1.66987
G1 X88.121 Y55.88 E1.80332
G1 X88.485 Y54.209 E1.87798
G1 X89.328 Y52.387 E1.96561
G1 X90.728 Y50.751 E2.05961
G1 X91.423 Y50.179 E2.09891
G1 X92.599 Y49.589 E2.15634
G1 X92.777 Y49.007 E2.18291
G1 X93.648 Y47.128 E2.27332
G1 X94.348 Y46.074 E2.32855
G1 X95.359 Y44.921 E2.3955
G1 X96.629 Y43.772 E2.47026
G1 X98.75 Y42.654 E2.57492
G1 X99.938 Y42.223 E2.63009
G1 X101.625 Y41.784 E2.70619
G1 X105.383 Y41.787 E2.87024
G1 X106.463 Y41.886 E2.91758
G1 X109.049 Y42.574 E3.0344
G1 X110.353 Y43.191 E3.09738
G1 X111.522 Y43.935 E3.15787
G1 X112.833 Y45.088 E3.23408
G1 X114.529 Y47.431 E3.36035
G1 X115.489 Y49.408 E3.45629
G1 X115.875 Y52.461 E3.59062
G1 X115.815 Y63.73 E4.08257
G1 X115.689 Y64.586 E4.12034
G1 X115.032 Y66.82 E4.22199
G1 X114.621 Y67.696 E4.26423
G1 X113.622 Y69.261 E4.34528
G1 X112.831 Y70.186 E4.39841
G1 X114.529 Y72.531 E4.5248
G1 X115.489 Y74.508 E4.62074
G1 X115.875 Y77.561 E4.75508
G1 X115.813 Y88.835 E5.24724
G1 X115.666 Y89.787 E5.28929
G1 X115.022 Y91.937 E5.38727
G1 X114.434 Y93.138 E5.44564
G1 X113.8 Y94.116 E5.49652
G1 X112.611 Y95.496 E5.57604
G1 X111.519 Y96.431 E5.6388
G1 X109.676 Y97.629 E5.73475
G1 X109.052 Y97.834 E5.76343
G1 X109.161 Y98.355 E5.78666
G1 X109.122 Y100.411 E5.87643
G1 X108.371 Y102.68 E5.98077
G1 X107.98 Y103.425 E6.01749
G1 X106.376 Y105.265 E6.12405
G1 X104.368 Y106.503 E6.22703
G1 X100.645 Y107.545 E6.3958
G1 X98.275 Y107.597 E6.49928
G1 X94.785 Y106.583 E6.65794
G1 X92.572 Y105.387 E6.76775
G1 X91.057 Y103.563 E6.87126
G1 X90.886 Y103.713 E6.88119
G1 X89.107 Y104.739 E6.97084
G1 X85.534 Y105.739 E7.13281
G1 X83.208 Y105.809 E7.23439
G1 X80.778 Y105.103 E7.34486
G1 X79.139 Y104.199 E7.42657
G1 X78.028 Y105.422 E7.4987
G1 X76 Y106.562 E7.60026
G1 X72.483 Y107.542 E7.75964
G1 X70.118 Y107.593 E7.8629
G1 X66.459 Y106.52 E8.02936
G1 X64.293 Y105.263 E8.13868
G1 X62.702 Y103.317 E8.24841
G1 X62.116 Y102.199 E8.30351
G1 X61.536 Y100.096 E8.39874
G1 X61.576 Y97.869 E8.49598
G1 X61.939 Y96.576 E8.5546
G1 X62.425 Y95.506 E8.60591
G1 X62.186 Y95.287 E8.62006
G1 X61.293 Y94.237 E8.68023
G1 X60.125 Y92.43 E8.77415
G1 X59.615 Y90.948 E8.84257
G1 X59.125 Y87.94 E8.97562
G1 X59.187 Y76.664 E9.46786
G1 X59.332 Y75.72 E9.50956
G1 X59.949 Y73.628 E9.60477
G1 X60.491 Y72.5 E9.6594
G1 X61.367 Y71.153 E9.72954
G1 X62.201 Y70.196 E9.78496
G1 X61.209 Y69.023 E9.85202
G1 X60.126 Y67.334 E9.93961
G1 X59.615 Y65.848 E10.00821
G1 X59.125 Y62.84 E10.14125
G1 X59.187 Y51.564 E10.6335
G1 X59.332 Y50.62 E10.67519
G1 X59.949 Y48.528 E10.7704
G1 X60.491 Y47.4 E10.82503
G1 X61.367 Y46.053 E10.89518
G0 F3600 X61.631 Y46.283
G1 F2250 X62.594 Y45.181 E10.95906
G1 X63.832 Y44.061 E11.03194
G1 X65.913 Y42.964 E11.13463
G1 X67.026 Y42.562 E11.18629
G1 X68.671 Y42.134 E11.2605
G1 X72.057 Y42.127 E11.40831
G1 X73.468 Y42.243 E11.47011
G1 X75.819 Y42.861 E11.57623
G1 X77.127 Y43.465 E11.63912
G1 X78.291 Y44.198 E11.69917
G1 X79.618 Y45.365 E11.77631
G1 X81.194 Y47.567 E11.89452
G1 X82.082 Y49.366 E11.9821
G1 X82.187 Y49.867 E12.00445
G1 X83.073 Y50.277 E12.04707
G1 X84.634 Y51.605 E12.13653
G1 X85.181 Y52.269 E12.17409
G1 X86.218 Y54.335 E12.275
G1 X86.477 Y55.948 E12.34632
G1 X86.505 Y59.215 E12.48894
G1 X86.672 Y59.192 E12.4963
G1 X88.482 Y59.31 E12.57548
G1 X88.471 Y55.917 E12.7236
G1 X88.818 Y54.323 E12.79481
G1 X89.627 Y52.576 E12.87886
G1 X90.951 Y51.021 E12.96801
G1 X91.615 Y50.474 E13.00557
G1 X92.891 Y49.834 E13.06788
G1 X93.095 Y49.154 E13.09887
G1 X93.94 Y47.322 E13.18694
G1 X94.64 Y46.268 E13.24218
G1 X95.594 Y45.181 E13.30531
G1 X96.832 Y44.061 E13.37819
G1 X98.913 Y42.964 E13.48088
G1 X100.026 Y42.562 E13.53254
G1 X101.671 Y42.134 E13.60675
G1 X105.351 Y42.136 E13.76739
G1 X106.431 Y42.235 E13.81474
G1 X108.9 Y42.891 E13.92626
G1 X110.166 Y43.487 E13.98734
G1 X111.291 Y44.198 E14.04544
G1 X112.572 Y45.325 E14.11992
G1 X114.214 Y47.584 E14.24183
G1 X115.149 Y49.51 E14.33529
G1 X115.525 Y52.459 E14.46507
G1 X115.465 Y63.728 E14.95701
G1 X115.353 Y64.488 E14.99055
G1 X114.715 Y66.671 E15.08983
G1 X114.304 Y67.547 E15.13207
G1 X113.356 Y69.033 E15.20902
G1 X112.616 Y69.898 E15.25871
G1 X112.297 Y70.182 E15.27736
G1 X112.595 Y70.456 E15.29503
G1 X114.214 Y72.684 E15.41526
G1 X115.149 Y74.61 E15.50872
G1 X115.525 Y77.559 E15.6385
G1 X115.467 Y88.783 E16.12847
G1 X115.331 Y89.687 E16.16838
G1 X114.707 Y91.784 E16.26389
G1 X114.14 Y92.948 E16.32041
G1 X113.534 Y93.888 E16.36923
G1 X112.383 Y95.23 E16.44641
G1 X111.291 Y96.165 E16.50917
G1 X109.521 Y97.312 E16.60124
G1 X108.639 Y97.602 E16.64177
G1 X108.811 Y98.348 E16.67519
G1 X108.773 Y100.35 E16.7626
G1 X108.061 Y102.517 E16.86218
G1 X107.689 Y103.226 E16.89713
G1 X106.147 Y104.995 E16.99957
G1 X104.225 Y106.18 E17.09814
G1 X100.596 Y107.196 E17.26265
G1 X98.321 Y107.246 E17.36199
G1 X94.918 Y106.257 E17.51669
G1 X92.798 Y105.112 E17.62187
G1 X91.087 Y103.052 E17.73877
G1 X90.711 Y103.41 E17.76144
G1 X88.97 Y104.414 E17.84917
G1 X85.482 Y105.39 E18.00728
G1 X83.252 Y105.457 E18.10468
G1 X80.911 Y104.777 E18.21109
G1 X79.066 Y103.759 E18.30308
G1 X77.807 Y105.145 E18.38482
G1 X75.866 Y106.236 E18.48202
G1 X72.432 Y107.193 E18.63764
G1 X70.164 Y107.242 E18.73667
G1 X66.6 Y106.197 E18.89881
G1 X64.522 Y104.991 E19.00369
G1 X62.997 Y103.125 E19.10889
G1 X62.442 Y102.067 E19.16104
G1 X61.887 Y100.053 E19.25224
G1 X61.925 Y97.92 E19.34537
G1 X62.258 Y96.721 E19.39969
G1 X62.849 Y95.419 E19.46211
G1 X62.453 Y95.06 E19.48544
G1 X61.56 Y94.01 E19.54562
G1 X60.442 Y92.276 E19.63568
G1 X59.946 Y90.834 E19.70225
G1 X59.475 Y87.942 E19.83016
G1 X59.533 Y76.716 E20.32023
G1 X59.668 Y75.819 E20.35982
G1 X60.285 Y73.727 E20.45504
G1 X60.785 Y72.69 E20.50529
G1 X61.631 Y71.383 E20.57326
G1 X62.685 Y70.173 E20.64331
G1 X62.491 Y69.997 E20.65475
G1 X61.504 Y68.834 E20.72133
G1 X60.443 Y67.179 E20.80715
G1 X59.946 Y65.734 E20.87386
G1 X59.475 Y62.842 E21.00177
G1 X59.533 Y51.616 E21.49184
G1 X59.668 Y50.719 E21.53143
G1 X60.285 Y48.627 E21.62665
G1 X60.785 Y47.59 E21.6769
G1 X61.631 Y46.283 E21.74487
G0 F3600 X61.895 Y46.513
G1 F2250 X62.829 Y45.441 E21.80694
G1 X64.035 Y44.35 E21.87793
G1 X66.076 Y43.274 E21.97865
G1 X67.114 Y42.901 E22.0268
G1 X68.717 Y42.484 E22.09911
G1 X72.058 Y42.477 E22.24495
G1 X73.439 Y42.592 E22.30545
G1 X75.672 Y43.179 E22.40624
G1 X76.98 Y43.783 E22.46913
G1 X78.06 Y44.461 E22.5248
G1 X79.355 Y45.6 E22.60009
G1 X80.909 Y47.771 E22.71664
G1 X81.768 Y49.52 E22.8017
G1 X81.875 Y50.109 E22.82783
G1 X82.884 Y50.576 E22.87637
G1 X84.364 Y51.827 E22.96096
G1 X84.884 Y52.459 E22.99669
G1 X85.88 Y54.443 E23.0936
G1 X86.131 Y56.004 E23.16262
G1 X86.158 Y59.657 E23.32209
G1 X86.649 Y59.541 E23.34412
G1 X88.678 Y59.673 E23.43288
G1 X88.833 Y59.711 E23.43984
G1 X88.821 Y55.955 E23.60381
G1 X89.152 Y54.436 E23.67168
G1 X89.926 Y52.765 E23.75207
G1 X91.173 Y51.291 E23.83635
G1 X91.805 Y50.771 E23.87208
G1 X93.184 Y50.079 E23.93943
G1 X93.413 Y49.3 E23.97488
G1 X94.232 Y47.516 E24.06057
G1 X94.932 Y46.462 E24.1158
G1 X95.829 Y45.441 E24.17513
G1 X97.035 Y44.35 E24.24612
G1 X99.076 Y43.274 E24.34685
G1 X100.114 Y42.901 E24.395
G1 X101.717 Y42.484 E24.4673
G1 X105.319 Y42.485 E24.62454
G1 X106.399 Y42.584 E24.67189
G1 X108.752 Y43.208 E24.77816
G1 X109.98 Y43.783 E24.83735
G1 X111.06 Y44.461 E24.89301
G1 X112.312 Y45.562 E24.9658
G1 X113.899 Y47.737 E25.08333
G1 X114.809 Y49.612 E25.17431
G1 X115.175 Y52.457 E25.29953
G1 X115.118 Y63.679 E25.78942
G1 X115.017 Y64.39 E25.82077
G1 X114.398 Y66.522 E25.91769
G1 X113.987 Y67.398 E25.95993
G1 X113.09 Y68.805 E26.03277
G1 X112.35 Y69.67 E26.08246
G1 X111.766 Y70.182 E26.11637
G1 X112.312 Y70.662 E26.1481
G1 X113.899 Y72.837 E26.26564
G1 X114.809 Y74.712 E26.35662
G1 X115.175 Y77.557 E26.48184
G1 X115.121 Y88.732 E26.96968
G1 X114.995 Y89.588 E27.00745
G1 X114.392 Y91.631 E27.10043
G1 X113.845 Y92.759 E27.15516
G1 X113.268 Y93.66 E27.20187
G1 X112.117 Y95.002 E27.27905
G1 X111.101 Y95.871 E27.33741
G1 X109.367 Y96.995 E27.42762
G1 X108.227 Y97.37 E27.48001
G1 X108.46 Y98.383 E27.52538
G1 X108.424 Y100.29 E27.60864
G1 X107.728 Y102.408 E27.70597
G1 X107.398 Y103.027 E27.73659
G1 X105.918 Y104.725 E27.83492
G1 X104.082 Y105.857 E27.92908
G1 X100.545 Y106.847 E28.08942
G1 X98.368 Y106.895 E28.18447
G1 X95.051 Y105.931 E28.33526
G1 X93.024 Y104.837 E28.43582
G1 X91.425 Y102.911 E28.54509
G1 X91.209 Y102.435 E28.56791
G1 X90.536 Y103.107 E28.60943
G1 X88.833 Y104.089 E28.69525
G1 X85.43 Y105.041 E28.8495
G1 X83.296 Y105.105 E28.9427
G1 X81.044 Y104.451 E29.04507
G1 X79.231 Y103.451 E29.13546
G1 X79.039 Y103.269 E29.14701
G1 X77.586 Y104.868 E29.24132
G1 X75.732 Y105.91 E29.33417
G1 X72.381 Y106.844 E29.48603
G1 X70.211 Y106.891 E29.58078
G1 X66.74 Y105.873 E29.73868
G1 X64.753 Y104.72 E29.83897
G1 X63.289 Y102.929 E29.93995
G1 X62.769 Y101.937 E29.98884
G1 X62.238 Y100.01 E30.0761
G1 X62.274 Y97.972 E30.16508
G1 X62.577 Y96.866 E30.21514
G1 X63.274 Y95.33 E30.28877
G1 X62.72 Y94.833 E30.32126
G1 X61.827 Y93.783 E30.38143
G1 X60.76 Y92.124 E30.46754
G1 X60.277 Y90.72 E30.53236
G1 X59.825 Y87.944 E30.65514
G1 X59.879 Y76.767 E31.14306
G1 X60.004 Y75.917 E31.18057
G1 X60.601 Y73.878 E31.27331
G1 X61.079 Y72.88 E31.32162
G1 X61.895 Y71.613 E31.38741
G1 X62.829 Y70.541 E31.44948
G1 X63.224 Y70.183 E31.47275
G1 X62.757 Y69.77 E31.49996
G1 X61.799 Y68.645 E31.56447
G1 X60.76 Y67.024 E31.64852
G1 X60.277 Y65.62 E31.71333
G1 X59.825 Y62.844 E31.83611
G1 X59.879 Y51.667 E32.32404
G1 X60.004 Y50.817 E32.36154
G1 X60.601 Y48.778 E32.45429
G1 X61.079 Y47.78 E32.5026
G1 X61.895 Y46.513 E32.56838
G0 F3600 X62.159 Y46.743
G1 F2250 X63.064 Y45.701 E32.62863
G1 X64.239 Y44.638 E32.6978
G1 X66.195 Y43.603 E32.79441
G1 X67.202 Y43.24 E32.84113
G1 X68.763 Y42.834 E32.91155
G1 X72.059 Y42.827 E33.05543
G1 X73.41 Y42.941 E33.11462
G1 X75.582 Y43.517 E33.21271
G1 X76.795 Y44.08 E33.27109
G1 X77.829 Y44.724 E33.32426
G1 X79.092 Y45.835 E33.39769
G1 X80.624 Y47.975 E33.51258
G1 X81.454 Y49.674 E33.59513
G1 X81.558 Y50.348 E33.6249
G1 X82.695 Y50.875 E33.67961
G1 X84.094 Y52.05 E33.75936
G1 X84.589 Y52.651 E33.79335
G1 X85.543 Y54.551 E33.88616
G1 X85.785 Y56.059 E33.95283
G1 X85.811 Y60.116 E34.12994
G1 X86.626 Y59.89 E34.16686
G1 X88.655 Y60.022 E34.25562
G1 X89.184 Y60.195 E34.27992
G1 X89.171 Y55.992 E34.4634
G1 X89.485 Y54.55 E34.52782
G1 X90.225 Y52.954 E34.60462
G1 X91.396 Y51.561 E34.68406
G1 X91.997 Y51.066 E34.71805
G1 X93.477 Y50.324 E34.79032
G1 X93.731 Y49.445 E34.83026
G1 X94.524 Y47.71 E34.91354
G1 X95.224 Y46.656 E34.96877
G1 X96.064 Y45.701 E35.0243
G1 X97.239 Y44.638 E35.09347
G1 X99.195 Y43.603 E35.19007
G1 X100.202 Y43.24 E35.2368
G1 X101.763 Y42.834 E35.30721
G1 X105.287 Y42.834 E35.46104
G1 X106.367 Y42.933 E35.50839
G1 X108.604 Y43.525 E35.6094
G1 X109.795 Y44.08 E35.66676
G1 X110.829 Y44.724 E35.71994
G1 X112.053 Y45.8 E35.79108
G1 X113.584 Y47.89 E35.90418
G1 X114.469 Y49.714 E35.99268
G1 X114.825 Y52.455 E36.11334
G1 X114.771 Y63.63 E36.60118
G1 X114.67 Y64.341 E36.63253
G1 X114.081 Y66.373 E36.72489
G1 X113.67 Y67.249 E36.76713
G1 X112.823 Y68.578 E36.83593
G1 X112.119 Y69.407 E36.8834
G1 X111.236 Y70.182 E36.93469
G1 X112.053 Y70.9 E36.98217
G1 X113.584 Y72.99 E37.09527
G1 X114.469 Y74.814 E37.18377
G1 X114.825 Y77.555 E37.30443
G1 X114.771 Y88.73 E37.79227
G1 X114.659 Y89.49 E37.82581
G1 X114.077 Y91.479 E37.91627
G1 X113.55 Y92.571 E37.9692
G1 X113.002 Y93.432 E38.01376
G1 X111.851 Y94.774 E38.09094
G1 X110.911 Y95.577 E38.14491
G1 X109.213 Y96.678 E38.23325
G1 X107.815 Y97.138 E38.2975
G1 X108.109 Y98.418 E38.35483
G1 X108.075 Y100.231 E38.43399
G1 X107.419 Y102.243 E38.52637
G1 X107.107 Y102.828 E38.55531
G1 X105.689 Y104.455 E38.64953
G1 X103.939 Y105.534 E38.73927
G1 X100.494 Y106.498 E38.89544
G1 X98.415 Y106.544 E38.98622
G1 X95.184 Y105.605 E39.1331
G1 X93.25 Y104.562 E39.22902
G1 X91.694 Y102.687 E39.33539
G1 X91.33 Y101.819 E39.37647
G1 X90.323 Y102.826 E39.43864
G1 X88.696 Y103.764 E39.52063
G1 X85.378 Y104.692 E39.67103
G1 X83.34 Y104.753 E39.76003
G1 X81.177 Y104.125 E39.85836
G1 X79.4 Y103.145 E39.94694
G1 X78.976 Y102.679 E39.97445
G1 X78.778 Y103.036 E39.99227
G1 X77.366 Y104.59 E40.08393
G1 X75.596 Y105.585 E40.17257
G1 X72.33 Y106.495 E40.32057
G1 X70.257 Y106.54 E40.41109
G1 X66.881 Y105.55 E40.56467
G1 X64.984 Y104.449 E40.66042
G1 X63.581 Y102.733 E40.75718
G1 X63.096 Y101.807 E40.80281
G1 X62.589 Y99.967 E40.88613
G1 X62.623 Y98.022 E40.97105
G1 X62.896 Y97.011 E41.01676
G1 X63.629 Y95.395 E41.09422
G1 X63.725 Y95.262 E41.10139
G1 X62.987 Y94.606 E41.14449
G1 X62.094 Y93.556 E41.20466
G1 X61.077 Y91.969 E41.28694
G1 X60.608 Y90.606 E41.34987
G1 X60.175 Y87.946 E41.46752
G1 X60.226 Y76.816 E41.95339
G1 X60.34 Y76.015 E41.98871
G1 X60.917 Y74.029 E42.07899
G1 X61.395 Y73.031 E42.1273
G1 X62.159 Y71.843 E42.18896
G1 X63.064 Y70.801 E42.24921
G1 X63.752 Y70.179 E42.28969
G1 X63.023 Y69.543 E42.33193
G1 X62.094 Y68.456 E42.39435
G1 X61.077 Y66.869 E42.47663
G1 X60.608 Y65.506 E42.53955
G1 X60.175 Y62.846 E42.6572
G1 X60.226 Y51.716 E43.14308
G1 X60.34 Y50.915 E43.17839
G1 X60.917 Y48.929 E43.26868
G1 X61.395 Y47.931 E43.31698
G1 X62.159 Y46.743 E43.37864
G0 F3600 X62.424 Y46.972
G1 F2250 X63.299 Y45.961 E43.43701
G1 X64.444 Y44.926 E43.50439
G1 X66.314 Y43.932 E43.59684
G1 X67.29 Y43.579 E43.64214
G1 X68.809 Y43.184 E43.71066
G1 X72.06 Y43.177 E43.85258
G1 X73.38 Y43.29 E43.91041
G1 X75.435 Y43.835 E44.00322
G1 X76.611 Y44.378 E44.05977
G1 X77.598 Y44.987 E44.1104
G1 X78.829 Y46.07 E44.18197
G1 X80.339 Y48.179 E44.2952
G1 X81.116 Y49.78 E44.37289
G1 X81.241 Y50.587 E44.40854
G1 X82.507 Y51.174 E44.46945
G1 X83.869 Y52.318 E44.5471
G1 X84.293 Y52.842 E44.57653
G1 X85.205 Y54.659 E44.66528
G1 X85.439 Y56.115 E44.72965
G1 X85.463 Y60.576 E44.9244
G1 X86.663 Y60.243 E44.97876
G1 X88.586 Y60.368 E45.06288
G1 X89.535 Y60.678 E45.10646
G1 X89.521 Y56.029 E45.30941
G1 X89.819 Y54.66 E45.37057
G1 X90.522 Y53.145 E45.44348
G1 X91.664 Y51.786 E45.52097
G1 X92.188 Y51.362 E45.5504
G1 X93.772 Y50.568 E45.62775
G1 X94.05 Y49.59 E45.67213
G1 X94.816 Y47.904 E45.75297
G1 X95.516 Y46.85 E45.80821
G1 X96.299 Y45.961 E45.85992
G1 X97.444 Y44.926 E45.9273
G1 X99.314 Y43.932 E46.01975
G1 X100.29 Y43.579 E46.06506
G1 X101.809 Y43.184 E46.13357
G1 X105.255 Y43.183 E46.284
G1 X106.335 Y43.282 E46.33135
G1 X108.457 Y43.843 E46.42716
G1 X109.611 Y44.378 E46.48269
G1 X110.598 Y44.987 E46.53332
G1 X111.792 Y46.037 E46.60273
G1 X113.269 Y48.043 E46.71148
G1 X114.129 Y49.816 E46.7975
G1 X114.475 Y52.453 E46.9136
G1 X114.424 Y63.581 E47.39939
G1 X114.323 Y64.292 E47.43074
G1 X113.764 Y66.224 E47.51854
G1 X113.353 Y67.1 E47.56078
G1 X112.556 Y68.351 E47.62553
G1 X111.852 Y69.18 E47.67301
G1 X110.706 Y70.182 E47.73946
G1 X111.792 Y71.137 E47.80259
G1 X113.269 Y73.143 E47.91134
G1 X114.129 Y74.916 E47.99736
G1 X114.475 Y77.553 E48.11346
G1 X114.424 Y88.681 E48.59925
G1 X114.323 Y89.392 E48.6306
G1 X113.761 Y91.328 E48.7186
G1 X113.254 Y92.384 E48.76974
G1 X112.736 Y93.205 E48.81211
G1 X111.623 Y94.508 E48.88692
G1 X110.72 Y95.283 E48.93887
G1 X109.057 Y96.362 E49.02541
