;FLAVOR:Marlin
;TIME:1401
;Filament used: 1.42424m
;Layer height: 0.2
;MINX:59.125
;MINY:66.875
;MINZ:0.3
;MAXX:115.875
;MAXY:107.585
;MAXZ:12.5
;TARGET_MACHINE.NAME:Unknown
;Generated with Cura_SteamEngine 5.10.0
M104 S200
M105
M109 S200
G28 ;Home
G1 Z15.0 F6000 ;Move the platform down 15mm
;Prime the extruder
G92 E0
G1 F200 E3
G92 E0
M82 ;absolute extrusion mode
G92 E0
G92 E0
G1 F1500 E-6.5
;LAYER_COUNT:62
;LAYER:0
M107
G0 F3600 X62.359 Y70.021 Z0.3
;TYPE:SKIRT
G1 F1500 E0
G1 F2400 X63.629 Y68.872 E0.07476
G1 X65.75 Y67.754 E0.17943
G1 X66.938 Y67.323 E0.2346
G1 X68.625 Y66.884 E0.31069
G1 X71.993 Y66.875 E0.45772
G1 X73.554 Y67.004 E0.5261
G1 X75.966 Y67.643 E0.63502
G1 X77.274 Y68.247 E0.69792
G1 X78.522 Y69.035 E0.76235
G1 X79.881 Y70.23 E0.84135
G1 X81.508 Y72.512 E0.96369
G1 X82.396 Y74.311 E1.05127
G1 X82.494 Y74.723 E1.06976
G1 X83.264 Y75.079 E1.10679
G1 X84.861 Y76.438 E1.19833
G1 X85.476 Y77.176 E1.24027
G1 X86.555 Y79.327 E1.34532
G1 X86.823 Y80.993 E1.41898
G1 X86.851 Y83.858 E1.54406
G1 X87.536 Y83.745 E1.57436
G1 X88.129 Y83.816 E1.60043
G1 X88.121 Y80.98 E1.72424
G1 X88.485 Y79.309 E1.79889
G1 X89.328 Y77.487 E1.88653
G1 X90.728 Y75.851 E1.98053
G1 X91.423 Y75.279 E2.01982
G1 X92.599 Y74.689 E2.07726
G1 X92.777 Y74.107 E2.10383
G1 X93.648 Y72.228 E2.19424
G1 X94.348 Y71.174 E2.24947
G1 X95.359 Y70.021 E2.31641
G1 X96.629 Y68.872 E2.39118
G1 X98.75 Y67.754 E2.49584
G1 X99.938 Y67.323 E2.55101
G1 X101.625 Y66.884 E2.62711
G1 X105.383 Y66.887 E2.79116
G1 X106.463 Y66.986 E2.8385
G1 X109.049 Y67.674 E2.95532
G1 X110.353 Y68.291 E3.01829
G1 X111.522 Y69.035 E3.07878
G1 X112.833 Y70.188 E3.155
G1 X114.529 Y72.531 E3.28126
G1 X115.489 Y74.508 E3.37721
G1 X115.875 Y77.561 E3.51154
G1 X115.815 Y88.83 E4.00348
G1 X115.689 Y89.686 E4.04126
G1 X115.032 Y91.92 E4.14291
G1 X114.621 Y92.796 E4.18515
G1 X113.62 Y94.363 E4.26632
G1 X112.937 Y95.162 E4.31221
G1 X113.641 Y96.704 E4.3862
G1 X114.04 Y98.645 E4.47271
G1 X113.78 Y101.013 E4.5767
G1 X113.189 Y102.578 E4.64973
G1 X112.248 Y104.06 E4.72636
G1 X110.92 Y105.386 E4.80829
G1 X109.188 Y106.49 E4.89795
G1 X105.353 Y107.574 E5.07192
G1 X102.995 Y107.585 E5.17486
G1 X99.545 Y106.583 E5.33169
G1 X97.332 Y105.389 E5.44146
G1 X96.266 Y104.105 E5.51431
G1 X95.93 Y104.412 E5.53418
G1 X94.101 Y105.456 E5.62611
G1 X90.592 Y106.431 E5.7851
G1 X88.288 Y106.504 E5.88573
G1 X84.493 Y105.393 E6.05835
G1 X82.652 Y104.294 E6.15194
G1 X82.001 Y103.643 E6.19213
G1 X81.197 Y104.828 E6.25465
G1 X78.744 Y106.478 E6.3837
G1 X74.878 Y107.562 E6.55898
G1 X72.492 Y107.566 E6.66313
G1 X69.061 Y106.571 E6.81908
G1 X66.858 Y105.387 E6.92826
G1 X65.069 Y103.231 E7.05056
G1 X64.069 Y100.844 E7.16354
G1 X63.978 Y98.121 E7.28247
G1 X64.345 Y96.989 E7.33442
G1 X63.605 Y96.527 E7.37251
G1 X62.26 Y95.36 E7.45024
G1 X61.209 Y94.123 E7.5211
G1 X60.126 Y92.434 E7.60869
G1 X59.615 Y90.948 E7.67728
G1 X59.125 Y87.94 E7.81033
G1 X59.187 Y76.664 E8.30258
G1 X59.332 Y75.72 E8.34427
G1 X59.949 Y73.628 E8.43948
G1 X60.491 Y72.5 E8.49411
G1 X61.367 Y71.153 E8.56425
G1 X62.359 Y70.021 E8.62996
G0 F3600 X62.594 Y70.281
G1 F2400 X63.832 Y69.161 E8.70284
G1 X65.913 Y68.064 E8.80553
G1 X67.026 Y67.662 E8.85719
G1 X68.671 Y67.234 E8.93139
G1 X71.994 Y67.225 E9.07645
G1 X73.525 Y67.353 E9.14352
G1 X75.819 Y67.961 E9.24712
G1 X77.127 Y68.565 E9.31001
G1 X78.291 Y69.298 E9.37006
G1 X79.618 Y70.465 E9.44721
G1 X81.194 Y72.667 E9.56542
G1 X82.082 Y74.466 E9.653
G1 X82.187 Y74.967 E9.67534
G1 X83.073 Y75.377 E9.71796
G1 X84.634 Y76.705 E9.80743
G1 X85.181 Y77.369 E9.84498
G1 X86.218 Y79.435 E9.94589
G1 X86.477 Y81.048 E10.01721
G1 X86.504 Y84.269 E10.15782
G1 X87.593 Y84.09 E10.206
G1 X88.48 Y84.222 E10.24515
G1 X88.471 Y81.017 E10.38506
G1 X88.818 Y79.423 E10.45627
G1 X89.627 Y77.676 E10.54032
G1 X90.951 Y76.121 E10.62947
G1 X91.615 Y75.574 E10.66703
G1 X92.891 Y74.934 E10.72934
G1 X93.095 Y74.254 E10.76034
G1 X93.94 Y72.422 E10.84841
G1 X94.64 Y71.368 E10.90364
G1 X95.594 Y70.281 E10.96678
G1 X96.832 Y69.161 E11.03965
G1 X98.913 Y68.064 E11.14235
G1 X100.026 Y67.662 E11.19401
G1 X101.671 Y67.234 E11.26821
G1 X105.351 Y67.236 E11.42885
G1 X106.431 Y67.335 E11.4762
G1 X108.9 Y67.991 E11.58772
G1 X110.166 Y68.587 E11.6488
G1 X111.291 Y69.298 E11.7069
G1 X112.572 Y70.425 E11.78138
G1 X114.214 Y72.684 E11.90329
G1 X115.149 Y74.61 E11.99676
G1 X115.525 Y77.559 E12.12653
G1 X115.465 Y88.828 E12.61848
G1 X115.353 Y89.588 E12.65201
G1 X114.715 Y91.771 E12.75129
G1 X114.304 Y92.647 E12.79354
G1 X113.354 Y94.135 E12.8706
G1 X112.526 Y95.103 E12.92621
G1 X113.305 Y96.81 E13.00812
G1 X113.686 Y98.662 E13.09066
G1 X113.437 Y100.932 E13.19035
G1 X112.875 Y102.42 E13.25978
G1 X111.974 Y103.839 E13.33316
G1 X110.699 Y105.112 E13.41181
G1 X109.044 Y106.167 E13.49749
G1 X105.303 Y107.224 E13.66719
G1 X103.044 Y107.235 E13.76581
G1 X99.678 Y106.257 E13.91882
G1 X97.558 Y105.114 E14.02396
G1 X96.295 Y103.592 E14.1103
G1 X95.757 Y104.108 E14.14284
G1 X93.966 Y105.13 E14.23286
G1 X90.54 Y106.082 E14.38809
G1 X88.332 Y106.152 E14.48452
G1 X84.635 Y105.07 E14.65268
G1 X82.866 Y104.014 E14.74262
G1 X81.948 Y103.096 E14.79929
G1 X80.945 Y104.577 E14.87738
G1 X78.597 Y106.156 E15.0009
G1 X74.83 Y107.212 E15.17168
G1 X72.54 Y107.216 E15.27165
G1 X69.195 Y106.246 E15.42369
G1 X67.084 Y105.111 E15.52831
G1 X65.372 Y103.048 E15.64534
G1 X64.417 Y100.768 E15.75325
G1 X64.33 Y98.17 E15.86673
G1 X64.762 Y96.837 E15.9279
G1 X63.791 Y96.23 E15.97789
G1 X62.526 Y95.133 E16.05098
G1 X61.504 Y93.934 E16.11976
G1 X60.443 Y92.279 E16.20558
G1 X59.946 Y90.834 E16.27228
G1 X59.475 Y87.942 E16.40019
G1 X59.533 Y76.716 E16.89026
G1 X59.668 Y75.819 E16.92986
G1 X60.285 Y73.727 E17.02507
G1 X60.785 Y72.69 E17.07533
G1 X61.631 Y71.383 E17.14329
G1 X62.594 Y70.281 E17.20718
G0 F3600 X62.829 Y70.541
G1 F2400 X64.035 Y69.45 E17.27817
G1 X66.076 Y68.374 E17.37889
G1 X67.114 Y68.001 E17.42704
G1 X68.717 Y67.584 E17.49935
G1 X71.995 Y67.575 E17.64245
G1 X73.436 Y67.692 E17.70556
G1 X75.672 Y68.279 E17.80648
G1 X76.98 Y68.883 E17.86937
G1 X78.06 Y69.561 E17.92504
G1 X79.355 Y70.7 E18.00032
G1 X80.909 Y72.871 E18.11687
G1 X81.768 Y74.62 E18.20194
G1 X81.875 Y75.209 E18.22807
G1 X82.884 Y75.676 E18.27661
G1 X84.364 Y76.927 E18.3612
G1 X84.884 Y77.559 E18.39693
G1 X85.88 Y79.543 E18.49384
G1 X86.131 Y81.104 E18.56286
G1 X86.157 Y84.681 E18.71901
G1 X87.595 Y84.444 E18.78263
G1 X88.831 Y84.628 E18.83718
G1 X88.821 Y81.055 E18.99316
G1 X89.152 Y79.536 E19.06103
G1 X89.926 Y77.865 E19.14142
G1 X91.173 Y76.391 E19.2257
G1 X91.805 Y75.871 E19.26143
G1 X93.184 Y75.179 E19.32878
G1 X93.413 Y74.4 E19.36423
G1 X94.232 Y72.616 E19.44992
G1 X94.932 Y71.562 E19.50516
G1 X95.829 Y70.541 E19.56448
G1 X97.035 Y69.45 E19.63548
G1 X99.076 Y68.374 E19.7362
G1 X100.114 Y68.001 E19.78435
G1 X101.717 Y67.584 E19.85665
G1 X105.319 Y67.585 E20.01389
G1 X106.399 Y67.684 E20.06124
G1 X108.752 Y68.308 E20.16751
G1 X109.98 Y68.883 E20.2267
G1 X111.06 Y69.561 E20.28237
G1 X112.312 Y70.662 E20.35515
G1 X113.899 Y72.837 E20.47268
G1 X114.809 Y74.712 E20.56366
G1 X115.175 Y77.557 E20.68888
G1 X115.118 Y88.779 E21.17877
G1 X115.017 Y89.49 E21.21012
G1 X114.398 Y91.622 E21.30704
G1 X113.987 Y92.498 E21.34928
G1 X113.088 Y93.907 E21.42224
G1 X112.348 Y94.772 E21.47193
G1 X112.095 Y95 E21.4868
G1 X112.969 Y96.916 E21.57873
G1 X113.332 Y98.679 E21.65731
G1 X113.094 Y100.851 E21.75269
G1 X112.561 Y102.262 E21.81854
G1 X111.7 Y103.618 E21.88866
G1 X110.478 Y104.838 E21.96404
G1 X108.9 Y105.844 E22.04573
G1 X105.253 Y106.874 E22.21116
G1 X103.093 Y106.885 E22.30546
G1 X99.811 Y105.931 E22.45466
G1 X97.784 Y104.838 E22.55519
G1 X96.324 Y103.079 E22.65498
G1 X95.549 Y103.823 E22.70188
G1 X93.829 Y104.805 E22.78834
G1 X90.488 Y105.733 E22.93971
G1 X88.376 Y105.8 E23.03195
G1 X84.777 Y104.747 E23.19565
G1 X83.08 Y103.734 E23.28193
G1 X81.895 Y102.549 E23.35508
G1 X80.692 Y104.326 E23.44876
G1 X78.45 Y105.833 E23.56669
G1 X74.781 Y106.862 E23.73303
G1 X72.588 Y106.866 E23.82877
G1 X69.329 Y105.921 E23.9769
G1 X67.309 Y104.835 E24.07701
G1 X65.676 Y102.867 E24.18865
G1 X64.765 Y100.692 E24.29159
G1 X64.682 Y98.219 E24.3996
G1 X65.179 Y96.685 E24.47
G1 X63.977 Y95.933 E24.53189
G1 X62.792 Y94.906 E24.60035
G1 X61.799 Y93.745 E24.66704
G1 X60.76 Y92.124 E24.75109
G1 X60.277 Y90.72 E24.8159
G1 X59.825 Y87.944 E24.93868
G1 X59.879 Y76.767 E25.42661
G1 X60.004 Y75.917 E25.46411
G1 X60.601 Y73.878 E25.55686
G1 X61.079 Y72.88 E25.60517
G1 X61.895 Y71.613 E25.67095
G1 X62.829 Y70.541 E25.73302
G0 F3600 X63.064 Y70.801
G1 F2400 X64.239 Y69.738 E25.80219
G1 X66.195 Y68.703 E25.89879
G1 X67.202 Y68.34 E25.94552
G1 X68.763 Y67.934 E26.01593
G1 X71.996 Y67.925 E26.15707
G1 X73.407 Y68.041 E26.21887
G1 X75.582 Y68.617 E26.31709
G1 X76.795 Y69.18 E26.37547
G1 X77.829 Y69.824 E26.42865
G1 X79.092 Y70.935 E26.50208
G1 X80.624 Y73.075 E26.61697
G1 X81.454 Y74.774 E26.69951
G1 X81.558 Y75.448 E26.72928
G1 X82.695 Y75.975 E26.78399
G1 X84.094 Y77.15 E26.86375
G1 X84.589 Y77.751 E26.89773
G1 X85.543 Y79.651 E26.99055
G1 X85.785 Y81.159 E27.05722
G1 X85.81 Y85.093 E27.22896
G1 X87.597 Y84.798 E27.30802
G1 X89.182 Y85.034 E27.37798
G1 X89.171 Y81.092 E27.55006
G1 X89.485 Y79.65 E27.61448
G1 X90.225 Y78.054 E27.69128
G1 X91.396 Y76.661 E27.77072
G1 X91.997 Y76.166 E27.80471
G1 X93.477 Y75.424 E27.87698
G1 X93.731 Y74.545 E27.91693
G1 X94.524 Y72.81 E28.0002
G1 X95.224 Y71.756 E28.05544
G1 X96.064 Y70.801 E28.11096
G1 X97.239 Y69.738 E28.18013
G1 X99.195 Y68.703 E28.27673
G1 X100.202 Y68.34 E28.32346
G1 X101.763 Y67.934 E28.39387
G1 X105.287 Y67.934 E28.54771
G1 X106.367 Y68.033 E28.59505
G1 X108.604 Y68.625 E28.69607
G1 X109.795 Y69.18 E28.75343
G1 X110.829 Y69.824 E28.8066
G1 X112.053 Y70.9 E28.87775
G1 X113.584 Y72.99 E28.99084
G1 X114.469 Y74.814 E29.07934
G1 X114.825 Y77.555 E29.20001
G1 X114.771 Y88.73 E29.68784
G1 X114.67 Y89.441 E29.71919
G1 X114.081 Y91.473 E29.81155
G1 X113.67 Y92.349 E29.85379
G1 X112.822 Y93.679 E29.92265
G1 X112.082 Y94.544 E29.97234
G1 X111.594 Y94.977 E30.00082
G1 X111.818 Y95.235 E30.01574
G1 X112.634 Y97.023 E30.10153
G1 X112.978 Y98.696 E30.17609
G1 X112.751 Y100.77 E30.26717
G1 X112.247 Y102.104 E30.32942
G1 X111.426 Y103.397 E30.39629
G1 X110.257 Y104.564 E30.46839
G1 X108.756 Y105.521 E30.5461
G1 X105.203 Y106.524 E30.70727
G1 X103.142 Y106.535 E30.79724
G1 X99.944 Y105.605 E30.94263
G1 X98.01 Y104.562 E31.03855
G1 X96.489 Y102.729 E31.14253
G1 X96.389 Y102.532 E31.15217
G1 X95.341 Y103.538 E31.21559
G1 X93.692 Y104.48 E31.29849
G1 X90.436 Y105.384 E31.44601
G1 X88.42 Y105.448 E31.53406
G1 X84.919 Y104.424 E31.69329
G1 X83.294 Y103.454 E31.77591
G1 X81.812 Y101.972 E31.8674
G1 X81.743 Y102.149 E31.87569
G1 X80.441 Y104.073 E31.97711
G1 X78.301 Y105.511 E32.08966
G1 X74.732 Y106.512 E32.25147
G1 X72.636 Y106.516 E32.34297
G1 X69.463 Y105.596 E32.48719
G1 X67.535 Y104.559 E32.58275
G1 X65.979 Y102.684 E32.68912
G1 X65.113 Y100.616 E32.78699
G1 X65.034 Y98.268 E32.88955
G1 X65.596 Y96.533 E32.96916
G1 X64.163 Y95.636 E33.04296
G1 X63.022 Y94.642 E33.10902
G1 X62.094 Y93.556 E33.17138
G1 X61.077 Y91.969 E33.25367
G1 X60.608 Y90.606 E33.31659
G1 X60.175 Y87.946 E33.43424
G1 X60.226 Y76.816 E33.92011
G1 X60.34 Y76.015 E33.95543
G1 X60.917 Y74.029 E34.04571
G1 X61.395 Y73.031 E34.09402
G1 X62.159 Y71.843 E34.15568
G1 X63.064 Y70.801 E34.21593
G0 F3600 X63.299 Y71.061
G1 F2400 X64.444 Y70.026 E34.2833
G1 X66.314 Y69.032 E34.37575
G1 X67.29 Y68.679 E34.42106
G1 X68.809 Y68.284 E34.48958
G1 X71.997 Y68.275 E34.62874
G1 X73.378 Y68.39 E34.68924
G1 X75.435 Y68.935 E34.78213
G1 X76.611 Y69.478 E34.83868
G1 X77.598 Y70.087 E34.88931
G1 X78.829 Y71.17 E34.96088
G1 X80.339 Y73.279 E35.07411
G1 X81.116 Y74.88 E35.1518
G1 X81.241 Y75.687 E35.18745
G1 X82.507 Y76.274 E35.24837
G1 X83.869 Y77.418 E35.32601
G1 X84.293 Y77.942 E35.35544
G1 X85.205 Y79.759 E35.44419
G1 X85.439 Y81.215 E35.50856
G1 X85.462 Y85.533 E35.69706
G1 X85.601 Y85.482 E35.70353
G1 X87.599 Y85.152 E35.79193
G1 X89.533 Y85.44 E35.87729
G1 X89.521 Y81.129 E36.06548
G1 X89.819 Y79.76 E36.12664
G1 X90.522 Y78.245 E36.19955
G1 X91.664 Y76.886 E36.27704
G1 X92.188 Y76.462 E36.30647
G1 X93.772 Y75.668 E36.38382
G1 X94.05 Y74.69 E36.4282
G1 X94.816 Y73.004 E36.50904
G1 X95.516 Y71.95 E36.56428
G1 X96.299 Y71.061 E36.61599
G1 X97.444 Y70.026 E36.68337
G1 X99.314 Y69.032 E36.77582
G1 X100.29 Y68.679 E36.82112
G1 X101.809 Y68.284 E36.88964
G1 X105.255 Y68.283 E37.04007
G1 X106.335 Y68.382 E37.08742
G1 X108.457 Y68.943 E37.18323
G1 X109.611 Y69.478 E37.23876
G1 X110.598 Y70.087 E37.28939
G1 X111.792 Y71.137 E37.3588
G1 X113.269 Y73.143 E37.46754
G1 X114.129 Y74.916 E37.55357
G1 X114.475 Y77.553 E37.66967
G1 X114.424 Y88.681 E38.15545
G1 X114.323 Y89.392 E38.1868
G1 X113.764 Y91.324 E38.2746
G1 X113.353 Y92.2 E38.31684
G1 X112.556 Y93.451 E38.3816
G1 X111.816 Y94.316 E38.43129
G1 X111.084 Y94.959 E38.47382
G1 X111.5 Y95.38 E38.49966
G1 X112.298 Y97.129 E38.58358
G1 X112.624 Y98.713 E38.65418
G1 X112.408 Y100.689 E38.74095
G1 X111.933 Y101.946 E38.79961
G1 X111.152 Y103.176 E38.86322
G1 X110.036 Y104.29 E38.93205
G1 X108.612 Y105.198 E39.00578
G1 X105.153 Y106.174 E39.16267
G1 X103.191 Y106.185 E39.24832
G1 X100.077 Y105.279 E39.3899
G1 X98.235 Y104.286 E39.48125
G1 X96.758 Y102.506 E39.58222
G1 X96.497 Y101.882 E39.61174
G1 X96.35 Y102.084 E39.62265
G1 X95.13 Y103.255 E39.69647
G1 X93.555 Y104.155 E39.77566
G1 X90.384 Y105.035 E39.91932
G1 X88.464 Y105.096 E40.00318
G1 X85.061 Y104.101 E40.15795
G1 X83.508 Y103.174 E40.2369
G1 X81.645 Y101.311 E40.35192
G1 X81.453 Y101.953 E40.38117
G1 X80.19 Y103.82 E40.47957
G1 X78.151 Y105.19 E40.58681
G1 X74.684 Y106.162 E40.74399
G1 X72.685 Y106.166 E40.83125
G1 X69.596 Y105.27 E40.97166
G1 X67.76 Y104.283 E41.06265
G1 X66.283 Y102.503 E41.16363
G1 X65.461 Y100.54 E41.25653
G1 X65.386 Y98.317 E41.35363
G1 X66.029 Y96.334 E41.44463
G1 X65.698 Y96.183 E41.46051
G1 X64.349 Y95.339 E41.52998
G1 X63.253 Y94.379 E41.59358
G1 X62.389 Y93.367 E41.65167
G1 X61.394 Y91.814 E41.73218
G1 X60.939 Y90.492 E41.79322
G1 X60.525 Y87.948 E41.90573
G1 X60.573 Y76.865 E42.38955
G1 X60.687 Y76.064 E42.42487
G1 X61.233 Y74.18 E42.5105
G1 X61.711 Y73.182 E42.55881
G1 X62.424 Y72.072 E42.6164
G1 X63.299 Y71.061 E42.67477
G0 F3600 X63.534 Y71.321
G1 F2400 X64.647 Y70.315 E42.74026
G1 X66.433 Y69.361 E42.82865
G1 X67.378 Y69.018 E42.87254
G1 X68.855 Y68.634 E42.93916
G1 X71.998 Y68.625 E43.07636
G1 X73.349 Y68.739 E43.13555
G1 X75.289 Y69.253 E43.22316
G1 X76.427 Y69.776 E43.27783
G1 X77.414 Y70.385 E43.32846
G1 X78.566 Y71.405 E43.39563
G1 X80.054 Y73.483 E43.5072
G1 X80.778 Y74.984 E43.57995
G1 X80.924 Y75.926 E43.62156
G1 X82.319 Y76.573 E43.68869
G1 X83.644 Y77.686 E43.76423
G1 X83.996 Y78.13 E43.78897
G1 X84.868 Y79.867 E43.87381
G1 X85.093 Y81.27 E43.93584
G1 X85.115 Y86.089 E44.14621
G1 X85.658 Y85.827 E44.17253
G1 X87.601 Y85.506 E44.2585
G1 X89.361 Y85.768 E44.33618
G1 X89.885 Y85.983 E44.3609
G1 X89.871 Y81.167 E44.57114
G1 X90.153 Y79.873 E44.62895
G1 X90.821 Y78.433 E44.69825
G1 X91.932 Y77.111 E44.77363
G1 X92.376 Y76.759 E44.79837
G1 X93.917 Y75.986 E44.87363
G1 X94.059 Y75.941 E44.88013
G1 X94.369 Y74.834 E44.93031
G1 X95.108 Y73.198 E45.00868
G1 X95.808 Y72.144 E45.06392
G1 X96.534 Y71.321 E45.11182
G1 X97.647 Y70.315 E45.17732
G1 X99.433 Y69.361 E45.26571
G1 X100.378 Y69.018 E45.30959
G1 X101.855 Y68.634 E45.37621
G1 X105.223 Y68.632 E45.52324
G1 X106.303 Y68.731 E45.57058
G1 X108.31 Y69.261 E45.6612
G1 X109.427 Y69.776 E45.7149
G1 X110.414 Y70.385 E45.76552
G1 X111.534 Y71.376 E45.83081
G1 X112.954 Y73.296 E45.93506
G1 X113.789 Y75.018 E46.0186
G1 X114.125 Y77.551 E46.13014
G1 X114.077 Y88.632 E46.61388
G1 X113.976 Y89.343 E46.64523
G1 X113.447 Y91.175 E46.72847
G1 X113.036 Y92.051 E46.77071
G1 X112.289 Y93.224 E46.83142
G1 X111.585 Y94.053 E46.87889
G1 X110.574 Y94.941 E46.93764
G1 X111.208 Y95.583 E46.97702
G1 X111.962 Y97.235 E47.0563
G1 X112.27 Y98.73 E47.12293
G1 X112.065 Y100.608 E47.2054
G1 X111.619 Y101.788 E47.26047
G1 X110.878 Y102.955 E47.32081
G1 X109.815 Y104.016 E47.38638
