;FLAVOR:Marlin
;TIME:1807
;Filament used: 1.76532m
;Layer height: 0.2
;MINX:113.15
;MINY:70.9
;MINZ:0.3
;MAXX:156.766
;MAXY:119.1
;MAXZ:25.3
;TARGET_MACHINE.NAME:Unknown
;Generated with Cura_SteamEngine 5.10.0
M104 S205
M105
M109 S205
G28 ;Home
G1 Z15.0 F6000 ;Move the platform down 15mm
;Prime the extruder
G92 E0
G1 F200 E3
G92 E0
M82 ;absolute extrusion mode
G92 E0
G92 E0
G1 F1500 E-6.5
;LAYER_COUNT:126
;LAYER:0
M107
G0 F3600 X113.87 Y83.864 Z0.3
;TYPE:SKIRT
G1 F1500 E0
G1 F1800 X114.27 Y83.405 E0.03037
G1 X114.915 Y82.916 E0.07076
G1 X115.616 Y82.499 E0.11145
G1 X134.389 Y71.705 E1.19182
G1 X135.006 Y71.362 E1.22704
G1 X135.524 Y71.131 E1.25533
G1 X136.077 Y70.982 E1.28391
G1 X136.659 Y70.922 E1.3131
G1 X137.766 Y70.9 E1.36834
G1 X152.511 Y70.9 E2.10397
G1 X153.209 Y70.91 E2.13879
G1 X153.806 Y70.97 E2.16873
G1 X154.356 Y71.116 E2.19712
G1 X154.82 Y71.318 E2.22237
G1 X155.301 Y71.62 E2.2507
G1 X155.774 Y72.039 E2.28223
G1 X156.129 Y72.481 E2.31051
G1 X156.412 Y72.975 E2.33891
G1 X156.613 Y73.506 E2.36724
G1 X156.728 Y74.063 E2.39561
G1 X156.765 Y74.739 E2.42939
G1 X156.766 Y114.809 E4.42849
G1 X156.757 Y115.536 E4.46476
G1 X156.699 Y116.133 E4.49469
G1 X156.553 Y116.683 E4.52308
G1 X156.323 Y117.202 E4.5514
G1 X156.014 Y117.68 E4.5798
G1 X155.633 Y118.103 E4.6082
G1 X155.192 Y118.46 E4.63651
G1 X154.698 Y118.744 E4.66493
G1 X154.167 Y118.945 E4.69326
G1 X153.673 Y119.053 E4.71849
G1 X152.926 Y119.099 E4.75583
G1 X137.404 Y119.1 E5.53022
G1 X136.724 Y119.09 E5.56415
G1 X136.127 Y119.029 E5.59409
G1 X135.576 Y118.882 E5.62254
G1 X135.05 Y118.649 E5.65124
G1 X134.079 Y118.117 E5.70648
G1 X115.516 Y107.443 E6.77478
G1 X114.895 Y107.073 E6.81085
G1 X114.433 Y106.74 E6.83926
G1 X114.031 Y106.34 E6.86755
G1 X113.695 Y105.88 E6.89597
G1 X113.461 Y105.432 E6.92119
G1 X113.264 Y104.856 E6.95156
G1 X113.161 Y104.047 E6.99225
G1 X113.15 Y103.277 E7.03067
G1 X113.15 Y86.655 E7.85994
G1 X113.16 Y85.956 E7.89482
G1 X113.22 Y85.359 E7.92475
G1 X113.366 Y84.809 E7.95314
G1 X113.568 Y84.345 E7.97839
G1 X113.87 Y83.864 E8.00673
G0 F3600 X114.207 Y84.079
G1 F1800 X114.542 Y83.701 E8.03192
G1 X115.12 Y83.26 E8.0682
G1 X115.815 Y82.846 E8.10855
G1 X134.584 Y72.054 E9.1887
G1 X135.172 Y71.726 E9.22229
G1 X135.632 Y71.516 E9.24752
G1 X136.119 Y71.38 E9.27275
G1 X136.667 Y71.322 E9.30024
G1 X137.774 Y71.3 E9.35548
G1 X152.505 Y71.3 E10.09041
G1 X153.203 Y71.31 E10.12524
G1 X153.706 Y71.357 E10.15044
G1 X154.196 Y71.483 E10.17568
G1 X154.66 Y71.685 E10.20093
G1 X155.086 Y71.957 E10.22615
G1 X155.464 Y72.292 E10.25134
G1 X155.784 Y72.683 E10.27655
G1 X156.039 Y73.12 E10.30179
G1 X156.222 Y73.591 E10.327
G1 X156.329 Y74.085 E10.35222
G1 X156.365 Y74.739 E10.3849
G1 X156.366 Y114.804 E12.38375
G1 X156.357 Y115.531 E12.42002
G1 X156.311 Y116.034 E12.44522
G1 X156.186 Y116.524 E12.47045
G1 X155.985 Y116.988 E12.49568
G1 X155.714 Y117.415 E12.52091
G1 X155.379 Y117.794 E12.54615
G1 X154.989 Y118.115 E12.57135
G1 X154.553 Y118.371 E12.59657
G1 X154.082 Y118.554 E12.62178
G1 X153.588 Y118.662 E12.64701
G1 X152.926 Y118.699 E12.68009
G1 X137.41 Y118.7 E13.45418
G1 X136.73 Y118.69 E13.48811
G1 X136.227 Y118.642 E13.51332
G1 X135.737 Y118.516 E13.53856
G1 X135.242 Y118.298 E13.56555
G1 X134.278 Y117.77 E13.62038
G1 X115.72 Y107.099 E14.68839
G1 X115.126 Y106.746 E14.72287
G1 X114.713 Y106.454 E14.7481
G1 X114.352 Y106.101 E14.77329
G1 X114.05 Y105.695 E14.79854
G1 X113.816 Y105.247 E14.82375
G1 X113.656 Y104.768 E14.84895
G1 X113.561 Y104.041 E14.88553
G1 X113.55 Y103.271 E14.92395
G1 X113.55 Y86.661 E15.75262
G1 X113.56 Y85.962 E15.7875
G1 X113.607 Y85.459 E15.8127
G1 X113.733 Y84.969 E15.83794
G1 X113.935 Y84.505 E15.86319
G1 X114.207 Y84.079 E15.88841
G1 F1500 E9.38841
;MESH:y_axis_endstop_holder.stl
G0 F3600 X116.633 Y85.301
G0 X117.177 Y86.247
G0 X149.206 Y99.391
G0 X151.586 Y99.26
G0 X151.37 Y99.038
;TYPE:WALL-INNER
G1 F1500 E15.88841
G1 F1800 X150.716 Y99.416 E15.92609
G1 X150.138 Y99.567 E15.9559
G1 X149.623 Y99.592 E15.98162
G1 X149.116 Y99.518 E16.00718
G1 X148.661 Y99.362 E16.03118
G1 X148.024 Y98.95 E16.06903
G1 X147.535 Y98.373 E16.10676
G1 X147.29 Y97.834 E16.1363
G1 X147.181 Y97.406 E16.15834
G1 X147.156 Y96.826 E16.1873
G1 X147.263 Y96.231 E16.21746
G1 X147.52 Y95.655 E16.24893
G1 X147.798 Y95.284 E16.27206
G1 X148.169 Y94.934 E16.2975
G1 X148.775 Y94.586 E16.33237
G1 X149.358 Y94.429 E16.36249
G1 X149.874 Y94.404 E16.38826
G1 X150.386 Y94.479 E16.41408
G1 X150.893 Y94.671 E16.44113
G1 X151.475 Y95.045 E16.47564
G1 X151.915 Y95.569 E16.50978
G1 X152.173 Y96.056 E16.53727
G1 X152.176 Y78.909 E17.39274
G1 X152.001 Y79.294 E17.41384
G1 X151.703 Y79.711 E17.43941
G1 X151.294 Y80.083 E17.46699
G1 X150.787 Y80.379 E17.49628
G1 X150.258 Y80.547 E17.52397
G1 X149.852 Y80.594 E17.54436
G1 X149.254 Y80.551 E17.57428
G1 X148.865 Y80.444 E17.5944
G1 X148.501 Y80.28 E17.61432
G1 X148.007 Y79.934 E17.64441
G1 X147.542 Y79.376 E17.68065
G1 X147.308 Y78.892 E17.70747
G1 X147.172 Y78.327 E17.73646
G1 X147.161 Y77.794 E17.76306
G1 X147.291 Y77.165 E17.7951
G1 X147.557 Y76.599 E17.82631
G1 X147.798 Y76.284 E17.84609
G1 X148.198 Y75.917 E17.87318
G1 X148.79 Y75.573 E17.90733
G1 F1865.3 X149.299 Y75.452 E17.93252
G1 F2000 X149.8 Y75.425 E17.95505
G1 F1956.5 X150.383 Y75.487 E17.98196
G1 F1832.1 X150.893 Y75.67 E18.00852
G1 F1800 X151.475 Y76.045 E18.04306
G1 X151.915 Y76.569 E18.0772
G1 X152.173 Y77.056 E18.10469
G1 X152.176 Y75.1 E18.20228
G1 X150.845 Y75.1 E18.26868
G1 F1914.9 X149.748 Y75.075 E18.32014
G1 X148.79 Y75.101 E18.36509
G1 F1800 X136.909 Y75.1 E18.95783
G1 X117.348 Y86.348 E20.08357
G1 X117.348 Y103.652 E20.94687
G1 X136.909 Y114.9 E22.07261
G1 X152.176 Y114.9 E22.83429
G1 X152.176 Y97.965 E23.67918
G1 X151.793 Y98.597 E23.71605
G1 X151.37 Y99.038 E23.74653
G0 F3600 X150.54 Y99.049
;TYPE:WALL-OUTER
G1 F1800 X150.152 Y99.161 E23.76668
G1 X149.671 Y99.195 E23.79074
G1 X149.241 Y99.138 E23.81238
G1 X148.839 Y99.004 E23.83352
G1 X148.29 Y98.646 E23.86622
G1 X147.866 Y98.139 E23.89919
G1 X147.681 Y97.746 E23.92086
G1 X147.575 Y97.333 E23.94213
G1 X147.552 Y96.886 E23.96446
G1 X147.652 Y96.338 E23.99226
G1 X147.866 Y95.855 E24.01861
G1 X148.074 Y95.574 E24.03605
G1 X148.389 Y95.268 E24.05796
G1 X148.935 Y94.952 E24.08944
G1 X149.345 Y94.835 E24.11071
G1 X149.825 Y94.801 E24.13472
G1 X150.257 Y94.858 E24.15645
G1 X150.677 Y95.007 E24.17869
G1 X151.207 Y95.347 E24.2101
G1 X151.637 Y95.869 E24.24384
G1 F1545.1 X151.986 Y96.633 E24.29266
G1 F1374 X152.004 Y97.135 E24.32549
G1 F1368.8 X151.974 Y97.438 E24.34547
G1 F1538.5 X151.763 Y97.876 E24.37385
G1 F1800 X151.42 Y98.428 E24.40627
G1 X151.097 Y98.734 E24.42847
G1 X150.54 Y99.049 E24.46039
G0 F3600 X150.348 Y99.104
G0 X150.432 Y99.405
G0 X151.187 Y98.972
G0 X152.267 Y97.949
G0 X152.576 Y97.949
G1 F1538.5 X152.508 Y97.484 E24.48782
G1 F1368.8 X152.519 Y97.074 E24.51473
G1 F1374 X152.51 Y96.566 E24.54794
G1 F1545.1 X152.576 Y96.169 E24.57133
G1 F1800 X152.576 Y78.815 E25.43712
G1 F1551.7 X152.513 Y78.387 E25.46216
G1 F1376.7 X152.517 Y77.795 E25.50078
G1 F1565.2 X152.576 Y77.199 E25.53514
G1 F1800 X152.576 Y74.7 E25.65982
G1 X136.802 Y74.7 E26.44678
G1 X116.948 Y86.116 E27.58937
G1 X116.948 Y103.884 E28.47582
G1 X136.802 Y115.3 E29.61841
G1 X152.576 Y115.3 E30.40538
G1 X152.576 Y97.949 E31.27103
G0 F3600 X152.548 Y97.752
G0 X152.267 Y97.752
G0 X150.621 Y80.352
G0 X150.538 Y80.053
G1 F1800 X150.115 Y80.168 E31.2929
G1 X149.781 Y80.196 E31.30962
G1 X149.351 Y80.163 E31.33113
G1 X149.063 Y80.091 E31.34594
G1 X148.665 Y79.915 E31.36766
G1 X148.294 Y79.649 E31.39043
G1 X147.874 Y79.152 E31.42289
G1 X147.684 Y78.754 E31.4449
G1 X147.572 Y78.307 E31.46789
G1 X147.555 Y77.864 E31.49001
G1 X147.643 Y77.372 E31.51494
G1 X147.879 Y76.837 E31.54411
G1 X148.079 Y76.569 E31.5608
G1 X148.399 Y76.263 E31.58289
G1 X148.961 Y75.943 E31.61515
G1 X149.386 Y75.828 E31.63712
G1 X149.8 Y75.8 E31.65782
G1 X150.257 Y75.858 E31.6808
G1 X150.677 Y76.007 E31.70304
G1 X151.209 Y76.35 E31.73462
G1 X151.637 Y76.869 E31.76818
G1 X151.809 Y77.229 E31.78808
G1 F1565.2 X152.003 Y77.847 E31.82524
G1 F1376.7 X151.989 Y78.342 E31.85755
G1 F1551.7 X151.67 Y79.069 E31.90349
G1 F1800 X151.424 Y79.424 E31.92504
G1 X151.093 Y79.737 E31.94777
G1 X150.538 Y80.053 E31.97963
G0 F3600 X150.345 Y80.105
G0 X150.429 Y80.406
G0 X152.198 Y97.117
G0 X150.857 Y99.771
;TYPE:SKIN
G1 F1800 X151.484 Y99.41 E32.01573
G1 X151.796 Y99.135 E32.03648
G1 X151.796 Y114.52 E32.80404
G1 X137.01 Y114.52 E33.54171
G1 X117.728 Y103.432 E34.65141
G1 X117.728 Y86.564 E35.49296
G1 X137.01 Y75.48 E36.60255
G1 X148.184 Y75.48 E37.16002
G1 X148.007 Y75.582 E37.17022
G1 X147.537 Y76.003 E37.2017
G1 X147.253 Y76.365 E37.22465
G1 X146.89 Y77.117 E37.26631
G1 X146.772 Y77.956 E37.30858
G1 X146.816 Y78.512 E37.33641
G1 X146.946 Y79.005 E37.36184
G1 X147.218 Y79.577 E37.39344
G1 X147.754 Y80.221 E37.43524
G1 X148.279 Y80.592 E37.46732
G1 X148.835 Y80.836 E37.49761
G1 X149.301 Y80.94 E37.52143
G1 X149.721 Y80.972 E37.54244
G1 X150.185 Y80.944 E37.56563
G1 X150.86 Y80.775 E37.60035
G1 X151.519 Y80.389 E37.63845
G1 X151.796 Y80.136 E37.65717
G1 X151.796 Y94.875 E38.3925
G1 X151.635 Y94.703 E38.40425
G1 X150.983 Y94.277 E38.44311
G1 X150.343 Y94.08 E38.47652
G1 X149.925 Y94.025 E38.49755
G1 X149.255 Y94.052 E38.53101
G1 X148.619 Y94.236 E38.56404
G1 X147.942 Y94.627 E38.60304
G1 X147.487 Y95.055 E38.63421
G1 X147.183 Y95.465 E38.65967
G1 X146.9 Y96.106 E38.69463
G1 X146.768 Y96.834 E38.73154
G1 X146.805 Y97.465 E38.76308
G1 X146.937 Y97.989 E38.79003
G1 X147.214 Y98.581 E38.82264
G1 X147.774 Y99.24 E38.86579
G1 X148.514 Y99.714 E38.90963
G1 X148.99 Y99.878 E38.93475
G1 X149.57 Y99.966 E38.96402
G1 X150.202 Y99.938 E38.99558
G1 X150.857 Y99.771 E39.0293
G0 F3600 X149.678 Y99.852
G0 X148.556 Y99.594
G0 X147.859 Y99.144
G0 X147.324 Y98.507
G0 X146.928 Y97.426
G0 X146.899 Y77.847
G0 X147.283 Y76.007
G1 F1800 X146.957 Y75.681 E39.0523
G0 F3600 X146.392 Y75.681
G1 F1800 X147.043 Y76.332 E39.09823
G0 F3600 X146.86 Y76.715
G1 F1800 X145.826 Y75.681 E39.17119
G0 F3600 X145.26 Y75.681
G1 F1800 X146.689 Y77.11 E39.27201
G0 F3600 X146.617 Y77.604
G1 F1800 X144.695 Y75.681 E39.40765
G0 F3600 X144.129 Y75.681
G1 F1800 X146.586 Y78.138 E39.58101
G0 F3600 X146.689 Y78.806
G1 F1800 X143.563 Y75.681 E39.80153
G0 F3600 X142.997 Y75.681
G1 F1800 X147.276 Y79.96 E40.10344
G1 X147.346 Y80.03
G0 F3600 X147.854 Y80.537
G1 F1800 X151.596 Y84.279 E40.36746
G0 F3600 X151.596 Y83.714
G1 F1800 X148.946 Y81.063 E40.55446
G0 F3600 X149.612 Y81.165
G1 F1800 X151.596 Y83.148 E40.69441
G0 F3600 X151.596 Y82.582
G1 F1800 X150.16 Y81.146 E40.79573
G0 F3600 X150.62 Y81.041
G1 F1800 X151.596 Y82.017 E40.86459
G0 F3600 X151.596 Y81.451
G1 F1800 X151.045 Y80.9 E40.90346
G0 F3600 X151.402 Y80.691
G1 F1800 X151.596 Y80.885 E40.91715
G0 F3600 X151.596 Y84.845
G1 F1800 X142.432 Y75.681 E41.56372
G0 F3600 X141.866 Y75.681
G1 F1800 X151.596 Y85.411 E42.25023
G0 F3600 X151.596 Y85.976
G1 F1800 X141.3 Y75.681 E42.97663
G0 F3600 X140.735 Y75.681
G1 F1800 X151.596 Y86.542 E43.74293
G0 F3600 X151.596 Y87.108
G1 F1800 X140.169 Y75.681 E44.54917
G0 F3600 X139.603 Y75.681
G1 F1800 X151.596 Y87.673 E45.3953
G0 F3600 X151.596 Y88.239
G1 F1800 X139.038 Y75.681 E46.28134
G0 F3600 X138.472 Y75.681
G1 F1800 X151.596 Y88.805 E47.20731
G0 F3600 X151.596 Y89.371
G1 F1800 X137.906 Y75.681 E48.17321
G0 F3600 X137.341 Y75.681
G1 F1800 X151.596 Y89.936 E49.17898
G0 F3600 X151.596 Y90.502
G1 F1800 X136.88 Y75.786 E50.21727
G0 F3600 X136.52 Y75.992
G1 F1800 X151.596 Y91.068 E51.28096
G0 F3600 X151.596 Y91.633
G1 F1800 X136.161 Y76.199 E52.36995
G0 F3600 X135.802 Y76.405
G1 F1800 X151.596 Y92.199 E53.4843
G0 F3600 X151.596 Y92.765
G1 F1800 X135.443 Y76.612 E54.62399
G0 F3600 X135.084 Y76.819
G1 F1800 X151.596 Y93.33 E55.78896
G0 F3600 X151.596 Y93.896
G1 F1800 X134.725 Y77.025 E56.9793
G0 F3600 X134.366 Y77.232
G1 F1800 X151.517 Y94.382 E58.18936
G1 X151.587 Y94.452
G0 F3600 X150.482 Y93.913
G1 F1800 X134.007 Y77.438 E59.35176
G0 F3600 X133.647 Y77.645
G1 F1800 X149.829 Y93.826 E60.49345
G0 F3600 X149.287 Y93.85
G1 F1800 X133.288 Y77.851 E61.62227
G0 F3600 X132.929 Y78.058
G1 F1800 X148.834 Y93.962 E62.74442
G0 F3600 X148.424 Y94.118
G1 F1800 X132.57 Y78.264 E63.863
G0 F3600 X132.211 Y78.47
G1 F1800 X148.063 Y94.323 E64.98148
G0 F3600 X147.727 Y94.553
G1 F1800 X131.851 Y78.677 E66.10162
G0 F3600 X131.492 Y78.883
G1 F1800 X147.435 Y94.827 E67.22652
G0 F3600 X147.18 Y95.137
G1 F1800 X131.133 Y79.09 E68.35872
G0 F3600 X130.774 Y79.296
G1 F1800 X146.96 Y95.483 E69.50077
G0 F3600 X146.785 Y95.874
G1 F1800 X130.415 Y79.503 E70.6558
G0 F3600 X130.055 Y79.709
G1 F1800 X146.661 Y96.315 E71.82744
G0 F3600 X146.573 Y96.793
G1 F1800 X129.696 Y79.916 E73.0182
G0 F3600 X129.337 Y80.122
G1 F1800 X146.6 Y97.386 E74.23623
G0 F3600 X146.79 Y98.141
G1 F1800 X128.978 Y80.329 E75.49297
G0 F3600 X128.618 Y80.535
G1 F1800 X151.596 Y103.513 E77.11419
G0 F3600 X151.596 Y104.078
G1 F1800 X128.259 Y80.742 E78.76071
G0 F3600 X127.9 Y80.948
G1 F1800 X151.596 Y104.644 E80.43259
G0 F3600 X151.596 Y105.21
G1 F1800 X127.541 Y81.155 E82.1298
G0 F3600 X127.182 Y81.361
G1 F1800 X151.596 Y105.775 E83.85234
G0 F3600 X151.596 Y106.341
G1 F1800 X126.822 Y81.568 E85.60024
G0 F3600 X126.463 Y81.774
G1 F1800 X151.596 Y106.907 E87.37351
G0 F3600 X151.596 Y107.472
G1 F1800 X126.104 Y81.981 E89.17207
G0 F3600 X125.745 Y82.187
G1 F1800 X151.596 Y108.038 E90.996
G0 F3600 X151.596 Y108.604
G1 F1800 X125.386 Y82.393 E92.84529
G0 F3600 X125.026 Y82.6
G1 F1800 X151.596 Y109.17 E94.71995
G0 F3600 X151.596 Y109.735
G1 F1800 X124.667 Y82.806 E96.61994
G0 F3600 X124.308 Y83.013
G1 F1800 X151.596 Y110.301 E98.54525
G0 F3600 X151.596 Y110.867
G1 F1800 X123.949 Y83.219 E100.49593
G0 F3600 X123.59 Y83.426
G1 F1800 X151.596 Y111.432 E102.47191
G0 F3600 X151.596 Y111.998
G1 F1800 X123.23 Y83.632 E104.47328
G0 F3600 X122.871 Y83.839
G1 F1800 X151.596 Y112.564 E106.49999
G0 F3600 X151.596 Y113.129
G1 F1800 X122.512 Y84.045 E108.55202
G0 F3600 X122.153 Y84.252
G1 F1800 X151.596 Y113.695 E110.62938
G0 F3600 X151.596 Y114.261
G1 F1800 X121.793 Y84.458 E112.73214
G0 F3600 X121.434 Y84.665
G1 F1800 X151.09 Y114.32 E114.8245
G0 F3600 X150.524 Y114.32
G1 F1800 X121.075 Y84.871 E116.90229
G0 F3600 X120.716 Y85.078
G1 F1800 X149.958 Y114.32 E118.96547
G0 F3600 X149.393 Y114.32
G1 F1800 X120.357 Y85.284 E121.01411
G0 F3600 X119.997 Y85.491
G1 F1800 X148.827 Y114.32 E123.04819
G0 F3600 X148.261 Y114.32
G1 F1800 X119.638 Y85.697 E125.0677
G0 F3600 X119.279 Y85.904
G1 F1800 X147.696 Y114.32 E127.07263
G0 F3600 X147.13 Y114.32
G1 F1800 X118.921 Y86.111 E129.06293
G0 F3600 X118.561 Y86.317
G1 F1800 X146.564 Y114.32 E131.0387
G0 F3600 X145.998 Y114.32
G1 F1800 X118.202 Y86.524 E132.99985
G0 F3600 X117.928 Y86.815
G1 F1800 X145.433 Y114.32 E134.94048
G0 F3600 X144.867 Y114.32
G1 F1800 X117.928 Y87.381 E136.84117
G0 F3600 X117.928 Y87.946
G1 F1800 X144.301 Y114.32 E138.70196
G0 F3600 X143.736 Y114.32
G1 F1800 X117.928 Y88.512 E140.52286
G0 F3600 X117.928 Y89.078
G1 F1800 X143.17 Y114.32 E142.30382
G0 F3600 X142.604 Y114.32
G1 F1800 X117.928 Y89.643 E144.04488
G0 F3600 X117.928 Y90.209
G1 F1800 X142.039 Y114.32 E145.74604
G0 F3600 X141.473 Y114.32
G1 F1800 X117.928 Y90.775 E147.40727
G0 F3600 X117.928 Y91.341
G1 F1800 X140.907 Y114.32 E149.02856
G0 F3600 X140.342 Y114.32
G1 F1800 X117.928 Y91.906 E150.60999
G0 F3600 X117.928 Y92.472
G1 F1800 X139.776 Y114.32 E152.15148
G0 F3600 X139.21 Y114.32
G1 F1800 X117.928 Y93.038 E153.65304
G0 F3600 X117.928 Y93.603
G1 F1800 X138.645 Y114.32 E155.11474
G0 F3600 X138.079 Y114.32
G1 F1800 X117.928 Y94.169 E156.5365
G0 F3600 X117.928 Y94.735
G1 F1800 X137.513 Y114.32 E157.91833
G0 F3600 X136.791 Y114.163
G1 F1800 X117.928 Y95.3 E159.24921
G0 F3600 X117.928 Y95.866
G1 F1800 X135.459 Y113.397 E160.48612
G1 X135.529 Y113.467
G0 F3600 X134.128 Y112.632
G1 F1800 X117.928 Y96.432 E161.62912
G0 F3600 X117.928 Y96.997
G1 F1800 X132.797 Y111.866 E162.67821
G1 X132.867 Y111.936
G0 F3600 X131.465 Y111.101
G1 F1800 X117.928 Y97.563 E163.63335
G0 F3600 X117.928 Y98.129
