;FLAVOR:Marlin
;TIME:2654
;Filament used: 2.60419m
;Layer height: 0.2
;MINX:113.448
;MINY:76.484
;MINZ:0.3
;MAXX:160.349
;MAXY:113.517
;MAXZ:34.9
;TARGET_MACHINE.NAME:Unknown
;Generated with Cura_SteamEngine 5.10.0
M104 S205
M105
M109 S205
G28 ;Home
G1 Z15.0 F6000 ;Move the platform down 15mm
;Prime the extruder
G92 E0
G1 F200 E3
G92 E0
M82 ;absolute extrusion mode
G92 E0
G92 E0
G1 F1500 E-6.5
;LAYER_COUNT:174
;LAYER:0
M107
G0 F3600 X125.438 Y78.418 Z0.3
;TYPE:SKIRT
G1 F1500 E0
G1 F1800 X126.064 Y77.677 E0.04839
G1 X126.906 Y77.047 E0.10086
G1 X127.579 Y76.728 E0.13802
G1 X128.132 Y76.569 E0.16672
G1 X128.799 Y76.494 E0.20021
G1 X129.469 Y76.484 E0.23364
G1 X155.495 Y76.484 E1.53208
G1 X156.198 Y76.494 E1.56716
G1 X156.795 Y76.554 E1.59709
G1 X157.351 Y76.703 E1.62581
G1 X158.088 Y77.045 E1.66635
G1 X158.693 Y77.467 E1.70315
G1 X159.246 Y78.017 E1.74206
G1 X159.713 Y78.68 E1.78252
G1 X159.975 Y79.219 E1.81242
G1 X160.247 Y80.06 E1.85651
G1 X160.33 Y80.849 E1.8961
G1 X160.349 Y81.884 E1.94774
G1 X160.344 Y108.475 E3.27437
G1 X160.334 Y109.162 E3.30865
G1 X160.271 Y109.767 E3.339
G1 X160.03 Y110.618 E3.38312
G1 X159.811 Y111.143 E3.4115
G1 X159.512 Y111.625 E3.4398
G1 X159.031 Y112.191 E3.47686
G1 X158.61 Y112.588 E3.50573
G1 X157.995 Y112.995 E3.54252
G1 X157.437 Y113.266 E3.57347
G1 X156.953 Y113.414 E3.59872
G1 X156.201 Y113.506 E3.63652
G1 X155.476 Y113.516 E3.67269
G1 X129.509 Y113.517 E4.96819
G1 X128.803 Y113.507 E5.00341
G1 X128.205 Y113.447 E5.0334
G1 X127.649 Y113.298 E5.06212
G1 X126.981 Y112.992 E5.09877
G1 X126.352 Y112.555 E5.13698
G1 X125.86 Y112.08 E5.1711
G1 X125.494 Y111.635 E5.19985
G1 X125.113 Y110.97 E5.23808
G1 X124.894 Y110.44 E5.2667
G1 X124.73 Y109.731 E5.303
G1 X124.669 Y109.138 E5.33274
G1 X124.611 Y105.646 E5.50698
G1 X124.496 Y102.928 E5.64271
G1 X124.33 Y100.487 E5.76477
G1 X124.303 Y99.188 E5.82959
G1 X124.302 Y97.336 E5.92199
G1 X124.314 Y96.475 E5.96495
G1 X124.315 Y94.186 E6.07915
G1 X124.304 Y92.917 E6.14246
G1 X124.304 Y90.45 E6.26554
G1 X124.323 Y89.55 E6.31045
G1 X124.411 Y88.312 E6.37237
G1 X124.564 Y85.604 E6.50769
G1 X124.644 Y82.813 E6.64699
G1 X124.667 Y80.749 E6.74997
G1 X124.725 Y80.151 E6.77994
G1 X124.869 Y79.601 E6.80831
G1 X125.156 Y78.932 E6.84462
G1 X125.438 Y78.418 E6.87387
G0 F3600 X125.768 Y78.648
G1 F1800 X126.341 Y77.969 E6.9182
G1 X127.114 Y77.391 E6.96635
G1 X127.694 Y77.111 E6.99849
G1 X128.178 Y76.966 E7.02369
G1 X128.805 Y76.894 E7.05518
G1 X129.475 Y76.884 E7.08861
G1 X155.489 Y76.884 E8.38645
G1 X156.192 Y76.894 E8.42153
G1 X156.695 Y76.941 E8.44673
G1 X157.185 Y77.067 E8.47198
G1 X157.862 Y77.375 E8.50908
G1 X158.411 Y77.751 E8.54228
G1 X158.964 Y78.301 E8.58119
G1 X159.354 Y78.857 E8.61507
G1 X159.594 Y79.342 E8.64207
G1 X159.853 Y80.144 E8.68412
G1 X159.93 Y80.856 E8.71985
G1 X159.949 Y81.884 E8.77114
G1 X159.944 Y108.469 E10.09747
G1 X159.934 Y109.156 E10.13175
G1 X159.886 Y109.659 E10.15696
G1 X159.66 Y110.467 E10.19882
G1 X159.469 Y110.935 E10.22404
G1 X159.206 Y111.367 E10.24927
G1 X158.753 Y111.903 E10.28428
G1 X158.389 Y112.254 E10.30951
G1 X157.774 Y112.661 E10.3463
G1 X157.32 Y112.883 E10.37152
G1 X156.836 Y113.031 E10.39677
G1 X156.195 Y113.106 E10.42896
G1 X155.476 Y113.116 E10.46484
G1 X129.515 Y113.117 E11.76004
G1 X128.809 Y113.107 E11.79526
G1 X128.305 Y113.06 E11.82052
G1 X127.816 Y112.934 E11.84571
G1 X127.148 Y112.628 E11.88237
G1 X126.629 Y112.267 E11.91391
G1 X126.166 Y111.822 E11.94595
G1 X125.84 Y111.435 E11.97119
G1 X125.481 Y110.813 E12.00702
G1 X125.283 Y110.348 E12.03224
G1 X125.128 Y109.689 E12.06601
G1 X125.069 Y109.131 E12.094
G1 X125.011 Y105.639 E12.26825
G1 X124.896 Y102.911 E12.40447
G1 X124.73 Y100.479 E12.52608
G1 X124.703 Y99.188 E12.5905
G1 X124.702 Y97.342 E12.6826
G1 X124.714 Y96.481 E12.72556
G1 X124.715 Y94.186 E12.84006
G1 X124.704 Y92.914 E12.90352
G1 X124.704 Y90.458 E13.02605
G1 X124.722 Y89.578 E13.06997
G1 X124.81 Y88.34 E13.13188
G1 X124.964 Y85.615 E13.26805
G1 X125.044 Y82.824 E13.40735
G1 X125.067 Y80.753 E13.51068
G1 X125.113 Y80.249 E13.53593
G1 X125.237 Y79.759 E13.56115
G1 X125.524 Y79.09 E13.59747
G1 X125.768 Y78.648 E13.62265
G1 F1500 E7.12265
;MESH:y_axis_bracket.stl
G0 F3600 X127.609 Y80.757
G0 X128.683 Y80.968
G0 X140.566 Y90.359
G0 X143.353 Y91.314
G0 X143.261 Y91.017
;TYPE:WALL-INNER
G1 F1500 E13.62265
G1 F1800 X142.67 Y91.1 E13.65243
G1 X141.792 Y91.029 E13.69638
G1 X141.239 Y90.872 E13.72506
G1 X140.502 Y90.492 E13.76642
G1 X139.915 Y90.008 E13.80438
G1 X139.473 Y89.461 E13.83947
G1 X139.159 Y88.844 E13.87401
G1 X138.984 Y88.276 E13.90366
G1 X138.9 Y87.422 E13.94647
G1 X138.976 Y86.76 E13.97971
G1 X139.145 Y86.182 E14.00976
G1 X139.469 Y85.552 E14.0451
G1 X139.913 Y84.987 E14.08095
G1 X140.225 Y84.708 E14.10183
G1 X140.79 Y84.329 E14.13578
G1 X141.148 Y84.162 E14.15548
G1 X141.779 Y83.969 E14.18841
G1 X142.34 Y83.904 E14.21658
G1 X143.197 Y83.961 E14.25943
G1 X143.791 Y84.144 E14.29044
G1 X144.516 Y84.511 E14.33098
G1 X145.077 Y84.979 E14.36743
G1 X145.523 Y85.536 E14.40303
G1 X145.823 Y86.122 E14.43587
G1 X146.011 Y86.698 E14.4661
G1 X146.097 Y87.574 E14.51002
G1 X146.016 Y88.264 E14.54468
G1 X145.853 Y88.81 E14.5731
G1 X145.529 Y89.445 E14.60867
G1 X145.087 Y90.005 E14.64426
G1 X144.774 Y90.286 E14.66525
G1 X144.237 Y90.654 E14.69773
G1 X143.89 Y90.82 E14.71692
G1 X143.261 Y91.017 E14.7498
G0 F3600 X143.353 Y91.314
G0 X146.261 Y101.657
G0 X146.353 Y102.578
G0 X146.086 Y103.909
G0 X145.277 Y105.17
G0 X144.459 Y105.799
G0 X143.259 Y106.338
G0 X143.221 Y106.03
G1 F1800 X142.611 Y106.095 E14.78041
G1 X141.867 Y106.039 E14.81763
G1 X141.261 Y105.885 E14.84882
G1 X140.482 Y105.484 E14.89254
G1 X139.921 Y105.019 E14.92889
G1 X139.473 Y104.46 E14.96463
G1 X139.173 Y103.874 E14.99747
G1 X138.985 Y103.298 E15.0277
G1 X138.9 Y102.422 E15.07161
G1 X138.982 Y101.706 E15.10757
G1 X139.155 Y101.163 E15.136
G1 X139.471 Y100.555 E15.17018
G1 X139.897 Y100.008 E15.20477
G1 X140.204 Y99.723 E15.22567
G1 X140.755 Y99.348 E15.25892
G1 X141.105 Y99.176 E15.27838
G1 X141.742 Y98.981 E15.31162
G1 X142.321 Y98.9 E15.34078
G1 X143.211 Y98.968 E15.38531
G1 X143.756 Y99.128 E15.41365
G1 X144.514 Y99.51 E15.456
G1 X145.078 Y99.981 E15.49266
G1 X145.523 Y100.536 E15.52815
G1 X145.823 Y101.122 E15.56099
G1 X146.011 Y101.698 E15.59122
G1 X146.097 Y102.574 E15.63514
G1 X146.02 Y103.233 E15.66824
G1 X145.852 Y103.81 E15.69822
G1 X145.53 Y104.45 E15.73396
G1 X145.056 Y105.033 E15.77145
G1 X144.774 Y105.286 E15.79035
G1 X144.239 Y105.656 E15.8228
G1 X143.852 Y105.833 E15.84403
G1 X143.221 Y106.03 E15.87701
G0 F3600 X143.259 Y106.338
G0 X141.766 Y106.283
G0 X129.161 Y99.874
G0 X128.848 Y99.874
G1 F1800 X128.849 Y108.923 E16.32847
G1 X156.144 Y108.923 E17.69022
G1 X156.147 Y81.073 E19.07967
G1 X128.852 Y81.072 E20.44142
G1 X128.848 Y90.127 E20.89317
G1 X128.764 Y90.237 E20.90008
G1 X128.761 Y94.1 E21.09281
G1 X128.844 Y94.737 E21.12485
G1 X128.827 Y95.454 E21.16064
G1 X128.76 Y95.891 E21.18269
G1 X128.764 Y99.759 E21.37567
G1 X128.848 Y99.874 E21.38277
G0 F3600 X128.446 Y99.93
;TYPE:WALL-OUTER
G1 F1800 X128.448 Y109.028 E21.83667
G1 X128.529 Y109.324 E21.85198
G1 X156.454 Y109.324 E23.24517
G1 X156.544 Y109.069 E23.25866
G1 X156.547 Y80.967 E24.66067
G1 X156.47 Y80.672 E24.67588
G1 X128.528 Y80.672 E26.06992
G1 X128.452 Y80.945 E26.08405
G1 X128.446 Y90.07 E26.5393
G1 X128.364 Y90.177 E26.54603
G1 X128.361 Y94.126 E26.74304
G1 X128.443 Y94.741 E26.774
G1 X128.426 Y95.444 E26.80908
G1 X128.36 Y95.86 E26.8301
G1 X128.364 Y99.818 E27.02756
G1 X128.446 Y99.93 E27.03449
G0 F3600 X128.446 Y100.13
G0 X128.761 Y100.13
G0 X141.316 Y105.742
G0 X143.16 Y105.946
G0 X143.122 Y105.639
G1 F1800 X142.641 Y105.696 E27.05865
G1 X141.858 Y105.633 E27.09784
G1 X141.422 Y105.513 E27.1204
G1 X140.688 Y105.135 E27.16159
G1 X140.195 Y104.722 E27.19368
G1 X139.801 Y104.224 E27.22536
G1 X139.529 Y103.692 E27.25517
G1 X139.384 Y103.231 E27.27928
G1 X139.3 Y102.426 E27.31966
G1 X139.373 Y101.807 E27.35076
G1 X139.516 Y101.337 E27.37526
G1 X139.807 Y100.771 E27.40702
G1 X140.206 Y100.262 E27.43928
G1 X140.444 Y100.043 E27.45542
G1 X140.955 Y99.694 E27.48629
G1 X141.251 Y99.549 E27.50273
G1 X141.86 Y99.363 E27.5345
G1 X142.32 Y99.304 E27.55764
G1 X143.114 Y99.357 E27.59734
G1 X143.611 Y99.501 E27.62316
G1 X144.313 Y99.862 E27.66254
G1 X144.801 Y100.274 E27.6944
G1 X145.195 Y100.772 E27.72608
G1 X145.467 Y101.304 E27.75589
G1 X145.612 Y101.765 E27.78
G1 X145.697 Y102.57 E27.82039
G1 X145.616 Y103.219 E27.85302
G1 X145.484 Y103.647 E27.87536
G1 X145.181 Y104.245 E27.90881
G1 X144.805 Y104.717 E27.93892
G1 X144.546 Y104.957 E27.95653
G1 X144.027 Y105.313 E27.98793
G1 X143.759 Y105.441 E28.00275
G1 X143.122 Y105.639 E28.03603
G0 F3600 X142.924 Y105.662
G0 X142.962 Y105.971
G0 X144.166 Y105.522
G0 X144.983 Y104.897
G0 X145.714 Y103.759
G0 X145.951 Y102.574
G0 X143.16 Y90.946
G0 X143.122 Y90.639
G1 F1800 X142.64 Y90.696 E28.06024
G1 X141.872 Y90.637 E28.09867
G1 X141.411 Y90.51 E28.12253
G1 X140.711 Y90.151 E28.16178
G1 X140.206 Y89.734 E28.19445
G1 X139.801 Y89.224 E28.22694
G1 X139.52 Y88.671 E28.25789
G1 X139.378 Y88.207 E28.2821
G1 X139.3 Y87.426 E28.32125
G1 X139.373 Y86.808 E28.3523
G1 X139.526 Y86.316 E28.37801
G1 X139.818 Y85.756 E28.40951
G1 X140.194 Y85.276 E28.43993
G1 X140.451 Y85.038 E28.45741
G1 X140.967 Y84.688 E28.48852
G1 X141.265 Y84.544 E28.50503
G1 X141.874 Y84.361 E28.53675
G1 X142.354 Y84.304 E28.56087
G1 X143.144 Y84.363 E28.60039
G1 X143.611 Y84.501 E28.62469
G1 X144.313 Y84.862 E28.66407
G1 X144.801 Y85.274 E28.69593
G1 X145.195 Y85.772 E28.72761
G1 X145.467 Y86.304 E28.75742
G1 X145.612 Y86.765 E28.78153
G1 X145.697 Y87.57 E28.82192
G1 X145.622 Y88.195 E28.85332
G1 X145.484 Y88.647 E28.8769
G1 X145.193 Y89.229 E28.90936
G1 X144.805 Y89.717 E28.94047
G1 X144.567 Y89.941 E28.95677
G1 X144.047 Y90.302 E28.98836
G1 X143.745 Y90.447 E29.00507
G1 X143.122 Y90.639 E29.03759
G0 F3600 X142.924 Y90.662
G0 X142.962 Y90.971
G0 X129.225 Y99.812
;TYPE:SKIN
G1 F1800 X129.144 Y99.669 E29.04579
G1 X129.14 Y95.911 E29.23328
G1 X129.202 Y95.494 E29.25431
G1 X129.223 Y94.693 E29.29429
G1 X129.14 Y94.067 E29.32579
G1 X129.144 Y90.327 E29.51238
G1 X129.225 Y90.184 E29.52058
G1 X129.232 Y81.452 E29.95622
G1 X155.764 Y81.452 E31.27991
G1 X155.764 Y108.54 E32.63134
G1 X129.228 Y108.54 E33.95522
G1 X129.225 Y99.812 E34.39066
G0 F3600 X141.17 Y106.116
G0 X143.291 Y106.402
G1 F1800 X143.964 Y106.196 E34.42578
G1 X144.404 Y105.994 E34.44993
G1 X145.041 Y105.562 E34.48833
G1 X145.399 Y105.221 E34.513
G1 X145.841 Y104.665 E34.54843
G1 X146.167 Y104.026 E34.58422
G1 X146.379 Y103.391 E34.61762
G1 X146.476 Y102.556 E34.65956
G1 X146.384 Y101.632 E34.70589
G1 X146.162 Y100.951 E34.74162
G1 X145.846 Y100.343 E34.77581
G1 X145.362 Y99.724 E34.81501
G1 X144.721 Y99.185 E34.85679
G1 X143.907 Y98.775 E34.90226
G1 X143.275 Y98.593 E34.93508
G1 X142.301 Y98.52 E34.9838
G1 X141.691 Y98.598 E35.01449
G1 X140.971 Y98.817 E35.05203
G1 X140.555 Y99.021 E35.07515
G1 X139.96 Y99.428 E35.11111
G1 X139.603 Y99.758 E35.13537
G1 X139.157 Y100.333 E35.17167
G1 X138.784 Y101.061 E35.21248
G1 X138.603 Y101.68 E35.24466
G1 X138.52 Y102.436 E35.2826
G1 X138.608 Y103.356 E35.32871
G1 X138.817 Y104.014 E35.36315
G1 X139.142 Y104.648 E35.3987
G1 X139.636 Y105.27 E35.43832
G1 X140.252 Y105.786 E35.47841
G1 X141.152 Y106.251 E35.52895
G1 X141.8 Y106.411 E35.56225
G1 X142.641 Y106.476 E35.60434
G1 X143.291 Y106.402 E35.63698
G0 F3600 X144.368 Y105.869
G0 X145.277 Y105.17
G0 X146.086 Y103.909
G0 X146.353 Y102.578
G0 X143.312 Y91.397
G1 F1800 X144.036 Y91.171 E35.67481
G1 X144.475 Y90.951 E35.69931
G1 X145.019 Y90.578 E35.73222
G1 X145.374 Y90.252 E35.75627
G1 X145.838 Y89.66 E35.79379
G1 X146.198 Y88.968 E35.83271
G1 X146.39 Y88.327 E35.86609
G1 X146.476 Y87.556 E35.9048
G1 X146.375 Y86.589 E35.9533
G1 X146.175 Y85.977 E35.98542
G1 X145.855 Y85.345 E36.02077
G1 X145.36 Y84.722 E36.06046
G1 X144.707 Y84.181 E36.10277
G1 X143.883 Y83.765 E36.14882
G1 X143.195 Y83.582 E36.18434
G1 X142.283 Y83.521 E36.22994
G1 X141.633 Y83.614 E36.2627
G1 X140.974 Y83.812 E36.29703
G1 X140.52 Y84.042 E36.32242
G1 X140.007 Y84.39 E36.35335
G1 X139.646 Y84.71 E36.37742
G1 X139.134 Y85.368 E36.41901
G1 X138.83 Y85.956 E36.45203
G1 X138.614 Y86.596 E36.48573
G1 X138.52 Y87.436 E36.5279
G1 X138.608 Y88.328 E36.57262
G1 X138.794 Y88.957 E36.60535
G1 X139.141 Y89.643 E36.6437
G1 X139.653 Y90.292 E36.68494
G1 X140.266 Y90.797 E36.72456
G1 X141.115 Y91.238 E36.7723
G1 X141.712 Y91.401 E36.80317
G1 X142.696 Y91.48 E36.85242
G1 X143.312 Y91.397 E36.88343
G0 F3600 X144.368 Y90.869
G0 X145.104 Y90.303
G0 X155.564 Y82.025
G1 F1800 X155.191 Y81.652 E36.90975
G0 F3600 X154.625 Y81.652
G1 F1800 X155.564 Y82.591 E36.976
G0 F3600 X155.564 Y83.156
G1 F1800 X154.059 Y81.652 E37.08215
G0 F3600 X153.494 Y81.652
G1 F1800 X155.564 Y83.722 E37.2282
G0 F3600 X155.564 Y84.288
G1 F1800 X152.928 Y81.652 E37.41418
G0 F3600 X152.362 Y81.652
G1 F1800 X155.564 Y84.854 E37.6401
G0 F3600 X155.564 Y85.419
G1 F1800 X151.797 Y81.652 E37.90588
G0 F3600 X151.231 Y81.652
G1 F1800 X155.564 Y85.985 E38.2116
G0 F3600 X155.564 Y86.551
G1 F1800 X150.665 Y81.652 E38.55725
G0 F3600 X150.1 Y81.652
G1 F1800 X155.564 Y87.116 E38.94277
G0 F3600 X155.564 Y87.682
G1 F1800 X149.534 Y81.652 E39.36821
G0 F3600 X148.968 Y81.652
G1 F1800 X155.564 Y88.248 E39.8336
G0 F3600 X155.564 Y88.813
G1 F1800 X148.403 Y81.652 E40.33885
G0 F3600 X147.837 Y81.652
G1 F1800 X155.564 Y89.379 E40.88403
G0 F3600 X155.564 Y89.945
G1 F1800 X147.271 Y81.652 E41.46914
G0 F3600 X146.706 Y81.652
G1 F1800 X155.564 Y90.51 E42.09412
G0 F3600 X155.564 Y91.076
G1 F1800 X146.14 Y81.652 E42.75904
G0 F3600 X145.574 Y81.652
G1 F1800 X155.564 Y91.642 E43.46388
G0 F3600 X155.564 Y92.207
G1 F1800 X145.009 Y81.652 E44.2086
G0 F3600 X144.443 Y81.652
G1 F1800 X155.564 Y92.773 E44.99324
G0 F3600 X155.564 Y93.339
G1 F1800 X143.877 Y81.652 E45.81782
G0 F3600 X143.311 Y81.652
G1 F1800 X155.564 Y93.904 E46.6823
G0 F3600 X155.564 Y94.47
G1 F1800 X142.746 Y81.652 E47.58668
G0 F3600 X142.18 Y81.652
G1 F1800 X144.26 Y83.731 E47.7334
G1 X144.33 Y83.801
G0 F3600 X143.389 Y83.426
G1 F1800 X141.614 Y81.652 E47.8586
G0 F3600 X141.049 Y81.652
G1 F1800 X142.744 Y83.347 E47.9782
G0 F3600 X142.167 Y83.335
G1 F1800 X140.483 Y81.652 E48.09698
G0 F3600 X139.917 Y81.652
G1 F1800 X141.672 Y83.406 E48.22077
G0 F3600 X141.228 Y83.528
G1 F1800 X139.352 Y81.652 E48.35313
G0 F3600 X138.786 Y81.652
G1 F1800 X140.805 Y83.671 E48.49558
G0 F3600 X140.433 Y83.864
G1 F1800 X138.22 Y81.652 E48.65168
G0 F3600 X137.655 Y81.652
G1 F1800 X140.092 Y84.089 E48.82363
G0 F3600 X139.772 Y84.335
G1 F1800 X137.089 Y81.652 E49.01293
G0 F3600 X136.523 Y81.652
G1 F1800 X139.474 Y84.602 E49.2211
G0 F3600 X139.228 Y84.922
G1 F1800 X135.958 Y81.652 E49.45182
G0 F3600 X135.392 Y81.652
G1 F1800 X138.983 Y85.242 E49.70515
G0 F3600 X138.784 Y85.609
G1 F1800 X134.826 Y81.652 E49.98437
G0 F3600 X134.26 Y81.652
G1 F1800 X138.607 Y85.998 E50.29104
G0 F3600 X138.464 Y86.42
G1 F1800 X133.695 Y81.652 E50.62748
G0 F3600 X133.129 Y81.652
G1 F1800 X138.375 Y86.898 E50.99761
G0 F3600 X138.318 Y87.406
G1 F1800 X132.563 Y81.652 E51.40363
G0 F3600 X131.998 Y81.652
G1 F1800 X138.378 Y88.032 E51.85377
G0 F3600 X138.522 Y88.741
G1 F1800 X131.432 Y81.652 E52.35397
G0 F3600 X130.866 Y81.652
G1 F1800 X138.978 Y89.763 E52.92628
G1 X139.048 Y89.833
G0 F3600 X140.207 Y90.992
G1 F1800 X155.564 Y106.35 E54.00984
G0 F3600 X155.564 Y106.915
G1 F1800 X130.301 Y81.652 E55.79228
G0 F3600 X129.735 Y81.652
G1 F1800 X155.564 Y107.481 E57.61465
G0 F3600 X155.564 Y108.047
G1 F1800 X129.432 Y81.914 E59.45844
G0 F3600 X129.431 Y82.479
G1 F1800 X155.292 Y108.34 E61.28307
G0 F3600 X154.726 Y108.34
G1 F1800 X129.43 Y83.044 E63.06784
G0 F3600 X129.43 Y83.609
G1 F1800 X144.876 Y99.055 E64.15764
G1 X144.946 Y99.125
G0 F3600 X143.789 Y98.534
G1 F1800 X129.429 Y84.174 E65.17082
G0 F3600 X129.428 Y84.739
G1 F1800 X143.068 Y98.379 E66.13319
G0 F3600 X142.453 Y98.33
G1 F1800 X129.427 Y85.304 E67.05225
G0 F3600 X129.427 Y85.869
G1 F1800 X141.926 Y98.368 E67.93412
G0 F3600 X141.455 Y98.463
