;FLAVOR:Marlin
;TIME:3946
;Filament used: 3.45241m
;Layer height: 0.15
;MINX:108.649
;MINY:76.4
;MINZ:0.3
;MAXX:161.35
;MAXY:113.6
;MAXZ:45
;TARGET_MACHINE.NAME:Unknown
;Generated with Cura_SteamEngine 5.10.0
M104 S200
M105
M109 S200
G28 ;Home
G1 Z15.0 F6000 ;Move the platform down 15mm
;Prime the extruder
G92 E0
G1 F200 E3
G92 E0
M82 ;absolute extrusion mode
G92 E0
G92 E0
G1 F1500 E-6.5
;LAYER_COUNT:299
;LAYER:0
M107
G0 F3600 X109.37 Y89.862 Z0.3
;TYPE:SKIRT
G1 F1500 E0
G1 F1800 X109.791 Y89.387 E0.03167
G1 X110.227 Y89.036 E0.05959
G1 X111.559 Y88.141 E0.13965
G1 X113.812 Y86.571 E0.27665
G1 X116.003 Y84.95 E0.41263
G1 X118.144 Y83.272 E0.54834
G1 X120.269 Y81.506 E0.68619
G1 X122.277 Y79.737 E0.8197
G1 X124.788 Y77.39 E0.99118
G1 X125.231 Y77.035 E1.0195
G1 X125.726 Y76.752 E1.04795
G1 X126.258 Y76.552 E1.0763
G1 X126.816 Y76.439 E1.1047
G1 X127.58 Y76.4 E1.14287
G1 X157.095 Y76.4 E2.61538
G1 X157.793 Y76.41 E2.65021
G1 X158.39 Y76.47 E2.68014
G1 X158.94 Y76.616 E2.70853
G1 X159.404 Y76.818 E2.73378
G1 X159.885 Y77.12 E2.76211
G1 X160.358 Y77.539 E2.79364
G1 X160.713 Y77.981 E2.82192
G1 X160.996 Y78.475 E2.85033
G1 X161.197 Y79.006 E2.87865
G1 X161.312 Y79.563 E2.90703
G1 X161.349 Y80.24 E2.94085
G1 X161.35 Y109.309 E4.39111
G1 X161.341 Y110.036 E4.42738
G1 X161.283 Y110.633 E4.45731
G1 X161.137 Y111.183 E4.4857
G1 X160.907 Y111.702 E4.51402
G1 X160.598 Y112.18 E4.54242
G1 X160.217 Y112.603 E4.57082
G1 X159.776 Y112.96 E4.59913
G1 X159.282 Y113.244 E4.62755
G1 X158.751 Y113.445 E4.65588
G1 X158.257 Y113.553 E4.68111
G1 X157.51 Y113.599 E4.71845
G1 X127.905 Y113.6 E6.19545
G1 X127.203 Y113.59 E6.23047
G1 X126.606 Y113.53 E6.26041
G1 X126.056 Y113.384 E6.2888
G1 X125.539 Y113.153 E6.31705
G1 X124.976 Y112.788 E6.35052
G1 X124.234 Y112.096 E6.40114
G1 X123.242 Y111.147 E6.46963
G1 X121.197 Y109.296 E6.60724
G1 X119.13 Y107.531 E6.74285
G1 X117.028 Y105.834 E6.87763
G1 X114.865 Y104.19 E7.01317
G1 X112.64 Y102.594 E7.14978
G1 X110.245 Y100.978 E7.29392
G1 X109.778 Y100.601 E7.32387
G1 X109.437 Y100.227 E7.34912
G1 X109.09 Y99.7 E7.3806
G1 X108.882 Y99.239 E7.40583
G1 X108.717 Y98.63 E7.43731
G1 X108.649 Y97.983 E7.46977
G1 X108.657 Y94.558 E7.64064
G1 X108.65 Y92.655 E7.73558
G1 X108.66 Y91.954 E7.77056
G1 X108.72 Y91.357 E7.80049
G1 X108.866 Y90.807 E7.82888
G1 X109.068 Y90.344 E7.85408
G1 X109.37 Y89.862 E7.88246
G0 F3600 X109.707 Y90.077
G1 F1800 X110.042 Y89.699 E7.90766
G1 X110.478 Y89.348 E7.93559
G1 X111.782 Y88.473 E8.01393
G1 X114.05 Y86.893 E8.15183
G1 X116.241 Y85.272 E8.28781
G1 X118.4 Y83.58 E8.42466
G1 X120.525 Y81.813 E8.56254
G1 X122.55 Y80.03 E8.69714
G1 X124.643 Y78.081 E8.83983
G1 X125.041 Y77.7 E8.86732
G1 X125.433 Y77.38 E8.89256
G1 X125.87 Y77.125 E8.9178
G1 X126.341 Y76.943 E8.943
G1 X126.836 Y76.838 E8.96824
G1 X127.58 Y76.8 E9.00541
G1 X157.089 Y76.8 E10.47762
G1 X157.787 Y76.81 E10.51244
G1 X158.29 Y76.857 E10.53765
G1 X158.78 Y76.983 E10.56289
G1 X159.244 Y77.185 E10.58814
G1 X159.67 Y77.457 E10.61335
G1 X160.048 Y77.792 E10.63855
G1 X160.368 Y78.183 E10.66376
G1 X160.623 Y78.62 E10.689
G1 X160.806 Y79.091 E10.71421
G1 X160.913 Y79.585 E10.73943
G1 X160.949 Y80.24 E10.77216
G1 X160.95 Y109.304 E12.22216
G1 X160.941 Y110.031 E12.25844
G1 X160.895 Y110.534 E12.28364
G1 X160.77 Y111.024 E12.30887
G1 X160.569 Y111.488 E12.33409
G1 X160.298 Y111.915 E12.35933
G1 X159.963 Y112.294 E12.38456
G1 X159.573 Y112.615 E12.40976
G1 X159.137 Y112.871 E12.43499
G1 X158.666 Y113.054 E12.4602
G1 X158.172 Y113.162 E12.48542
G1 X157.51 Y113.199 E12.5185
G1 X127.911 Y113.2 E13.9952
G1 X127.209 Y113.19 E14.03023
G1 X126.706 Y113.143 E14.05543
G1 X126.216 Y113.017 E14.08067
G1 X125.753 Y112.815 E14.10588
G1 X125.249 Y112.495 E14.13566
G1 X124.511 Y111.807 E14.186
G1 X123.519 Y110.858 E14.25449
G1 X121.465 Y108.999 E14.3927
G1 X119.39 Y107.227 E14.52884
G1 X117.279 Y105.523 E14.66418
G1 X115.098 Y103.865 E14.80087
G1 X112.864 Y102.262 E14.93804
G1 X110.469 Y100.646 E15.08219
G1 X110.074 Y100.331 E15.10739
G1 X109.733 Y99.957 E15.13264
G1 X109.455 Y99.535 E15.15785
G1 X109.247 Y99.074 E15.18309
G1 X109.115 Y98.586 E15.20831
G1 X109.049 Y97.984 E15.23852
G1 X109.057 Y94.559 E15.4094
G1 X109.05 Y92.661 E15.50409
G1 X109.06 Y91.96 E15.53907
G1 X109.107 Y91.457 E15.56427
G1 X109.233 Y90.967 E15.58951
G1 X109.435 Y90.504 E15.61471
G1 X109.707 Y90.077 E15.63997
G1 F1500 E9.13997
;MESH:y_axis_bracket.stl
G0 F3600 X111.585 Y92.424
G0 X112.674 Y92.424
G0 X118.841 Y92.809
G0 X119.817 Y91.54
G0 X120.77 Y90.862
G0 X121.613 Y90.507
G0 X122.507 Y90.325
G0 X123.899 Y90.386
G0 X124.78 Y90.648
G0 X126.149 Y91.509
G0 X126.771 Y92.193
G0 X127.245 Y92.98
G0 X127.622 Y94.185
G0 X127.852 Y99.201
G0 X127.677 Y99.56
;TYPE:WALL-INNER
G1 F1500 E15.63997
G1 F1800 X127.818 Y99.789 E15.65339
G1 X127.848 Y99.95 E15.66156
G1 X127.848 Y109.4 E16.13302
G1 X157.148 Y109.4 E17.5948
G1 X157.148 Y80.6 E19.03164
G1 X127.848 Y80.6 E20.49342
G1 X127.849 Y90.061 E20.96544
G1 X127.806 Y90.22 E20.97365
G1 X127.666 Y90.427 E20.98612
G1 X127.325 Y90.608 E21.00538
G1 X126.924 Y90.559 E21.02554
G1 X126.044 Y89.935 E21.07936
G1 X125.412 Y89.613 E21.11474
G1 X124.739 Y89.356 E21.15068
G1 X124.037 Y89.192 E21.18665
G1 X123.461 Y89.119 E21.21562
G1 X122.753 Y89.098 E21.25096
G1 X122.027 Y89.181 E21.28741
G1 X121.331 Y89.334 E21.32296
G1 X120.651 Y89.588 E21.35918
G1 X120.143 Y89.838 E21.38743
G1 X119.529 Y90.216 E21.4234
G1 X118.974 Y90.684 E21.45962
G1 X118.579 Y91.09 E21.48788
G1 X118.133 Y91.649 E21.52356
G1 X117.684 Y92.414 E21.56781
G1 X117.32 Y92.6 E21.5882
G1 X112.848 Y92.6 E21.81131
G1 X112.848 Y93.4 E21.85122
G1 X118.429 Y93.4 E22.12966
G1 X118.717 Y92.717 E22.16664
G1 X119.098 Y92.117 E22.2021
G1 X119.701 Y91.441 E22.24729
G1 X120.241 Y91.006 E22.28189
G1 X120.71 Y90.721 E22.30927
G1 X121.576 Y90.358 E22.35612
G1 X122.491 Y90.175 E22.40267
G1 X122.999 Y90.148 E22.42805
G1 X123.953 Y90.243 E22.47588
G1 X124.831 Y90.507 E22.52162
G1 X125.486 Y90.83 E22.55806
G1 X126.244 Y91.387 E22.60499
G1 X126.895 Y92.108 E22.65345
G1 X127.383 Y92.913 E22.70041
G1 X127.641 Y93.592 E22.73665
G1 X127.799 Y94.291 E22.77241
G1 X127.847 Y95.242 E22.81991
G1 X127.701 Y96.186 E22.86757
G1 X127.385 Y97.068 E22.91431
G1 X127.024 Y97.708 E22.95097
G1 X126.422 Y98.439 E22.99821
G1 X125.72 Y99.013 E23.04345
G1 X125.072 Y99.385 E23.08073
G1 X124.382 Y99.645 E23.11752
G1 X123.449 Y99.826 E23.16493
G1 X122.52 Y99.827 E23.21128
G1 X121.564 Y99.632 E23.25996
G1 X120.686 Y99.269 E23.30736
G1 X119.897 Y98.727 E23.35512
G1 X119.363 Y98.208 E23.39227
G1 X118.817 Y97.46 E23.43847
G1 X118.521 Y96.862 E23.47176
G1 X118.431 Y96.6 E23.48558
G1 X112.848 Y96.6 E23.76412
G1 X112.848 Y97.4 E23.80403
G1 X117.232 Y97.4 E24.02275
G1 X117.683 Y97.582 E24.04701
G1 X118.128 Y98.343 E24.09099
G1 X118.579 Y98.906 E24.12698
G1 X118.974 Y99.312 E24.15524
G1 X119.413 Y99.682 E24.18388
G1 X119.893 Y100.013 E24.21297
G1 X120.39 Y100.289 E24.24134
G1 X120.916 Y100.517 E24.26994
G1 X121.473 Y100.696 E24.29913
G1 X122.166 Y100.848 E24.33452
G1 X123.028 Y100.906 E24.37762
G1 X123.752 Y100.848 E24.41386
G1 X124.317 Y100.75 E24.44247
G1 X124.861 Y100.594 E24.4707
G1 X125.534 Y100.336 E24.50666
G1 X126.284 Y99.908 E24.54974
G1 X126.825 Y99.483 E24.58407
G1 X127.064 Y99.37 E24.59726
G1 X127.417 Y99.397 E24.61492
G1 X127.677 Y99.56 E24.63023
G0 F3600 X127.852 Y99.201
G0 X140.852 Y105.983
G0 X141.732 Y106.278
G0 X143.187 Y106.346
G0 X143.157 Y106.034
G1 F1800 X142.504 Y106.1 E24.66297
G1 X141.782 Y106.031 E24.69916
G1 X140.95 Y105.754 E24.74291
G1 X140.427 Y105.441 E24.77331
G1 X139.923 Y105.02 E24.80608
G1 X139.537 Y104.54 E24.83681
G1 X139.145 Y103.823 E24.87758
G1 X138.927 Y102.969 E24.92155
G1 X138.908 Y102.272 E24.95633
G1 X138.985 Y101.694 E24.98543
G1 X139.282 Y100.882 E25.02856
G1 X139.597 Y100.369 E25.0586
G1 X139.903 Y100 E25.08251
G1 X140.458 Y99.529 E25.11883
G1 X140.943 Y99.249 E25.14677
G1 X141.769 Y98.973 E25.19022
G1 X142.496 Y98.9 E25.22667
G1 X143.204 Y98.966 E25.26214
G1 X144.05 Y99.244 E25.30657
G1 X144.531 Y99.525 E25.33436
G1 X145.052 Y99.959 E25.36819
G1 X145.43 Y100.401 E25.39721
G1 X145.85 Y101.178 E25.44127
G1 X146.07 Y102.031 E25.48522
G1 X146.096 Y102.572 E25.51224
G1 X146.009 Y103.296 E25.54863
G1 X145.715 Y104.13 E25.59274
G1 X145.397 Y104.634 E25.62247
G1 X145.035 Y105.052 E25.65006
G1 X144.526 Y105.48 E25.68324
G1 X143.748 Y105.881 E25.72691
G1 X143.157 Y106.034 E25.75736
G0 F3600 X143.187 Y106.346
G0 X144.666 Y105.689
G0 X145.63 Y104.744
G0 X146.257 Y103.363
G0 X146.321 Y101.997
G0 X143.237 Y91.341
G0 X143.207 Y91.026
G1 F1800 X142.495 Y91.1 E25.79308
G1 X141.78 Y91.027 E25.82893
G1 X140.95 Y90.75 E25.87259
G1 X140.465 Y90.47 E25.90053
G1 X139.944 Y90.037 E25.93433
G1 X139.574 Y89.6 E25.96289
G1 X139.151 Y88.824 E26.00699
G1 X138.925 Y87.959 E26.05159
G1 X138.908 Y87.272 E26.08588
G1 X138.985 Y86.692 E26.11507
G1 X139.286 Y85.865 E26.15897
G1 X139.597 Y85.369 E26.18818
G1 X139.918 Y84.981 E26.2133
G1 X140.417 Y84.561 E26.24584
G1 X140.941 Y84.247 E26.27632
G1 X141.792 Y83.968 E26.321
G1 X142.492 Y83.896 E26.35611
G1 X143.215 Y83.964 E26.39234
G1 X144.049 Y84.244 E26.43623
G1 X144.569 Y84.555 E26.46646
G1 X145.073 Y84.976 E26.49922
G1 X145.459 Y85.455 E26.52991
G1 X145.856 Y86.181 E26.57119
G1 X146.069 Y87.027 E26.61472
G1 X146.096 Y87.572 E26.64194
G1 X146.012 Y88.3 E26.6785
G1 X145.713 Y89.125 E26.72228
G1 X145.397 Y89.634 E26.75217
G1 X145.074 Y90.016 E26.77713
G1 X144.528 Y90.478 E26.81281
G1 X143.755 Y90.874 E26.85614
G1 X143.207 Y91.026 E26.88451
G0 F3600 X143.607 Y90.502
;TYPE:WALL-OUTER
G1 F1800 X143.133 Y90.633 E26.90905
G1 X142.481 Y90.696 E26.94173
G1 X141.865 Y90.636 E26.97261
G1 X141.136 Y90.394 E27.01093
G1 X140.711 Y90.154 E27.03528
G1 X140.198 Y89.725 E27.06864
G1 X139.9 Y89.368 E27.09184
G1 X139.522 Y88.675 E27.13123
G1 X139.321 Y87.904 E27.17098
G1 X139.31 Y87.242 E27.20401
G1 X139.384 Y86.767 E27.22799
G1 X139.657 Y86.027 E27.26734
G1 X139.905 Y85.624 E27.29095
G1 X140.193 Y85.276 E27.31349
G1 X140.704 Y84.846 E27.34681
G1 X141.128 Y84.606 E27.37111
G1 X141.861 Y84.362 E27.40966
G1 X142.515 Y84.3 E27.44243
G1 X143.111 Y84.356 E27.4723
G1 X143.896 Y84.618 E27.51358
G1 X144.313 Y84.862 E27.53769
G1 X144.798 Y85.271 E27.56934
G1 X145.108 Y85.647 E27.59365
G1 X145.468 Y86.303 E27.63098
G1 X145.674 Y87.089 E27.67152
G1 X145.696 Y87.572 E27.69564
G1 X145.622 Y88.195 E27.72694
G1 X145.353 Y88.951 E27.76698
G1 X145.09 Y89.377 E27.79195
G1 X144.79 Y89.734 E27.81522
G1 X144.308 Y90.14 E27.84666
G1 X143.607 Y90.502 E27.88602
G0 F3600 X143.415 Y90.555
G0 X143.499 Y90.856
G0 X145.923 Y102.057
G0 X145.865 Y103.269
G0 X145.579 Y104.061
G0 X144.971 Y104.911
G0 X143.67 Y105.808
G0 X143.586 Y105.509
G1 F1800 X143.117 Y105.636 E27.91026
G1 X142.481 Y105.696 E27.94213
G1 X141.889 Y105.64 E27.9718
G1 X141.1 Y105.378 E28.01328
G1 X140.683 Y105.134 E28.03738
G1 X140.198 Y104.725 E28.06903
G1 X139.888 Y104.348 E28.09338
G1 X139.514 Y103.651 E28.13285
G1 X139.322 Y102.907 E28.17118
G1 X139.31 Y102.242 E28.20436
G1 X139.38 Y101.777 E28.22782
G1 X139.646 Y101.048 E28.26654
G1 X139.905 Y100.624 E28.29133
G1 X140.199 Y100.269 E28.31432
G1 X140.688 Y99.856 E28.34626
G1 X141.109 Y99.613 E28.37051
G1 X141.853 Y99.364 E28.40965
G1 X142.515 Y99.3 E28.44283
G1 X143.13 Y99.359 E28.47366
G1 X143.878 Y99.609 E28.513
G1 X144.3 Y99.852 E28.5373
G1 X144.798 Y100.271 E28.56977
G1 X145.108 Y100.647 E28.59408
G1 X145.468 Y101.303 E28.63141
G1 X145.674 Y102.085 E28.67176
G1 X145.696 Y102.572 E28.69608
G1 X145.613 Y103.228 E28.72907
G1 X145.361 Y103.932 E28.76637
G1 X145.09 Y104.377 E28.79237
G1 X144.777 Y104.746 E28.81651
G1 X144.284 Y105.154 E28.84843
G1 X143.586 Y105.509 E28.8875
G0 F3600 X143.393 Y105.561
G0 X143.477 Y105.863
G0 X142.5 Y105.952
G0 X141.363 Y105.733
G0 X127.76 Y99.946
G0 X127.446 Y99.946
G1 F1800 X127.448 Y109.8 E29.37912
G1 X157.548 Y109.8 E30.88081
G1 X157.548 Y80.2 E32.35756
G1 X127.448 Y80.2 E33.85926
G1 X127.446 Y90.028 E34.34958
G1 X127.388 Y90.14 E34.35587
G1 X127.242 Y90.216 E34.36408
G1 X127.112 Y90.201 E34.37061
G1 X126.252 Y89.592 E34.42319
G1 X125.574 Y89.247 E34.46114
G1 X124.857 Y88.972 E34.49945
G1 X124.108 Y88.798 E34.53781
G1 X123.492 Y88.72 E34.56879
G1 X122.737 Y88.697 E34.60648
G1 X121.961 Y88.786 E34.64545
G1 X121.217 Y88.949 E34.68344
G1 X120.492 Y89.22 E34.72206
G1 X119.949 Y89.488 E34.75227
G1 X119.294 Y89.891 E34.79064
G1 X118.701 Y90.391 E34.82933
G1 X118.279 Y90.825 E34.85954
G1 X117.802 Y91.422 E34.89766
G1 X117.384 Y92.137 E34.93898
G1 X117.267 Y92.198 E34.94556
G1 X112.448 Y92.2 E35.18598
G1 X112.448 Y93.8 E35.26581
G1 X118.721 Y93.8 E35.57877
G1 X118.878 Y93.315 E35.6042
G1 X119.066 Y92.913 E35.62634
G1 X119.418 Y92.359 E35.65909
G1 X119.983 Y91.725 E35.70146
G1 X120.513 Y91.304 E35.73523
G1 X120.887 Y91.08 E35.75698
G1 X121.677 Y90.748 E35.79973
G1 X122.52 Y90.575 E35.84266
G1 X123 Y90.548 E35.86665
G1 X123.874 Y90.636 E35.91047
G1 X124.706 Y90.888 E35.95384
G1 X125.282 Y91.177 E35.98599
G1 X125.974 Y91.686 E36.02885
G1 X126.58 Y92.36 E36.07407
G1 X127.021 Y93.09 E36.11662
G1 X127.259 Y93.715 E36.14999
G1 X127.403 Y94.347 E36.18232
G1 X127.444 Y95.221 E36.22598
G1 X127.312 Y96.091 E36.26988
G1 X127.011 Y96.923 E36.31402
G1 X126.694 Y97.482 E36.34608
G1 X126.127 Y98.164 E36.39033
G1 X125.462 Y98.705 E36.4331
G1 X124.874 Y99.036 E36.46676
G1 X124.272 Y99.261 E36.49882
G1 X123.417 Y99.428 E36.54229
G1 X122.546 Y99.428 E36.58574
G1 X121.686 Y99.251 E36.62955
G1 X120.859 Y98.902 E36.67433
G1 X120.171 Y98.434 E36.71584
G1 X119.675 Y97.958 E36.75014
G1 X119.174 Y97.275 E36.7924
G1 X118.869 Y96.658 E36.82674
G1 X118.722 Y96.2 E36.85073
G1 X112.448 Y96.2 E37.16374
G1 X112.448 Y97.8 E37.24357
G1 X117.232 Y97.8 E37.48224
G1 X117.382 Y97.86 E37.4903
G1 X117.798 Y98.57 E37.53136
G1 X118.279 Y99.171 E37.56976
G1 X118.701 Y99.605 E37.59996
G1 X119.17 Y100 E37.63055
G1 X119.682 Y100.353 E37.66158
G1 X120.213 Y100.648 E37.69189
G1 X120.775 Y100.892 E37.72245
G1 X121.369 Y101.082 E37.75357
G1 X122.109 Y101.245 E37.79137
G1 X123.03 Y101.307 E37.83742
G1 X123.802 Y101.245 E37.87606
G1 X124.407 Y101.14 E37.9067
G1 X124.988 Y100.974 E37.93684
G1 X125.706 Y100.698 E37.97522
G1 X126.508 Y100.241 E38.02127
G1 X127.123 Y99.758 E38.06029
G1 X127.27 Y99.769 E38.06764
G1 X127.413 Y99.866 E38.07626
G1 X127.446 Y99.946 E38.08058
G0 F3600 X127.446 Y100.146
G0 X127.76 Y100.146
G0 X141.017 Y105.617
G0 X143.215 Y106.405
;TYPE:SKIN
G1 F1800 X143.853 Y106.247 E38.11337
G1 X144.716 Y105.806 E38.16172
G1 X145.281 Y105.342 E38.1982
G1 X145.684 Y104.879 E38.22882
G1 X146.049 Y104.312 E38.26246
G1 X146.383 Y103.354 E38.31308
G1 X146.475 Y102.638 E38.34909
G1 X146.444 Y101.965 E38.38271
G1 X146.21 Y101.037 E38.43045
G1 X145.747 Y100.202 E38.47809
G1 X145.311 Y99.679 E38.51206
G1 X144.751 Y99.212 E38.54844
G1 X144.194 Y98.895 E38.58041
G1 X143.324 Y98.598 E38.62627
G1 X142.478 Y98.52 E38.66866
G1 X141.681 Y98.6 E38.70862
G1 X140.781 Y98.901 E38.75597
G1 X140.236 Y99.216 E38.78737
G1 X139.66 Y99.696 E38.82478
G1 X139.266 Y100.168 E38.85545
G1 X138.945 Y100.701 E38.8865
G1 X138.616 Y101.586 E38.9336
G1 X138.529 Y102.247 E38.96686
G1 X138.55 Y103.031 E39.00599
G1 X138.796 Y103.981 E39.05495
G1 X139.244 Y104.797 E39.10139
G1 X139.697 Y105.324 E39.13606
G1 X140.179 Y105.73 E39.1675
G1 X140.772 Y106.092 E39.20217
G1 X141.725 Y106.408 E39.25226
G1 X142.485 Y106.48 E39.29034
G1 X143.215 Y106.405 E39.32695
G0 F3600 X144.666 Y105.689
G0 X145.63 Y104.744
G0 X146.257 Y103.363
G0 X146.321 Y101.997
G0 X143.26 Y91.4
G1 F1800 X143.899 Y91.224 E39.36002
G1 X144.732 Y90.8 E39.40665
G1 X145.342 Y90.282 E39.44658
G1 X145.685 Y89.878 E39.47302
G1 X146.056 Y89.297 E39.50741
G1 X146.386 Y88.375 E39.55627
G1 X146.476 Y87.612 E39.5946
G1 X146.439 Y86.947 E39.62783
G1 X146.213 Y86.042 E39.67436
G1 X145.748 Y85.195 E39.72257
G1 X145.291 Y84.664 E39.75752
G1 X144.809 Y84.258 E39.78896
G1 X144.228 Y83.904 E39.8229
G1 X143.275 Y83.588 E39.873
G1 X142.507 Y83.516 E39.91148
G1 X141.695 Y83.597 E39.95219
G1 X140.8 Y83.89 E39.99917
G1 X140.196 Y84.248 E40.0342
G1 X139.629 Y84.728 E40.07127
G1 X139.305 Y85.12 E40.09664
