;FLAVOR:Marlin
;TIME:5352
;Filament used: 8.1739m
;Layer height: 0.2
;MINX:35.4
;MINY:48.689
;MINZ:0.36
;MAXX:139.6
;MAXY:122.601
;MAXZ:45.71
;TARGET_MACHINE.NAME:Unknown
;Generated with Cura_SteamEngine 5.10.0
M104 S200
M105
M109 S200
G28 ;Home
G1 Z15.0 F6000 ;Move the platform down 15mm
;Prime the extruder
G92 E0
G1 F200 E3
G92 E0
M82 ;absolute extrusion mode
G92 E0
G92 E0
G1 F1500 E-6.5
;LAYER_COUNT:222
;LAYER:-6
M107
G0 F7200 X48.142 Y65.009 Z0.36
;TYPE:SUPPORT-INTERFACE
G1 F1500 E0
G1 F3150 X48.982 Y64.406 E0.12381
G1 X49.913 Y63.833 E0.25471
G1 X50.856 Y63.346 E0.38179
G1 X51.736 Y62.962 E0.49675
G1 X53.079 Y62.511 E0.66638
G1 X54.955 Y61.979 E0.89986
G1 X55.905 Y61.745 E1.01701
G1 X57.793 Y61.435 E1.2461
G1 X58.475 Y61.236 E1.33117
G1 X59.105 Y60.956 E1.41372
G1 X59.79 Y60.548 E1.50918
G1 X60.613 Y59.858 E1.63778
G1 X61.568 Y59.153 E1.77991
G1 X62.554 Y58.549 E1.91836
G1 X63.477 Y58.066 E2.04309
G1 X64.384 Y57.674 E2.1614
G1 X65.742 Y57.219 E2.33289
G1 X69.193 Y56.248 E2.76214
G1 X70.375 Y55.965 E2.90767
G1 X71.302 Y55.814 E3.02013
G1 X72.484 Y55.712 E3.16219
G1 X73.574 Y55.701 E3.29271
G1 X74.61 Y55.763 E3.41697
G1 X75.527 Y55.879 E3.52765
G1 X77.05 Y56.217 E3.71444
G1 X80.517 Y57.184 E4.14542
G1 X81.619 Y57.533 E4.28382
G1 X82.651 Y57.957 E4.41741
G1 X83.53 Y58.389 E4.53469
G1 X84.535 Y58.981 E4.67435
G1 X85.424 Y59.601 E4.80412
G1 X86.481 Y60.445 E4.96608
G1 X87.137 Y60.836 E5.05752
G1 X87.741 Y61.1 E5.13645
G1 X88.403 Y61.295 E5.21908
G1 X89.061 Y61.4 E5.29887
G1 X89.803 Y61.432 E5.38779
G1 X90.49 Y61.404 E5.47012
G1 X91.129 Y61.295 E5.54774
G1 X91.859 Y61.072 E5.63913
G1 X92.45 Y60.795 E5.71728
G1 X93.023 Y60.449 E5.79743
G1 X93.562 Y60.011 E5.88059
G1 X94.04 Y59.519 E5.96273
G1 X94.538 Y58.821 E6.06539
G1 X95.049 Y57.97 E6.18425
G1 X95.669 Y57.081 E6.31402
G1 X96.646 Y55.936 E6.49425
G1 X98.565 Y53.906 E6.82873
G1 X99.342 Y53.153 E6.95828
G1 X100.013 Y52.582 E7.06378
G1 X100.894 Y51.931 E7.19494
G1 X101.844 Y51.332 E7.32942
G1 X102.888 Y50.79 E7.47026
G1 X103.772 Y50.406 E7.58566
G1 X105.15 Y49.943 E7.75973
G1 X107.682 Y49.231 E8.07466
G1 X108.641 Y48.997 E8.19285
G1 X109.755 Y48.81 E8.32811
G1 X110.946 Y48.704 E8.47128
G1 X111.833 Y48.689 E8.5775
G1 X112.977 Y48.743 E8.71463
G1 X113.986 Y48.871 E8.83641
G1 X115.662 Y49.248 E9.0421
G1 X118.16 Y49.948 E9.35273
G1 X119.154 Y50.269 E9.4778
G1 X120.186 Y50.689 E9.61121
G1 X121.161 Y51.176 E9.7417
G1 X121.997 Y51.666 E9.85773
G1 X122.806 Y52.222 E9.97527
G1 X123.709 Y52.939 E10.11333
G1 X124.736 Y53.919 E10.2833
G1 X126.632 Y55.918 E10.61319
G1 X127.36 Y56.752 E10.74574
G1 X128.006 Y57.616 E10.87492
G1 X128.563 Y58.493 E10.99931
G1 X128.998 Y59.277 E11.10667
G1 X129.48 Y60.323 E11.24457
G1 X130.043 Y61.927 E11.44812
G1 X130.705 Y64.193 E11.73078
G1 X131 Y65.379 E11.87711
G1 X131.167 Y66.335 E11.99332
G1 X131.265 Y67.3 E12.10946
G1 X131.28 Y67.579 E12.14291
G1 X131.342 Y68.229 E12.22109
G1 X131.58 Y69.178 E12.33824
G1 X131.942 Y70.21 E12.46919
G1 X132.087 Y70.721 E12.53279
G1 X132.319 Y71.362 E12.61442
G1 X132.628 Y71.964 E12.69544
G1 X133.01 Y72.524 E12.77661
G1 X133.483 Y73.058 E12.86202
G1 X133.939 Y73.461 E12.93489
G1 X134.804 Y74.186 E13.07003
G1 X135.44 Y74.799 E13.17579
G1 X136.181 Y75.618 E13.30804
G1 X136.784 Y76.388 E13.42514
G1 X137.415 Y77.322 E13.56011
G1 X138.02 Y78.404 E13.70854
G1 X138.388 Y79.183 E13.8117
G1 X138.821 Y80.294 E13.95447
G1 X139.14 Y81.381 E14.09011
G1 X139.354 Y82.324 E14.2059
G1 X139.514 Y83.478 E14.34539
G1 X139.599 Y84.663 E14.48765
G1 X139.6 Y107.987 E17.28038
G1 X139.552 Y109.138 E17.41832
G1 X139.452 Y110.069 E17.53043
G1 X139.229 Y111.24 E17.67316
G1 X139.004 Y112.114 E17.78122
G1 X138.642 Y113.2 E17.91829
G1 X138.174 Y114.28 E18.05923
G1 X137.711 Y115.179 E18.18031
G1 X137.171 Y116.061 E18.30414
G1 X136.488 Y117.001 E18.44326
G1 X135.81 Y117.803 E18.56901
G1 X135.197 Y118.44 E18.67486
G1 X134.319 Y119.232 E18.81644
G1 X133.569 Y119.811 E18.92989
G1 X132.672 Y120.416 E19.05944
G1 X131.79 Y120.921 E19.18113
G1 X130.813 Y121.388 E19.31079
G1 X129.71 Y121.817 E19.4525
G1 X128.615 Y122.14 E19.5892
G1 X127.715 Y122.342 E19.69964
G1 X126.505 Y122.517 E19.84603
G1 X125.313 Y122.601 E19.98911
G1 X121.992 Y122.596 E20.38675
G1 X120.857 Y122.552 E20.52276
G1 X120.017 Y122.463 E20.6239
G1 X118.889 Y122.26 E20.76113
G1 X117.941 Y122.019 E20.87825
G1 X116.865 Y121.661 E21.01403
G1 X115.791 Y121.213 E21.15337
G1 X114.204 Y120.383 E21.36781
G1 X113.589 Y120.154 E21.44639
G1 X112.875 Y119.983 E21.5343
G1 X112.185 Y119.916 E21.6173
G1 X111.49 Y119.937 E21.70056
G1 X110.815 Y120.043 E21.78237
G1 X110.151 Y120.237 E21.8652
G1 X109.37 Y120.591 E21.96787
G1 X108.609 Y121.011 E22.07195
G1 X107.813 Y121.388 E22.17741
G1 X106.71 Y121.817 E22.31911
G1 X105.615 Y122.14 E22.45581
G1 X104.715 Y122.342 E22.56625
G1 X103.505 Y122.517 E22.71264
G1 X102.313 Y122.601 E22.85572
G1 X98.992 Y122.596 E23.25337
G1 X97.857 Y122.552 E23.38937
G1 X97.017 Y122.463 E23.49051
G1 X95.889 Y122.26 E23.62774
G1 X94.941 Y122.019 E23.74487
G1 X93.865 Y121.661 E23.88065
G1 X92.789 Y121.213 E24.0202
G1 X91.924 Y120.766 E24.13679
G1 X91.012 Y120.217 E24.26425
G1 X89.998 Y119.491 E24.41357
G1 X89.327 Y118.929 E24.51837
G1 X88.547 Y118.188 E24.64719
G1 X87.833 Y117.4 E24.77451
G1 X87.585 Y117.09 E24.82205
G1 X87.116 Y116.557 E24.90706
G1 X86.648 Y116.147 E24.98156
G1 X86.064 Y115.746 E25.06638
G1 X85.446 Y115.428 E25.1496
G1 X84.785 Y115.196 E25.23348
G1 X84.132 Y115.053 E25.31352
G1 X83.465 Y114.992 E25.39372
G1 X82.773 Y115.017 E25.47663
G1 X82.103 Y115.125 E25.55789
G1 X81.314 Y115.374 E25.65695
G1 X80.195 Y115.753 E25.79841
G1 X76.631 Y116.744 E26.24134
G1 X75.581 Y116.995 E26.37061
G1 X74.606 Y117.154 E26.4889
G1 X73.412 Y117.26 E26.63242
G1 X72.329 Y117.271 E26.7621
G1 X71.46 Y117.225 E26.8663
G1 X70.361 Y117.088 E26.99891
G1 X69.177 Y116.846 E27.14361
G1 X68.706 Y116.718 E27.20205
G1 X68.051 Y116.588 E27.28201
G1 X67.376 Y116.54 E27.36303
G1 X66.692 Y116.575 E27.44504
G1 X65.998 Y116.707 E27.52963
G1 X65.38 Y116.902 E27.60722
G1 X64.75 Y117.191 E27.69021
G1 X64.162 Y117.563 E27.77352
G1 X63.456 Y118.173 E27.88524
G1 X63.064 Y118.569 E27.95196
G1 X62.32 Y119.231 E28.0712
G1 X61.569 Y119.811 E28.18482
G1 X60.672 Y120.416 E28.31437
G1 X59.79 Y120.921 E28.43606
G1 X58.813 Y121.388 E28.56572
G1 X57.71 Y121.817 E28.70743
G1 X56.615 Y122.14 E28.84413
G1 X55.715 Y122.342 E28.95457
G1 X54.505 Y122.517 E29.10096
G1 X53.313 Y122.601 E29.24404
G1 X49.992 Y122.596 E29.64168
G1 X48.857 Y122.552 E29.77769
G1 X48.017 Y122.463 E29.87883
G1 X46.889 Y122.26 E30.01606
G1 X45.941 Y122.019 E30.13318
G1 X44.865 Y121.661 E30.26896
G1 X43.789 Y121.213 E30.40852
G1 X42.924 Y120.766 E30.5251
G1 X42.012 Y120.217 E30.65256
G1 X40.998 Y119.491 E30.80189
G1 X40.327 Y118.929 E30.90669
G1 X39.547 Y118.188 E31.03551
G1 X38.835 Y117.402 E31.16249
G1 X38.173 Y116.553 E31.2914
G1 X37.577 Y115.665 E31.41945
G1 X37.056 Y114.743 E31.54626
G1 X36.585 Y113.75 E31.67785
G1 X36.156 Y112.623 E31.82224
G1 X35.856 Y111.615 E31.94817
G1 X35.654 Y110.712 E32.05896
G1 X35.483 Y109.505 E32.20493
G1 X35.4 Y108.32 E32.34716
G1 X35.4 Y85.009 E35.13834
G1 X35.448 Y83.857 E35.2764
G1 X35.545 Y82.927 E35.38835
G1 X35.767 Y81.757 E35.53095
G1 X35.996 Y80.883 E35.63913
G1 X36.335 Y79.865 E35.7676
G1 X36.78 Y78.801 E35.90569
G1 X37.242 Y77.9 E36.02693
G1 X37.779 Y77.012 E36.15119
G1 X38.453 Y76.062 E36.29066
G1 X39.186 Y75.192 E36.42687
G1 X39.799 Y74.556 E36.53264
G1 X40.631 Y73.806 E36.66676
G1 X41.096 Y73.438 E36.73777
G1 X41.611 Y72.987 E36.81973
G1 X42.064 Y72.471 E36.90195
G1 X42.493 Y71.839 E36.99341
G1 X42.908 Y71.021 E37.10324
G1 X43.517 Y69.99 E37.24661
G1 X44.129 Y69.122 E37.37378
G1 X45.214 Y67.852 E37.57378
G1 X46.529 Y66.466 E37.80255
G1 X47.317 Y65.702 E37.93397
G1 X48.142 Y65.009 E38.06297
G0 F7200 X49.027 Y64.866
G1 F3150 X105.822 Y121.661 E47.68024
G0 F7200 X107.503 Y121.079
G1 F3150 X50.437 Y64.014 E57.34331
G0 F7200 X51.987 Y63.301
G1 F3150 X109.016 Y120.33 E67.0002
G0 F7200 X110.629 Y119.68
G1 F3150 X53.7 Y62.751 E76.64016
G0 F7200 X55.475 Y62.264
G1 F3150 X112.786 Y119.575 E86.3448
G0 F7200 X116.586 Y121.111
G1 F3150 X57.381 Y61.906 E96.37015
G0 F7200 X59.122 Y61.385
G1 F3150 X119.745 Y122.008 E106.63563
G0 F7200 X122.197 Y122.197
G1 F3150 X60.488 Y60.488 E117.08499
G0 F7200 X61.767 Y59.504
G1 F3150 X124.461 Y122.199 E127.70124
G0 F7200 X126.621 Y122.095
G1 F3150 X63.192 Y58.667 E138.44178
G0 F7200 X64.759 Y57.971
G1 F3150 X128.534 Y121.746 E149.24099
G0 F7200 X130.234 Y121.183
G1 F3150 X66.479 Y57.428 E160.03681
G0 F7200 X68.244 Y56.931
G1 F3150 X131.78 Y120.466 E170.79546
G0 F7200 X133.172 Y119.595
G1 F3150 X70.035 Y56.458 E181.48664
G0 F7200 X71.995 Y56.156
G1 F3150 X134.431 Y118.592 E192.05911
G0 F7200 X135.57 Y117.468
G1 F3150 X74.244 Y56.142 E202.44362
G0 F7200 X76.977 Y56.612
G1 F3150 X136.571 Y116.207 E212.53494
G0 F7200 X137.447 Y114.819
G1 F3150 X80.115 Y57.488 E222.24305
G0 F7200 X84.05 Y59.16
G1 F3150 X138.171 Y113.281 E231.40752
G0 F7200 X138.729 Y111.577
G1 F3150 X88.936 Y61.783 E239.8392
G0 F7200 X91.117 Y61.701
G1 F3150 X139.092 Y109.677 E247.96303
G0 F7200 X139.2 Y107.522
G1 F3150 X92.755 Y61.077 E255.8277
G0 F7200 X94.035 Y60.094
G1 F3150 X139.2 Y105.259 E263.47563
G0 F7200 X139.2 Y102.996
G1 F3150 X95.011 Y58.807 E270.95828
G0 F7200 X95.906 Y57.44
G1 F3150 X139.2 Y100.734 E278.28938
G0 F7200 X139.2 Y98.471
G1 F3150 X96.938 Y56.209 E285.44573
G0 F7200 X98.038 Y55.045
G1 F3150 X139.2 Y96.208 E292.4159
G0 F7200 X139.2 Y93.945
G1 F3150 X99.151 Y53.896 E299.19752
G0 F7200 X100.35 Y52.832
G1 F3150 X139.2 Y91.682 E305.7761
G0 F7200 X139.2 Y89.419
G1 F3150 X101.685 Y51.905 E312.12854
G0 F7200 X103.154 Y51.111
G1 F3150 X139.2 Y87.157 E318.23232
G0 F7200 X139.2 Y84.894
G1 F3150 X104.792 Y50.486 E324.05873
G0 F7200 X106.537 Y49.968
G1 F3150 X138.959 Y82.391 E329.54893
G0 F7200 X137.884 Y79.052
G1 F3150 X108.319 Y49.488 E334.55517
G0 F7200 X110.261 Y49.167
G1 F3150 X131.614 Y70.52 E338.17094
G0 F7200 X130.877 Y67.52
G1 F3150 X112.477 Y49.121 E341.28658
G0 F7200 X115.166 Y49.547
G1 F3150 X130.452 Y64.832 E343.87492
G0 F7200 X129.517 Y61.635
G1 F3150 X118.294 Y50.412 E345.77534
G0 F7200 X123.158 Y53.013
G1 F3150 X126.365 Y56.22 E346.31839
G0 F7200 X103.946 Y122.048
G1 F3150 X47.755 Y65.857 E355.83338
G0 F7200 X46.603 Y66.968
G1 F3150 X101.835 Y122.199 E365.18589
G0 F7200 X99.569 Y122.197
G1 F3150 X45.502 Y68.13 E374.34122
G0 F7200 X44.46 Y69.35
G1 F3150 X97.189 Y122.079 E383.26998
G0 F7200 X94.197 Y121.35
G1 F3150 X43.556 Y70.709 E391.84517
G0 F7200 X42.75 Y72.165
G1 F3150 X85.686 Y115.102 E399.11573
G0 F7200 X82.934 Y114.612
G1 F3150 X41.733 Y73.411 E406.09242
G0 F7200 X40.512 Y74.453
G1 F3150 X81.087 Y115.028 E412.96311
G0 F7200 X79.364 Y115.568
G1 F3150 X39.379 Y75.583 E419.73388
G0 F7200 X38.384 Y76.85
G1 F3150 X77.594 Y116.06 E426.37343
G0 F7200 X75.802 Y116.531
G1 F3150 X37.514 Y78.243 E432.85685
G0 F7200 X36.799 Y79.791
G1 F3150 X73.829 Y116.821 E439.12725
G0 F7200 X71.575 Y116.83
G1 F3150 X36.247 Y81.502 E445.10944
G0 F7200 X35.896 Y83.413
G1 F3150 X68.818 Y116.335 E450.68422
G0 F7200 X66.438 Y116.219
G1 F3150 X35.8 Y85.58 E455.87233
G0 F7200 X35.8 Y87.843
G1 F3150 X64.721 Y116.765 E460.7697
G0 F7200 X63.393 Y117.699
G1 F3150 X35.8 Y90.106 E465.4421
G0 F7200 X35.8 Y92.369
G1 F3150 X62.218 Y118.786 E469.91545
G0 F7200 X60.929 Y119.76
G1 F3150 X35.8 Y94.631 E474.17062
G0 F7200 X35.8 Y96.894
G1 F3150 X59.515 Y120.609 E478.18635
G0 F7200 X57.941 Y121.298
G1 F3150 X35.8 Y99.157 E481.93555
G0 F7200 X35.8 Y101.42
G1 F3150 X56.203 Y121.822 E485.39037
G0 F7200 X54.251 Y122.134
G1 F3150 X35.8 Y103.682 E488.51482
G0 F7200 X35.8 Y105.945
G1 F3150 X52.053 Y122.198 E491.26699
G0 F7200 X49.78 Y122.187
G1 F3150 X35.8 Y108.208 E493.63418
G0 F7200 X36.07 Y110.74
G1 F3150 X47.247 Y121.918 E495.52689
G0 F7200 X43.873 Y120.806
G1 F3150 X37.216 Y114.15 E496.65406
G0 F600 X37.216 Y114.15 Z0.66
G0 F7200 X43.181 Y71.37
;TIME_ELAPSED:86.279213
;LAYER:-5
;TYPE:SUPPORT
G1 F3150 X50.654 Y63.897 E497.70858
G1 X50.103 Y64.187 E497.77071
G1 X49.2 Y64.742 E497.87647
G1 X48.314 Y65.381 E497.98547
G1 X47.446 Y66.127 E498.09967
G1 X46.735 Y66.829 E498.19937
G1 X45.509 Y68.123 E498.37723
G1 X44.437 Y69.377 E498.54184
G1 X43.899 Y70.143 E498.63524
G1 X43.308 Y71.117 E498.74892
G1 X42.849 Y72.031 E498.85097
G1 X42.388 Y72.712 E498.93303
G1 X41.91 Y73.257 E499.00536
G1 X41.361 Y73.741 E499.07839
G1 X40.864 Y74.131 E499.14143
G1 X40.207 Y74.722 E499.2296
G1 X39.472 Y75.477 E499.33474
G1 X38.816 Y76.256 E499.43636
G1 X38.089 Y77.261 E499.56013
G1 X38.262 Y77.346 E499.57936
G1 X37.607 Y78.071 E499.67685
G1 X37.417 Y78.548 E499.72808
G1 X53.03 Y62.935 E501.93124
G1 X54.996 Y62.384 E502.13497
G1 X36.379 Y81 E504.76196
G1 X36.126 Y81.985 E504.86344
G1 X35.972 Y82.822 E504.94835
G1 X56.795 Y61.999 E507.8867
G1 X57.322 Y61.922 E507.93985
G1 X57.901 Y61.823 E507.99846
G1 X58.586 Y61.622 E508.06969
G1 X35.826 Y84.382 E511.28137
G1 X35.8 Y85.03 E511.34608
G1 X35.8 Y85.822 E511.42511
G1 X62.685 Y58.937 E515.21887
G1 X63.576 Y58.466 E515.31943
G1 X64.47 Y58.243 E515.41137
G1 X64.395 Y58.092 E515.42819
G1 X65.22 Y57.817 E515.51496
G1 X35.8 Y87.236 E519.66637
G1 X35.8 Y88.651 E519.80756
G1 X67.24 Y57.211 E524.24409
G1 X69.205 Y56.66 E524.44772
G1 X35.8 Y90.065 E529.16152
G1 X35.8 Y91.479 E529.30261
G1 X71.035 Y56.244 E534.27465
G1 X72.583 Y56.11 E534.42969
G1 X35.8 Y92.893 E539.62017
G1 X35.8 Y94.308 E539.76136
G1 X73.981 Y56.127 E545.14911
G1 X74.566 Y56.163 E545.20759
G1 X75.269 Y56.253 E545.27831
G1 X35.8 Y95.722 E550.84781
G1 X35.8 Y97.136 E550.9889
G1 X76.442 Y56.494 E556.72393
G1 X77.098 Y56.641 E556.791
G1 X77.575 Y56.775 E556.84044
G1 X35.8 Y98.55 E562.73535
G1 X35.8 Y99.964 E562.87644
G1 X78.68 Y57.085 E568.9272
G1 X79.784 Y57.395 E569.04161
G1 X35.8 Y101.379 E575.24823
G1 X35.8 Y102.793 E575.38932
G1 X80.875 Y57.718 E581.74989
G1 X81.552 Y57.94 E581.82098
G1 X81.918 Y58.09 E581.86045
G1 X35.8 Y104.207 E588.36813
G1 X35.8 Y105.621 E588.50922
G1 X82.896 Y58.526 E595.1549
G1 X83.422 Y58.789 E595.21358
G1 X83.817 Y59.019 E595.25919
G1 X35.8 Y107.035 E602.03483
G1 X35.8 Y108.449 E602.17592
G1 X84.68 Y59.57 E609.07335
G1 X85.045 Y59.818 E609.11738
G1 X85.493 Y60.171 E609.17429
G1 X35.917 Y109.747 E616.17
G1 X36.052 Y110.649 E616.261
G1 X36.121 Y110.957 E616.2925
G1 X86.283 Y60.796 E623.37083
G1 X86.99 Y61.21 E623.45258
G1 X87.195 Y61.298 E623.47484
G1 X36.49 Y112.003 E630.62986
G1 X36.579 Y112.195 E630.65098
G1 X36.438 Y112.243 E630.66584
G1 X36.776 Y113.131 E630.76065
G1 X88.232 Y61.674 E638.02171
G1 X89.037 Y61.803 E638.10306
G1 X89.5 Y61.821 E638.14929
G1 X37.182 Y114.139 E645.53193
G1 X37.689 Y115.046 E645.63561
G1 X91.015 Y61.721 E653.16041
G1 X91.242 Y61.682 E653.1834
G1 X91.999 Y61.446 E653.26252
G1 X92.647 Y61.152 E653.33352
G1 X93.26 Y60.774 E653.40538
G1 X93.807 Y60.334 E653.47542
G1 X94.334 Y59.792 E653.55085
G1 X94.884 Y59.024 E653.64511
G1 X95.39 Y58.179 E653.74338
G1 X95.979 Y57.34 E653.84567
G1 X97.055 Y56.081 E654.01092
G1 X98.751 Y54.288 E654.25718
G1 X99.477 Y53.573 E654.35886
G1 X100.29 Y52.875 E654.46578
G1 X101.12 Y52.263 E654.56867
G1 X101.956 Y51.736 E654.66728
G1 X102.934 Y51.216 E654.7778
G1 X38.229 Y115.92 E663.90831
G1 X38.501 Y116.326 E663.95707
G1 X38.822 Y116.741 E664.00942
G1 X105.218 Y50.345 E673.37861
G1 X107.191 Y49.787 E673.5832
G1 X39.47 Y117.508 E683.13936
G1 X39.731 Y117.803 E683.17867
G1 X40.165 Y118.227 E683.23921
G1 X109.058 Y49.334 E692.96075
G1 X109.772 Y49.213 E693.03301
G1 X110.676 Y49.13 E693.12359
G1 X40.911 Y118.895 E702.96819
G1 X41.256 Y119.184 E703.01309
G1 X41.709 Y119.512 E703.0689
G1 X112.12 Y49.101 E713.00465
G1 X113.036 Y49.157 E713.09622
G1 X113.427 Y49.208 E713.13557
G1 X42.635 Y120 E723.12508
G1 X43.071 Y120.392 E723.18358
G1 X43.489 Y120.56 E723.22854
G1 X114.625 Y49.424 E733.26659
G1 X115.779 Y49.684 E733.38463
G1 X44.419 Y121.044 E743.45429
G1 X44.907 Y121.249 E743.50711
G1 X45.585 Y121.292 E743.57489
G1 X116.874 Y50.003 E753.63454
G1 X117.978 Y50.313 E753.74896
G1 X46.533 Y121.758 E763.83062
G1 X46.973 Y121.871 E763.87595
G1 X47.699 Y122.006 E763.94963
