;FLAVOR:Marlin
;TIME:4959
;Filament used: 7.61558m
;Layer height: 0.2
;MINX:35.4
;MINY:48.201
;MINZ:0.36
;MAXX:139.6
;MAXY:115.101
;MAXZ:45.71
;TARGET_MACHINE.NAME:Unknown
;Generated with Cura_SteamEngine 5.10.0
M104 S200
M105
M109 S200
G28 ;Home
G1 Z15.0 F6000 ;Move the platform down 15mm
;Prime the extruder
G92 E0
G1 F200 E3
G92 E0
M82 ;absolute extrusion mode
G92 E0
G92 E0
G1 F1500 E-6.5
;LAYER_COUNT:222
;LAYER:-6
M107
G0 F7200 X48.004 Y57.619 Z0.36
;TYPE:SUPPORT-INTERFACE
G1 F1500 E0
G1 F3150 X48.983 Y56.905 E0.14509
G1 X49.913 Y56.333 E0.27582
G1 X50.856 Y55.846 E0.4029
G1 X51.736 Y55.462 E0.51786
G1 X53.079 Y55.011 E0.68749
G1 X54.887 Y54.499 E0.91249
G1 X55.907 Y54.244 E1.03838
G1 X57.048 Y54.049 E1.17698
G1 X58.163 Y53.948 E1.31103
G1 X59.125 Y53.929 E1.42624
G1 X60.178 Y53.983 E1.55249
G1 X61.277 Y54.111 E1.68497
G1 X62.846 Y54.461 E1.87745
G1 X64.774 Y55 E2.11716
G1 X65.622 Y55.267 E2.22361
G1 X65.802 Y55.334 E2.2466
G1 X66.452 Y55.521 E2.32759
G1 X67.155 Y55.632 E2.41281
G1 X67.811 Y55.652 E2.49139
G1 X68.516 Y55.586 E2.57617
G1 X69.081 Y55.462 E2.64543
G1 X69.79 Y55.21 E2.73553
G1 X70.413 Y54.89 E2.81939
G1 X70.973 Y54.504 E2.90083
G1 X71.552 Y53.982 E2.99417
G1 X71.794 Y53.725 E3.03644
G1 X72.617 Y52.925 E3.17387
G1 X73.301 Y52.346 E3.28117
G1 X74.24 Y51.653 E3.42091
G1 X75.226 Y51.049 E3.55936
G1 X76.149 Y50.566 E3.68409
G1 X77.056 Y50.174 E3.8024
G1 X78.414 Y49.719 E3.97389
G1 X81.865 Y48.748 E4.40314
G1 X83.047 Y48.465 E4.54867
G1 X83.974 Y48.314 E4.66113
G1 X85.156 Y48.212 E4.80318
G1 X86.246 Y48.201 E4.9337
G1 X87.282 Y48.263 E5.05797
G1 X88.199 Y48.379 E5.16865
G1 X89.722 Y48.717 E5.35544
G1 X93.189 Y49.684 E5.78641
G1 X94.291 Y50.033 E5.92482
G1 X95.323 Y50.457 E6.05841
G1 X96.11 Y50.843 E6.16337
G1 X96.418 Y51.014 E6.20555
G1 X97.009 Y51.312 E6.2848
G1 X97.658 Y51.542 E6.36725
G1 X98.354 Y51.693 E6.45252
G1 X99.019 Y51.748 E6.53242
G1 X99.702 Y51.72 E6.61427
G1 X100.363 Y51.61 E6.6945
G1 X101.044 Y51.405 E6.77966
G1 X101.671 Y51.12 E6.86212
G1 X102.203 Y50.85 E6.93356
G1 X103.084 Y50.466 E7.04863
G1 X104.59 Y49.967 E7.23859
G1 X107.725 Y49.088 E7.62844
G1 X108.915 Y48.805 E7.7749
G1 X109.834 Y48.654 E7.88642
G1 X111.016 Y48.552 E8.02847
G1 X112.086 Y48.541 E8.1566
G1 X112.977 Y48.591 E8.26345
G1 X114.064 Y48.719 E8.3945
G1 X115.578 Y49.057 E8.58024
G1 X118.945 Y49.996 E8.99878
G1 X119.893 Y50.297 E9.11788
G1 X120.874 Y50.687 E9.24428
G1 X121.907 Y51.19 E9.38185
G1 X122.833 Y51.73 E9.5102
G1 X123.63 Y52.279 E9.62608
G1 X124.54 Y52.998 E9.76495
G1 X125.655 Y54.07 E9.95015
G1 X128 Y56.55 E10.35883
G1 X128.626 Y57.263 E10.47243
G1 X129.277 Y58.108 E10.60015
G1 X129.932 Y59.118 E10.74429
G1 X130.371 Y59.917 E10.85345
G1 X130.853 Y60.952 E10.99016
G1 X131.363 Y62.4 E11.17398
G1 X131.472 Y62.767 E11.21982
G1 X131.71 Y63.426 E11.30371
G1 X132.017 Y64.022 E11.38399
G1 X132.394 Y64.572 E11.46383
G1 X132.853 Y65.092 E11.54688
G1 X133.514 Y65.65 E11.65045
G1 X133.985 Y65.996 E11.72043
G1 X134.673 Y66.567 E11.82748
G1 X135.441 Y67.3 E11.9546
G1 X136.181 Y68.118 E12.08668
G1 X136.784 Y68.888 E12.20378
G1 X137.415 Y69.822 E12.33875
G1 X138.02 Y70.904 E12.48718
G1 X138.388 Y71.683 E12.59034
G1 X138.821 Y72.794 E12.73311
G1 X139.14 Y73.881 E12.86875
G1 X139.354 Y74.824 E12.98454
G1 X139.514 Y75.978 E13.12403
G1 X139.599 Y77.163 E13.26629
G1 X139.6 Y100.487 E16.05902
G1 X139.552 Y101.638 E16.19696
G1 X139.452 Y102.569 E16.30907
G1 X139.229 Y103.74 E16.4518
G1 X139.004 Y104.614 E16.55986
G1 X138.642 Y105.697 E16.69659
G1 X138.174 Y106.78 E16.83786
G1 X137.692 Y107.709 E16.96317
G1 X137.115 Y108.636 E17.09391
G1 X136.488 Y109.501 E17.22183
G1 X135.81 Y110.303 E17.34758
G1 X135.197 Y110.94 E17.45343
G1 X134.319 Y111.732 E17.59501
G1 X133.569 Y112.311 E17.70846
G1 X132.672 Y112.916 E17.83801
G1 X131.79 Y113.421 E17.9597
G1 X130.813 Y113.888 E18.08936
G1 X129.71 Y114.317 E18.23107
G1 X128.615 Y114.64 E18.36777
G1 X127.715 Y114.842 E18.47821
G1 X126.505 Y115.017 E18.6246
G1 X125.313 Y115.101 E18.76768
G1 X121.992 Y115.096 E19.16532
G1 X120.857 Y115.052 E19.30133
G1 X120.017 Y114.963 E19.40247
G1 X118.889 Y114.76 E19.5397
G1 X117.941 Y114.519 E19.65682
G1 X116.865 Y114.161 E19.7926
G1 X115.791 Y113.713 E19.93194
G1 X114.204 Y112.883 E20.14638
G1 X113.589 Y112.654 E20.22496
G1 X112.875 Y112.483 E20.31287
G1 X112.185 Y112.416 E20.39587
G1 X111.499 Y112.436 E20.47805
G1 X110.85 Y112.536 E20.55667
G1 X110.18 Y112.727 E20.64009
G1 X109.37 Y113.091 E20.74642
G1 X108.609 Y113.511 E20.8505
G1 X107.813 Y113.888 E20.95596
G1 X106.71 Y114.317 E21.09766
G1 X105.615 Y114.64 E21.23436
G1 X104.715 Y114.842 E21.3448
G1 X103.505 Y115.017 E21.49119
G1 X102.313 Y115.101 E21.63427
G1 X98.992 Y115.096 E22.03192
G1 X97.857 Y115.052 E22.16792
G1 X97.017 Y114.963 E22.26906
G1 X95.889 Y114.76 E22.4063
G1 X94.941 Y114.519 E22.52342
G1 X93.865 Y114.161 E22.6592
G1 X92.789 Y113.713 E22.79875
G1 X91.924 Y113.266 E22.91534
G1 X91.012 Y112.717 E23.0428
G1 X90.077 Y112.054 E23.18004
G1 X89.32 Y111.423 E23.29804
G1 X88.678 Y110.867 E23.39973
G1 X88.115 Y110.497 E23.4804
G1 X87.475 Y110.18 E23.56591
G1 X86.834 Y109.966 E23.64683
G1 X86.154 Y109.824 E23.73001
G1 X85.444 Y109.78 E23.81518
G1 X84.267 Y109.725 E23.95627
G1 X83.173 Y109.592 E24.08822
G1 X82.135 Y109.378 E24.21512
G1 X81.451 Y109.202 E24.29969
G1 X78.116 Y108.226 E24.71576
G1 X77.173 Y107.913 E24.83473
G1 X76.052 Y107.444 E24.98023
G1 X75.272 Y107.052 E25.08475
G1 X74.348 Y106.51 E25.21302
G1 X73.497 Y105.919 E25.33708
G1 X72.927 Y105.572 E25.41698
G1 X72.338 Y105.303 E25.49451
G1 X71.637 Y105.087 E25.58234
G1 X71.011 Y104.976 E25.65846
G1 X70.293 Y104.944 E25.74452
G1 X69.643 Y104.997 E25.82261
G1 X68.976 Y105.133 E25.90411
G1 X68.291 Y105.375 E25.9911
G1 X67.707 Y105.665 E26.06917
G1 X67.115 Y106.061 E26.15446
G1 X66.604 Y106.509 E26.23583
G1 X66.163 Y106.996 E26.31449
G1 X65.759 Y107.597 E26.4012
G1 X65.217 Y108.483 E26.52556
G1 X64.543 Y109.434 E26.66513
G1 X63.81 Y110.304 E26.80135
G1 X63.197 Y110.94 E26.90711
G1 X62.319 Y111.732 E27.04869
G1 X61.569 Y112.311 E27.16214
G1 X60.672 Y112.916 E27.29169
G1 X59.79 Y113.421 E27.41339
G1 X58.813 Y113.888 E27.54305
G1 X57.71 Y114.317 E27.68475
G1 X56.615 Y114.64 E27.82145
G1 X55.715 Y114.842 E27.93189
G1 X54.505 Y115.017 E28.07828
G1 X53.313 Y115.101 E28.22136
G1 X49.992 Y115.096 E28.61901
G1 X48.857 Y115.052 E28.75501
G1 X48.017 Y114.963 E28.85615
G1 X46.889 Y114.76 E28.99338
G1 X45.941 Y114.519 E29.1105
G1 X44.865 Y114.161 E29.24628
G1 X43.789 Y113.713 E29.38584
G1 X42.924 Y113.266 E29.50243
G1 X42.012 Y112.717 E29.62988
G1 X41.077 Y112.054 E29.76713
G1 X40.327 Y111.429 E29.88402
G1 X39.551 Y110.692 E30.01217
G1 X38.815 Y109.878 E30.14357
G1 X38.173 Y109.058 E30.26826
G1 X37.499 Y108.036 E30.41485
G1 X36.977 Y107.094 E30.5438
G1 X36.585 Y106.252 E30.65501
G1 X36.156 Y105.123 E30.79962
G1 X35.856 Y104.115 E30.92555
G1 X35.654 Y103.212 E31.03634
G1 X35.483 Y102.005 E31.18231
G1 X35.4 Y100.82 E31.32454
G1 X35.4 Y77.509 E34.11572
G1 X35.448 Y76.357 E34.25378
G1 X35.545 Y75.427 E34.36574
G1 X35.767 Y74.257 E34.50833
G1 X35.996 Y73.383 E34.61651
G1 X36.335 Y72.365 E34.74498
G1 X36.78 Y71.301 E34.88307
G1 X37.242 Y70.4 E35.00431
G1 X37.779 Y69.512 E35.12857
G1 X38.453 Y68.562 E35.26804
G1 X39.186 Y67.692 E35.40425
G1 X39.799 Y67.056 E35.51002
G1 X40.631 Y66.306 E35.64414
G1 X41.096 Y65.938 E35.71515
G1 X41.626 Y65.473 E35.79957
G1 X42.068 Y64.966 E35.88011
G1 X42.504 Y64.324 E35.97303
G1 X42.908 Y63.516 E36.08119
G1 X43.513 Y62.498 E36.22299
G1 X44.129 Y61.622 E36.35121
G1 X45.214 Y60.352 E36.55122
G1 X46.529 Y58.966 E36.77998
G1 X47.317 Y58.201 E36.91148
G1 X48.004 Y57.619 E37.01929
G0 F7200 X48.617 Y57.668
G1 F3150 X105.259 Y114.309 E46.61056
G0 F7200 X106.989 Y113.778
G1 F3150 X49.976 Y56.764 E56.26483
G0 F7200 X51.484 Y56.009
G1 F3150 X108.556 Y113.082 E65.92908
G0 F7200 X110.079 Y112.342
G1 F3150 X53.148 Y55.41 E75.56946
G0 F7200 X54.909 Y54.909
G1 F3150 X112.02 Y112.02 E85.24024
G0 F7200 X115.232 Y112.97
G1 F3150 X56.766 Y54.503 E95.14054
G0 F7200 X58.86 Y54.335
G1 F3150 X118.867 Y114.341 E105.30162
G0 F7200 X121.463 Y114.675
G1 F3150 X61.32 Y54.531 E115.4859
G0 F7200 X64.346 Y55.295
G1 F3150 X123.749 Y114.698 E125.54479
G0 F7200 X125.967 Y114.653
G1 F3150 X67.351 Y56.038 E135.47032
G0 F7200 X69.361 Y55.784
G1 F3150 X127.954 Y114.377 E145.39205
G0 F7200 X129.722 Y113.883
G1 F3150 X70.888 Y55.049 E155.35458
G0 F7200 X72.094 Y53.993
G1 F3150 X131.31 Y113.208 E165.38172
G0 F7200 X132.747 Y112.382
G1 F3150 X73.265 Y52.901 E175.4539
G0 F7200 X74.557 Y51.929
G1 F3150 X134.057 Y111.429 E185.52921
G0 F7200 X135.225 Y110.335
G1 F3150 X75.991 Y51.1 E195.55956
G0 F7200 X77.575 Y50.422
G1 F3150 X136.271 Y109.119 E205.49882
G0 F7200 X137.184 Y107.769
G1 F3150 X79.301 Y49.885 E215.3004
G0 F7200 X81.066 Y49.388
G1 F3150 X137.956 Y106.277 E224.93367
G0 F7200 X138.575 Y104.634
G1 F3150 X82.862 Y48.92 E234.3678
G0 F7200 X84.845 Y48.641
G1 F3150 X139.002 Y102.798 E243.53836
G0 F7200 X139.19 Y100.724
G1 F3150 X87.121 Y48.654 E252.35545
G0 F7200 X89.916 Y49.186
G1 F3150 X139.2 Y98.471 E260.70094
G0 F7200 X139.2 Y96.208
G1 F3150 X93.054 Y50.062 E268.51498
G0 F7200 X96.98 Y51.725
G1 F3150 X139.2 Y93.945 E275.66421
G0 F7200 X139.2 Y91.683
G1 F3150 X99.637 Y52.119 E282.36362
G0 F7200 X101.444 Y51.663
G1 F3150 X139.2 Y89.42 E288.75704
G0 F7200 X139.2 Y87.157
G1 F3150 X102.988 Y50.945 E294.88892
G0 F7200 X104.669 Y50.363
G1 F3150 X139.2 Y84.894 E300.73616
G0 F7200 X139.2 Y82.631
G1 F3150 X106.434 Y49.866 E306.28444
G0 F7200 X108.214 Y49.383
G1 F3150 X139.2 Y80.368 E311.53131
G0 F7200 X139.2 Y78.106
G1 F3150 X110.125 Y49.031 E316.45466
G0 F7200 X112.311 Y48.954
G1 F3150 X139.074 Y75.718 E320.9866
G0 F7200 X138.379 Y72.759
G1 F3150 X114.945 Y49.326 E324.95467
G0 F7200 X118.042 Y50.159
G1 F3150 X131.275 Y63.393 E327.19554
G0 F7200 X129.735 Y59.59
G1 F3150 X121.661 Y51.516 E328.56273
G0 F7200 X103.315 Y114.629
G1 F3150 X47.382 Y58.696 E338.03403
G0 F7200 X46.257 Y59.833
G1 F3150 X101.122 Y114.698 E347.32448
G0 F7200 X98.851 Y114.69
G1 F3150 X45.174 Y61.013 E356.41377
G0 F7200 X44.164 Y62.266
G1 F3150 X96.331 Y114.433 E365.24736
G0 F7200 X93.004 Y113.369
G1 F3150 X43.29 Y63.654 E373.66567
G0 F7200 X42.464 Y65.091
G1 F3150 X86.959 Y109.586 E381.20014
G0 F7200 X84.443 Y109.334
G1 F3150 X41.354 Y66.244 E388.49661
G0 F7200 X40.138 Y67.29
G1 F3150 X81.699 Y108.852 E395.53434
G0 F7200 X78.509 Y107.924
G1 F3150 X39.054 Y68.469 E402.21537
G0 F7200 X38.091 Y69.77
G1 F3150 X74.337 Y106.015 E408.35293
G0 F7200 X70.617 Y104.558
G1 F3150 X37.273 Y71.214 E413.99917
G0 F7200 X36.608 Y72.811
G1 F3150 X68.627 Y104.831 E419.42113
G0 F7200 X67.114 Y105.581
G1 F3150 X36.113 Y74.579 E424.6707
G0 F7200 X35.84 Y76.569
G1 F3150 X65.931 Y106.66 E429.7661
G0 F7200 X65.031 Y108.023
G1 F3150 X35.8 Y78.792 E434.71587
G0 F7200 X35.8 Y81.055
G1 F3150 X64.093 Y109.348 E439.50681
G0 F7200 X63.025 Y110.543
G1 F3150 X35.8 Y83.318 E444.1169
G0 F7200 X35.8 Y85.58
G1 F3150 X61.826 Y111.606 E448.52396
G0 F7200 X60.504 Y112.547
G1 F3150 X35.8 Y87.843 E452.70716
G0 F7200 X35.8 Y90.106
G1 F3150 X59.034 Y113.339 E456.64136
G0 F7200 X57.417 Y113.986
G1 F3150 X35.8 Y92.369 E460.30183
G0 F7200 X35.8 Y94.631
G1 F3150 X55.62 Y114.451 E463.65801
G0 F7200 X53.585 Y114.679
G1 F3150 X35.8 Y96.894 E466.66959
G0 F7200 X35.8 Y99.157
G1 F3150 X51.341 Y114.698 E469.3012
G0 F7200 X49.039 Y114.659
G1 F3150 X35.846 Y101.466 E471.53521
G0 F7200 X36.29 Y104.172
G1 F3150 X46.32 Y114.203 E473.2337
G0 F7200 X42.245 Y112.39
G1 F3150 X38.146 Y108.291 E473.9278
G0 F600 X38.146 Y108.291 Z0.66
G0 F7200 X39.307 Y68.174
;TIME_ELAPSED:82.423975
;LAYER:-5
;TYPE:SUPPORT
G1 F3150 X40.712 Y66.769 E474.12606
G0 F7200 X46.854 Y59.212
G1 F3150 X45.509 Y60.623 E474.32057
G1 X44.438 Y61.877 E474.48511
G1 X43.899 Y62.643 E474.57857
G1 X43.358 Y63.534 E474.68258
G1 X42.712 Y64.768 E474.82156
G1 X51.455 Y56.025 E476.05529
G1 X51.89 Y55.832 E476.10278
G1 X53.344 Y55.347 E476.25572
G1 X53.628 Y55.267 E476.28516
G1 X36.942 Y71.952 E478.63966
G1 X36.75 Y72.407 E478.68894
G1 X36.698 Y73.251 E478.77331
G1 X36.458 Y73.191 E478.798
G1 X36.231 Y74.078 E478.88935
G1 X55.561 Y54.748 E481.61703
G1 X56.199 Y54.597 E481.68244
G1 X57.294 Y54.429 E481.79298
G1 X35.914 Y75.809 E484.80993
G1 X35.846 Y76.389 E484.8682
G1 X35.808 Y77.329 E484.96207
G1 X58.797 Y54.34 E488.20607
G1 X59.307 Y54.335 E488.25696
G1 X60.164 Y54.387 E488.34263
G1 X35.8 Y78.751 E491.78065
G1 X35.8 Y80.165 E491.92174
G1 X61.415 Y54.55 E495.53629
G1 X62.57 Y54.81 E495.65442
G1 X35.8 Y81.58 E499.43196
G1 X35.8 Y82.994 E499.57305
G1 X63.686 Y55.108 E503.50806
G1 X64.79 Y55.418 E503.62248
G1 X35.8 Y84.408 E507.71328
G1 X35.8 Y85.822 E507.85437
G1 X65.856 Y55.767 E512.09553
G1 X66.402 Y55.922 E512.15216
G1 X67.017 Y56.019 E512.21429
G1 X35.8 Y87.236 E516.61934
G1 X35.8 Y88.651 E516.76053
G1 X68.457 Y55.994 E521.36879
G1 X68.583 Y55.982 E521.38142
G1 X69.3 Y55.815 E521.45487
G1 X69.947 Y55.58 E521.52356
G1 X70.639 Y55.226 E521.60112
G1 X35.8 Y90.065 E526.51728
G1 X35.8 Y91.479 E526.65837
G1 X76.334 Y50.946 E532.37808
G1 X77.142 Y50.743 E532.46121
G1 X77.068 Y50.592 E532.47799
G1 X78.619 Y50.074 E532.64115
G1 X35.8 Y92.893 E538.68337
G1 X35.8 Y94.308 E538.82456
G1 X80.586 Y49.522 E545.14435
G1 X81.989 Y49.128 E545.28976
G1 X82.519 Y49.002 E545.34412
G1 X35.8 Y95.722 E551.93674
G1 X35.8 Y97.136 E552.07783
G1 X84.239 Y48.697 E558.9131
G1 X85.163 Y48.612 E559.00568
G1 X85.745 Y48.605 E559.06376
G1 X35.8 Y98.55 E566.11154
G1 X35.8 Y99.964 E566.25263
G1 X87.118 Y48.647 E573.49408
G1 X88.37 Y48.809 E573.62005
G1 X35.839 Y101.34 E581.03274
G1 X35.897 Y102.12 E581.11078
G1 X35.973 Y102.62 E581.16125
G1 X89.52 Y49.073 E588.71731
G1 X90.626 Y49.382 E588.83189
G1 X36.2 Y103.808 E596.51199
G1 X36.229 Y103.942 E596.52567
G1 X36.579 Y104.695 E596.60852
G1 X36.438 Y104.742 E596.62335
G1 X36.505 Y104.916 E596.64196
G1 X91.73 Y49.691 E604.4348
G1 X92.835 Y50.001 E604.54931
G1 X36.884 Y105.952 E612.4446
G1 X37.337 Y106.913 E612.55061
G1 X93.93 Y50.32 E620.5365
G1 X94.933 Y50.731 E620.64465
G1 X37.833 Y107.831 E628.70208
G1 X38.402 Y108.677 E628.80381
G1 X95.881 Y51.197 E636.91479
G1 X96.828 Y51.664 E637.02015
G1 X39.002 Y109.491 E645.18009
G1 X39.672 Y110.235 E645.27999
G1 X97.9 Y52.006 E653.49666
G1 X98.259 Y52.085 E653.53334
G1 X99.154 Y52.167 E653.62302
G1 X40.377 Y110.944 E661.91709
G1 X41.144 Y111.591 E662.01721
G1 X100.856 Y51.879 E670.44322
G1 X101.196 Y51.776 E670.47867
G1 X101.835 Y51.489 E670.54856
G1 X102.363 Y51.219 E670.60773
G1 X103.228 Y50.842 E670.70189
G1 X103.346 Y50.803 E670.71429
G1 X41.957 Y112.192 E679.37694
G1 X42.261 Y112.412 E679.41438
G1 X42.346 Y112.238 E679.4337
G1 X42.861 Y112.703 E679.50294
G1 X105.411 Y50.153 E688.32942
G1 X107.376 Y49.602 E688.53305
G1 X43.796 Y113.182 E697.50487
G1 X44.16 Y113.327 E697.54397
G1 X44.084 Y113.403 E697.55469
G1 X44.72 Y113.672 E697.6236
G1 X109.23 Y49.162 E706.72666
G1 X109.844 Y49.061 E706.78874
G1 X110.836 Y48.97 E706.88814
G1 X45.75 Y114.056 E716.07248
G1 X46.874 Y114.346 E716.18831
G1 X112.268 Y48.952 E725.4161
G1 X113.097 Y49.004 E725.49899
G1 X113.57 Y49.065 E725.54657
G1 X48.075 Y114.56 E734.78862
G1 X48.895 Y114.655 E734.87099
G1 X49.374 Y114.674 E734.91882
G1 X114.763 Y49.286 E744.14585
G1 X115.915 Y49.548 E744.26373
G1 X50.763 Y114.7 E753.45738
G1 X52.177 Y114.7 E753.59847
G1 X117.009 Y49.868 E762.74697
G1 X118.113 Y50.178 E762.86138
G1 X53.614 Y114.678 E771.96296
G1 X54.65 Y114.602 E772.06661
G1 X55.186 Y114.519 E772.12073
G1 X119.206 Y50.499 E781.15464
G1 X119.757 Y50.676 E781.21239
G1 X120.249 Y50.871 E781.2652
G1 X57.196 Y113.923 E790.16259
G1 X57.242 Y114.063 E790.17729
G1 X58.635 Y113.53 E790.32611
G1 X59.341 Y113.193 E790.40417
G1 X121.228 Y51.306 E799.13709
G1 X121.785 Y51.581 E799.19908
G1 X122.151 Y51.798 E799.24153
G1 X69.284 Y104.665 E806.70164
G1 X69.574 Y104.603 E806.73123
G1 X70.303 Y104.544 E806.80421
G1 X70.796 Y104.566 E806.85345
G1 X123.019 Y52.344 E814.22261
G1 X123.389 Y52.599 E814.26744
G1 X123.829 Y52.947 E814.32342
G1 X71.996 Y104.78 E821.63761
G1 X72.465 Y104.923 E821.68654
G1 X73.017 Y105.174 E821.74704
