;FLAVOR:Marlin
;TIME:5503
;Filament used: 8.3538m
;Layer height: 0.2
;MINX:35.4
;MINY:43.033
;MINZ:0.36
;MAXX:139.6
;MAXY:125.101
;MAXZ:45.71
;TARGET_MACHINE.NAME:Unknown
;Generated with Cura_SteamEngine 5.10.0
M104 S200
M105
M109 S200
G28 ;Home
G1 Z15.0 F6000 ;Move the platform down 15mm
;Prime the extruder
G92 E0
G1 F200 E3
G92 E0
M82 ;absolute extrusion mode
G92 E0
G92 E0
G1 F1500 E-6.5
;LAYER_COUNT:222
;LAYER:-6
M107
G0 F7200 X48.331 Y67.085 Z0.36
;TYPE:SUPPORT-INTERFACE
G1 F1500 E0
G1 F3150 X48.579 Y66.906 E0.03662
G1 X49.509 Y66.333 E0.16742
G1 X50.452 Y65.846 E0.2945
G1 X51.332 Y65.462 E0.40946
G1 X52.675 Y65.011 E0.57909
G1 X54.483 Y64.499 E0.80409
G1 X55.506 Y64.244 E0.93032
G1 X56.632 Y64.053 E1.06707
G1 X57.101 Y64.011 E1.12345
G1 X57.839 Y63.896 E1.21289
G1 X58.496 Y63.704 E1.29484
G1 X59.118 Y63.435 E1.37599
G1 X59.668 Y63.113 E1.4523
G1 X60.161 Y62.744 E1.52603
G1 X60.625 Y62.35 E1.59892
G1 X61.568 Y61.652 E1.73939
G1 X62.554 Y61.049 E1.87778
G1 X63.477 Y60.566 E2.00252
G1 X64.384 Y60.174 E2.12083
G1 X65.742 Y59.719 E2.29231
G1 X69.193 Y58.748 E2.72157
G1 X70.375 Y58.465 E2.8671
G1 X71.302 Y58.314 E2.97956
G1 X72.484 Y58.212 E3.12161
G1 X73.574 Y58.201 E3.25213
G1 X74.61 Y58.263 E3.3764
G1 X75.527 Y58.379 E3.48707
G1 X77.05 Y58.717 E3.67387
G1 X80.517 Y59.684 E4.10484
G1 X81.619 Y60.033 E4.24325
G1 X82.651 Y60.457 E4.37684
G1 X83.535 Y60.894 E4.49491
G1 X84.336 Y61.355 E4.60557
G1 X84.904 Y61.642 E4.68177
G1 X85.544 Y61.873 E4.76324
G1 X86.257 Y62.032 E4.85071
G1 X86.923 Y62.088 E4.93073
G1 X87.615 Y62.06 E5.01366
G1 X88.287 Y61.949 E5.09521
G1 X88.929 Y61.754 E5.17555
G1 X89.526 Y61.49 E5.25371
G1 X90.144 Y61.118 E5.34008
G1 X90.647 Y60.716 E5.41718
G1 X91.162 Y60.195 E5.5049
G1 X91.559 Y59.668 E5.5839
G1 X91.896 Y59.064 E5.66671
G1 X92.23 Y58.224 E5.77495
G1 X92.85 Y56.1 E6.03989
G1 X93.183 Y55.102 E6.16586
G1 X93.624 Y54.061 E6.30123
G1 X94.032 Y53.253 E6.40961
G1 X94.604 Y52.282 E6.54455
G1 X95.268 Y51.346 E6.68196
G1 X96.214 Y50.236 E6.85658
G1 X98.102 Y48.245 E7.18512
G1 X98.878 Y47.484 E7.31526
G1 X99.56 Y46.907 E7.42223
G1 X100.553 Y46.184 E7.5693
G1 X101.329 Y45.699 E7.67887
G1 X102.259 Y45.205 E7.80496
G1 X103.293 Y44.75 E7.94022
G1 X104.822 Y44.239 E8.13326
G1 X107.153 Y43.584 E8.42317
G1 X108.327 Y43.305 E8.56766
G1 X109.266 Y43.15 E8.68161
G1 X110.441 Y43.048 E8.82283
G1 X111.329 Y43.033 E8.92917
G1 X112.382 Y43.087 E9.05542
G1 X113.477 Y43.215 E9.18742
G1 X115.003 Y43.553 E9.37457
G1 X117.613 Y44.28 E9.69898
G1 X118.614 Y44.601 E9.82485
G1 X119.65 Y45.025 E9.95888
G1 X120.624 Y45.512 E10.08927
G1 X121.546 Y46.061 E10.21776
G1 X122.42 Y46.673 E10.34551
G1 X123.176 Y47.274 E10.46115
G1 X124.303 Y48.358 E10.64838
G1 X126.075 Y50.233 E10.95728
G1 X126.792 Y51.056 E11.08798
G1 X127.434 Y51.912 E11.2161
G1 X128.007 Y52.813 E11.34395
G1 X128.427 Y53.57 E11.44761
G1 X128.917 Y54.624 E11.58678
G1 X129.451 Y56.135 E11.77867
G1 X130.161 Y58.589 E12.08455
G1 X130.424 Y59.644 E12.21474
G1 X130.587 Y60.563 E12.32649
G1 X130.704 Y61.756 E12.47003
G1 X130.727 Y62.831 E12.59877
G1 X130.688 Y63.713 E12.70448
G1 X130.579 Y64.733 E12.82731
G1 X130.366 Y65.866 E12.96535
G1 X130.269 Y66.545 E13.04747
G1 X130.26 Y67.246 E13.13142
G1 X130.333 Y67.885 E13.20842
G1 X130.552 Y68.737 E13.31376
G1 X130.958 Y69.903 E13.46159
G1 X131.839 Y72.928 E13.83884
G1 X132.044 Y73.543 E13.91646
G1 X132.33 Y74.152 E13.99702
G1 X132.693 Y74.726 E14.07834
G1 X133.152 Y75.275 E14.16403
G1 X133.623 Y75.714 E14.24112
G1 X133.992 Y76.003 E14.29724
G1 X134.804 Y76.686 E14.42429
G1 X135.44 Y77.299 E14.53005
G1 X136.181 Y78.118 E14.6623
G1 X136.784 Y78.888 E14.7794
G1 X137.415 Y79.822 E14.91437
G1 X138.02 Y80.904 E15.0628
G1 X138.388 Y81.683 E15.16596
G1 X138.821 Y82.794 E15.30873
G1 X139.14 Y83.881 E15.44437
G1 X139.354 Y84.824 E15.56016
G1 X139.514 Y85.978 E15.69965
G1 X139.599 Y87.163 E15.84191
G1 X139.6 Y110.487 E18.63464
G1 X139.552 Y111.638 E18.77258
G1 X139.452 Y112.569 E18.88469
G1 X139.229 Y113.74 E19.02742
G1 X139.004 Y114.614 E19.13548
G1 X138.642 Y115.7 E19.27255
G1 X138.174 Y116.78 E19.41349
G1 X137.692 Y117.709 E19.5388
G1 X137.115 Y118.636 E19.66954
G1 X136.488 Y119.501 E19.79746
G1 X135.81 Y120.303 E19.92321
G1 X135.197 Y120.94 E20.02906
G1 X134.319 Y121.732 E20.17064
G1 X133.569 Y122.311 E20.28409
G1 X132.672 Y122.916 E20.41364
G1 X131.79 Y123.421 E20.53533
G1 X130.813 Y123.888 E20.66499
G1 X129.71 Y124.317 E20.8067
G1 X128.615 Y124.64 E20.9434
G1 X127.715 Y124.842 E21.05384
G1 X126.505 Y125.017 E21.20023
G1 X125.313 Y125.101 E21.34331
G1 X121.992 Y125.096 E21.74095
G1 X120.857 Y125.052 E21.87696
G1 X120.017 Y124.963 E21.9781
G1 X118.889 Y124.76 E22.11533
G1 X117.941 Y124.519 E22.23245
G1 X116.865 Y124.161 E22.36823
G1 X115.791 Y123.713 E22.50757
G1 X114.204 Y122.883 E22.72201
G1 X113.589 Y122.654 E22.80059
G1 X112.875 Y122.483 E22.8885
G1 X112.185 Y122.416 E22.9715
G1 X111.489 Y122.437 E23.05488
G1 X110.838 Y122.538 E23.13376
G1 X110.167 Y122.731 E23.21736
G1 X109.37 Y123.091 E23.32207
G1 X108.609 Y123.511 E23.42615
G1 X107.813 Y123.888 E23.53161
G1 X106.71 Y124.317 E23.67332
G1 X105.615 Y124.64 E23.81001
G1 X104.715 Y124.842 E23.92046
G1 X103.505 Y125.017 E24.06684
G1 X102.313 Y125.101 E24.20992
G1 X98.992 Y125.096 E24.60757
G1 X97.857 Y125.052 E24.74357
G1 X97.017 Y124.963 E24.84471
G1 X95.889 Y124.76 E24.98195
G1 X94.941 Y124.519 E25.09907
G1 X93.865 Y124.161 E25.23485
G1 X92.789 Y123.713 E25.37441
G1 X91.924 Y123.266 E25.49099
G1 X91.012 Y122.717 E25.61845
G1 X89.998 Y121.991 E25.76777
G1 X89.327 Y121.429 E25.87257
G1 X88.551 Y120.692 E26.00072
G1 X87.827 Y119.894 E26.12973
G1 X87.257 Y119.242 E26.23343
G1 X86.747 Y118.795 E26.31463
G1 X86.199 Y118.427 E26.39366
G1 X85.574 Y118.109 E26.47763
G1 X84.921 Y117.873 E26.56077
G1 X84.271 Y117.734 E26.64036
G1 X83.588 Y117.676 E26.72243
G1 X82.912 Y117.7 E26.80342
G1 X82.124 Y117.829 E26.89903
G1 X80.82 Y118.253 E27.06321
G1 X77.258 Y119.244 E27.50591
G1 X76.311 Y119.475 E27.62263
G1 X75.229 Y119.654 E27.75394
G1 X74.036 Y119.76 E27.89735
G1 X72.957 Y119.771 E28.02656
G1 X72.084 Y119.725 E28.13123
G1 X70.985 Y119.589 E28.26382
G1 X69.842 Y119.354 E28.40355
G1 X68.966 Y119.114 E28.5123
G1 X68.282 Y118.964 E28.59615
G1 X67.615 Y118.904 E28.67633
G1 X66.928 Y118.925 E28.75863
G1 X66.258 Y119.035 E28.83993
G1 X65.638 Y119.212 E28.91713
G1 X64.988 Y119.502 E29.00235
G1 X64.425 Y119.832 E29.08049
G1 X63.783 Y120.338 E29.17837
G1 X63.197 Y120.944 E29.27931
G1 X62.319 Y121.732 E29.42057
G1 X61.569 Y122.311 E29.53402
G1 X60.672 Y122.916 E29.66357
G1 X59.79 Y123.421 E29.78526
G1 X58.813 Y123.888 E29.91492
G1 X57.71 Y124.317 E30.05662
G1 X56.615 Y124.64 E30.19332
G1 X55.715 Y124.842 E30.30377
G1 X54.505 Y125.018 E30.45017
G1 X53.311 Y125.101 E30.59348
G1 X49.992 Y125.096 E30.99089
G1 X48.857 Y125.052 E31.12689
G1 X48.017 Y124.963 E31.22803
G1 X46.889 Y124.76 E31.36526
G1 X45.941 Y124.519 E31.48238
G1 X44.865 Y124.161 E31.61817
G1 X43.789 Y123.713 E31.75772
G1 X42.924 Y123.266 E31.87431
G1 X42.012 Y122.717 E32.00177
G1 X40.998 Y121.991 E32.15109
G1 X40.327 Y121.429 E32.25589
G1 X39.551 Y120.692 E32.38403
G1 X38.835 Y119.902 E32.51169
G1 X38.181 Y119.065 E32.63888
G1 X37.581 Y118.169 E32.768
G1 X37.056 Y117.243 E32.89545
G1 X36.585 Y116.25 E33.02705
G1 X36.156 Y115.123 E33.17144
G1 X35.856 Y114.115 E33.29736
G1 X35.654 Y113.212 E33.40816
G1 X35.483 Y112.005 E33.55412
G1 X35.4 Y110.82 E33.69636
G1 X35.4 Y87.509 E36.48754
G1 X35.448 Y86.357 E36.62559
G1 X35.545 Y85.427 E36.73755
G1 X35.767 Y84.257 E36.88014
G1 X35.996 Y83.383 E36.98832
G1 X36.335 Y82.365 E37.1168
G1 X36.78 Y81.301 E37.25489
G1 X37.242 Y80.4 E37.37613
G1 X37.779 Y79.512 E37.50038
G1 X38.453 Y78.562 E37.63985
G1 X39.186 Y77.692 E37.77607
G1 X39.799 Y77.056 E37.88183
G1 X40.674 Y76.26 E38.02347
G1 X41.095 Y75.863 E38.09276
G1 X41.535 Y75.324 E38.17607
G1 X41.886 Y74.767 E38.2549
G1 X42.516 Y73.496 E38.42475
G1 X43.116 Y72.486 E38.56542
G1 X43.725 Y71.622 E38.69199
G1 X44.81 Y70.352 E38.89199
G1 X46.129 Y68.966 E39.12108
G1 X46.913 Y68.202 E39.25216
G1 X47.742 Y67.509 E39.38153
G1 X48.331 Y67.085 E39.46843
G0 F7200 X49.01 Y67.112
G1 F3150 X106.006 Y124.108 E49.11973
G0 F7200 X107.672 Y123.511
G1 F3150 X50.456 Y66.295 E58.80829
G0 F7200 X52.063 Y65.639
G1 F3150 X109.168 Y122.745 E68.47813
G0 F7200 X110.822 Y122.136
G1 F3150 X53.796 Y65.11 E78.13451
G0 F7200 X55.586 Y64.637
G1 F3150 X113.067 Y122.118 E87.86794
G0 F7200 X116.992 Y123.78
G1 F3150 X57.556 Y64.344 E97.93241
G0 F7200 X59.276 Y63.802
G1 F3150 X120.033 Y124.559 E108.22058
G0 F7200 X122.433 Y124.695
G1 F3150 X60.618 Y62.881 E118.68781
G0 F7200 X61.911 Y61.911
G1 F3150 X124.699 Y124.699 E129.31989
G0 F7200 X126.829 Y124.566
G1 F3150 X63.348 Y61.086 E140.06923
G0 F7200 X64.936 Y60.411
G1 F3150 X128.717 Y124.192 E150.86945
G0 F7200 X130.405 Y123.617
G1 F3150 X66.664 Y59.876 E161.66291
G0 F7200 X68.43 Y59.379
G1 F3150 X131.931 Y122.88 E172.41572
G0 F7200 X133.314 Y122
G1 F3150 X70.226 Y58.913 E183.09851
G0 F7200 X72.214 Y58.638
G1 F3150 X134.556 Y120.98 E193.65507
G0 F7200 X135.679 Y119.84
G1 F3150 X74.497 Y58.657 E204.01528
G0 F7200 X77.306 Y59.204
G1 F3150 X136.671 Y118.569 E214.06773
G0 F7200 X137.526 Y117.161
G1 F3150 X80.445 Y60.08 E223.73343
G0 F7200 X84.526 Y61.899
G1 F3150 X138.243 Y115.615 E232.8294
G0 F7200 X138.778 Y113.888
G1 F3150 X87.358 Y62.468 E241.5365
G0 F7200 X89.217 Y62.064
G1 F3150 X139.115 Y111.963 E249.98596
G0 F7200 X139.2 Y109.785
G1 F3150 X90.645 Y61.229 E258.20801
G0 F7200 X91.751 Y60.072
G1 F3150 X139.2 Y107.522 E266.24278
G0 F7200 X139.2 Y105.259
G1 F3150 X92.518 Y58.577 E274.14758
G0 F7200 X93.049 Y56.845
G1 F3150 X139.2 Y102.996 E281.96246
G0 F7200 X139.2 Y100.734
G1 F3150 X93.602 Y55.135 E289.68379
G0 F7200 X94.312 Y53.583
G1 F3150 X139.2 Y98.471 E297.28481
G0 F7200 X139.2 Y96.208
G1 F3150 X95.169 Y52.177 E304.74071
G0 F7200 X96.164 Y50.91
G1 F3150 X139.2 Y93.945 E312.02804
G0 F7200 X139.2 Y91.683
G1 F3150 X97.246 Y49.728 E319.13232
G0 F7200 X98.347 Y48.567
G1 F3150 X139.2 Y89.42 E326.05008
G0 F7200 X139.198 Y87.155
G1 F3150 X99.514 Y47.471 E332.76989
G0 F7200 X100.805 Y46.499
G1 F3150 X138.889 Y84.583 E339.21876
G0 F7200 X137.672 Y81.103
G1 F3150 X102.238 Y45.67 E345.21882
G0 F7200 X103.825 Y44.994
G1 F3150 X131.285 Y72.454 E349.86871
G0 F7200 X130.288 Y69.194
G1 F3150 X105.546 Y44.452 E354.05834
G0 F7200 X107.314 Y43.957
G1 F3150 X129.874 Y66.517 E357.87849
G0 F7200 X130.194 Y64.574
G1 F3150 X109.188 Y43.568 E361.4355
G0 F7200 X111.316 Y43.433
G1 F3150 X130.319 Y62.437 E364.65342
G0 F7200 X130.068 Y59.923
G1 F3150 X113.853 Y43.708 E367.39915
G0 F7200 X116.906 Y44.498
G1 F3150 X129.236 Y56.828 E369.48703
G0 F7200 X127.621 Y52.951
G1 F3150 X120.683 Y46.013 E370.66186
G0 F7200 X88.766 Y61.322
G0 X88.093 Y61.48
G0 X47.701 Y68.065
G1 F3150 X104.154 Y124.519 E380.2213
G0 F7200 X102.072 Y124.699
G1 F3150 X46.518 Y69.146 E389.62834
G0 F7200 X45.41 Y70.301
G1 F3150 X99.807 Y124.697 E398.83946
G0 F7200 X97.454 Y124.607
G1 F3150 X44.351 Y71.504 E407.83155
G0 F7200 X43.391 Y72.807
G1 F3150 X94.551 Y123.967 E416.49462
G0 F7200 X86.409 Y118.088
G1 F3150 X42.583 Y74.261 E423.91589
G0 F7200 X41.75 Y75.691
G1 F3150 X83.344 Y117.285 E430.95913
G0 F7200 X81.43 Y117.634
G1 F3150 X40.634 Y76.838 E437.86724
G0 F7200 X39.488 Y77.954
G1 F3150 X79.686 Y118.153 E444.67417
G0 F7200 X77.916 Y118.645
G1 F3150 X38.482 Y79.212 E451.35156
G0 F7200 X37.595 Y80.588
G1 F3150 X76.111 Y119.103 E457.8735
G0 F7200 X74.097 Y119.352
G1 F3150 X36.869 Y82.123 E464.17752
G0 F7200 X36.296 Y83.814
G1 F3150 X71.764 Y119.282 E470.18342
G0 F7200 X68.913 Y118.693
G1 F3150 X35.918 Y85.699 E475.77047
G0 F7200 X35.8 Y87.843
G1 F3150 X66.541 Y118.584 E480.97594
G0 F7200 X64.83 Y119.136
G1 F3150 X35.8 Y90.106 E485.89167
G0 F7200 X35.8 Y92.369
G1 F3150 X63.493 Y120.062 E490.58101
G0 F7200 X62.342 Y121.173
G1 F3150 X35.8 Y94.631 E495.07545
G0 F7200 X35.8 Y96.894
G1 F3150 X61.071 Y122.165 E499.35466
G0 F7200 X59.671 Y123.028
G1 F3150 X35.8 Y99.157 E503.39681
G0 F7200 X35.8 Y101.42
G1 F3150 X58.111 Y123.731 E507.17479
G0 F7200 X56.397 Y124.279
G1 F3150 X35.8 Y103.682 E510.66255
G0 F7200 X35.8 Y105.945
G1 F3150 X54.473 Y124.618 E513.8245
G0 F7200 X52.291 Y124.699
G1 F3150 X35.8 Y108.208 E516.61697
G0 F7200 X35.8 Y110.471
G1 F3150 X50.026 Y124.696 E519.02582
G0 F7200 X47.537 Y124.471
G1 F3150 X36.021 Y112.955 E520.97585
G0 F7200 X37.004 Y116.2
G1 F3150 X44.295 Y123.491 E522.21046
G0 F600 X44.295 Y123.491 Z0.66
G0 F7200 X37.015 Y81.779
;TIME_ELAPSED:90.597289
;LAYER:-5
;TYPE:SUPPORT
G1 F3150 X37.154 Y81.64 E522.23008
G0 F7200 X43.908 Y72.058
G1 F3150 X48.608 Y67.358 E522.8933
G1 X49.7 Y66.687 E523.02118
G1 X50.462 Y66.287 E523.10705
G1 X51.487 Y65.832 E523.21895
G1 X51.579 Y65.801 E523.22864
G1 X41.929 Y75.45 E524.59029
G1 X41.861 Y75.558 E524.60302
G1 X41.369 Y76.157 E524.68037
G1 X41.206 Y76.312 E524.70281
G1 X41.206 Y76.541 E524.72566
G1 X40.805 Y76.685 E524.76818
G1 X40.207 Y77.222 E524.84837
G1 X39.472 Y77.977 E524.95351
G1 X38.816 Y78.756 E525.05513
G1 X38.089 Y79.762 E525.17897
G1 X38.262 Y79.846 E525.19816
G1 X37.608 Y80.571 E525.29559
G1 X37.2 Y81.594 E525.40548
G1 X53.645 Y65.149 E527.72605
G1 X54.658 Y64.866 E527.831
G1 X55.554 Y64.654 E527.92287
G1 X36.265 Y83.943 E530.64476
G1 X36.126 Y84.485 E530.70059
G1 X35.968 Y85.341 E530.78744
G1 X35.927 Y85.696 E530.8231
G1 X57.227 Y64.396 E533.82876
G1 X57.959 Y64.279 E533.90273
G1 X58.655 Y64.075 E533.97509
G1 X59.2 Y63.836 E534.03447
G1 X35.799 Y87.237 E537.33661
G1 X35.8 Y88.651 E537.4777
G1 X63.384 Y61.067 E541.3701
G1 X63.576 Y60.967 E541.3917
G1 X64.47 Y60.743 E541.48366
G1 X64.395 Y60.592 E541.50048
G1 X65.712 Y60.153 E541.639
G1 X35.8 Y90.065 E545.85991
G1 X35.8 Y91.479 E546.001
G1 X67.696 Y59.583 E550.50187
G1 X69.317 Y59.129 E550.66983
G1 X69.642 Y59.052 E550.70316
G1 X35.8 Y92.893 E555.47856
G1 X35.8 Y94.308 E555.61975
G1 X71.396 Y58.712 E560.64273
G1 X72.491 Y58.612 E560.75245
G1 X72.915 Y58.607 E560.79476
G1 X35.8 Y95.722 E566.03208
G1 X35.8 Y97.136 E566.17317
G1 X74.307 Y58.629 E571.60693
G1 X75.556 Y58.795 E571.73265
G1 X35.8 Y98.55 E577.34258
G1 X35.8 Y99.964 E577.48367
G1 X76.726 Y59.038 E583.25877
G1 X77.832 Y59.347 E583.37335
G1 X35.8 Y101.379 E589.30452
G1 X35.8 Y102.793 E589.44561
G1 X78.936 Y59.657 E595.53257
G1 X80.04 Y59.967 E595.64698
G1 X35.8 Y104.207 E601.88973
G1 X35.8 Y105.621 E602.03082
G1 X81.122 Y60.299 E608.42624
G1 X81.552 Y60.441 E608.47142
G1 X82.151 Y60.685 E608.53596
G1 X35.8 Y107.035 E615.07652
G1 X35.8 Y108.45 E615.21771
G1 X83.131 Y61.119 E621.89662
G1 X84.025 Y61.638 E621.99977
G1 X35.8 Y109.864 E628.80491
G1 X35.8 Y110.82 E628.9003
G1 X35.832 Y111.246 E628.94292
G1 X84.982 Y62.097 E635.87845
G1 X85.441 Y62.262 E635.92712
G1 X86.087 Y62.405 E635.99314
G1 X35.959 Y112.533 E643.06674
G1 X36.052 Y113.149 E643.1289
G1 X36.181 Y113.725 E643.1878
G1 X87.439 Y62.468 E650.42078
G1 X87.685 Y62.457 E650.44535
G1 X88.404 Y62.331 E650.51819
G1 X89.25 Y62.071 E650.6065
G1 X36.478 Y114.843 E658.0532
G1 X36.866 Y115.869 E658.16265
G1 X109.168 Y43.567 E668.36524
G1 X110.445 Y43.45 E668.4932
G1 X110.703 Y43.447 E668.51894
G1 X37.303 Y116.846 E678.8764
G1 X37.807 Y117.757 E678.98029
G1 X112.089 Y43.474 E689.46235
G1 X112.536 Y43.503 E689.50705
G1 X113.369 Y43.609 E689.59083
G1 X38.349 Y118.628 E700.1769
G1 X38.966 Y119.426 E700.27754
G1 X114.531 Y43.861 E710.94058
G1 X115.088 Y43.987 E710.99756
G1 X115.659 Y44.148 E711.05676
G1 X39.617 Y120.189 E721.78704
G1 X40.333 Y120.888 E721.88688
G1 X116.762 Y44.458 E732.67191
G1 X117.865 Y44.769 E732.78626
G1 X41.079 Y121.556 E743.62166
G1 X41.899 Y122.15 E743.72269
G1 X118.898 Y45.151 E754.58808
G1 X119.494 Y45.396 E754.65238
G1 X119.877 Y45.586 E754.69504
G1 X42.808 Y122.655 E765.57031
G1 X43.071 Y122.892 E765.60564
G1 X43.724 Y123.153 E765.6758
G1 X120.8 Y46.077 E776.55206
G1 X121.191 Y46.307 E776.59732
G1 X121.663 Y46.629 E776.65434
G1 X44.65 Y123.642 E787.5217
G1 X44.907 Y123.749 E787.54948
G1 X45.751 Y123.802 E787.63386
G1 X45.701 Y124.005 E787.65472
G1 X122.478 Y47.228 E798.48878
G1 X122.917 Y47.579 E798.54487
G1 X123.235 Y47.885 E798.5889
