;FLAVOR:Marlin
;TIME:890
;Filament used: 0.659654m
;Layer height: 0.2
;MINX:73.293
;MINY:66.216
;MINZ:0.3
;MAXX:101.717
;MAXY:106.832
;MAXZ:26.9
;TARGET_MACHINE.NAME:Unknown
;Generated with Cura_SteamEngine 5.10.0
M104 S200
M105
M109 S200
G28 ;Home
G1 Z15.0 F6000 ;Move the platform down 15mm
;Prime the extruder
G92 E0
G1 F200 E3
G92 E0
M82 ;absolute extrusion mode
G92 E0
G92 E0
G1 F1500 E-6.5
;LAYER_COUNT:134
;LAYER:0
M107
G0 F3600 X78.55 Y72.871 Z0.3
;TYPE:SKIRT
G1 F1500 E0
G1 F4200 X79.264 Y72.118 E0.05177
G1 X79.932 Y71.483 E0.09775
G1 X80.713 Y70.808 E0.14925
G1 X81.555 Y70.152 E0.2025
G1 X82.353 Y69.589 E0.25123
G1 X83.042 Y69.151 E0.29196
G1 X84.11 Y68.55 E0.3531
G1 X84.875 Y68.164 E0.39585
G1 X85.897 Y67.718 E0.45148
G1 X86.784 Y67.371 E0.499
G1 X87.799 Y67.041 E0.55225
G1 X88.755 Y66.782 E0.60166
G1 X89.745 Y66.566 E0.65221
G1 X90.659 Y66.413 E0.69845
G1 X91.826 Y66.282 E0.75704
G1 X92.914 Y66.216 E0.81142
G1 X94.395 Y66.232 E0.88531
G1 X96.312 Y66.486 E0.98178
G1 X98.573 Y67.716 E1.1102
G1 X100.102 Y69.208 E1.21678
G1 X100.766 Y70.324 E1.28157
G1 X101.408 Y71.799 E1.36182
G1 X101.717 Y73.295 E1.43803
G1 X101.641 Y75.842 E1.56516
G1 X101.425 Y77.228 E1.63514
G1 X100.629 Y79.022 E1.73306
G1 X99.407 Y80.57 E1.83145
G1 X98.849 Y81.097 E1.86975
G1 X96.653 Y82.368 E1.99633
G1 X94.489 Y82.805 E2.10647
G1 X93.402 Y82.804 E2.1607
G1 X92.975 Y82.846 E2.18211
G1 X92.296 Y83.016 E2.21703
G1 X91.837 Y83.241 E2.24253
G1 X91.444 Y83.48 E2.26548
G1 X90.904 Y83.951 E2.30123
G1 X90.52 Y84.433 E2.33198
G1 X90.217 Y84.959 E2.36226
G1 X89.976 Y85.666 E2.39953
G1 X89.9 Y86.24 E2.42841
G1 X89.885 Y86.725 E2.45262
G1 X90.014 Y87.498 E2.49172
G1 X90.209 Y88.016 E2.51933
G1 X90.517 Y88.569 E2.55091
G1 X90.901 Y89.059 E2.58197
G1 X91.442 Y89.528 E2.61769
G1 X91.931 Y89.804 E2.64571
G1 X92.355 Y89.992 E2.66885
G1 X92.86 Y90.133 E2.695
G1 X93.342 Y90.195 E2.71925
G1 X94.778 Y90.275 E2.791
G1 X96.584 Y90.602 E2.88257
G1 X98.733 Y91.829 E3.00603
G1 X99.274 Y92.275 E3.04101
G1 X100.476 Y93.782 E3.13718
G1 X101.459 Y95.802 E3.24926
G1 X101.678 Y97.512 E3.33527
G1 X101.713 Y99.739 E3.44639
G1 X101.132 Y102.164 E3.57079
G1 X99.558 Y104.516 E3.71199
G1 X97.905 Y105.728 E3.81425
G1 X96.177 Y106.512 E3.90892
G1 X94.359 Y106.832 E4.00101
G1 X92.352 Y106.767 E4.10119
G1 X91.221 Y106.669 E4.15783
G1 X90.587 Y106.585 E4.18974
G1 X89.236 Y106.327 E4.25836
G1 X88.274 Y106.091 E4.30777
G1 X87.443 Y105.847 E4.35098
G1 X86.361 Y105.464 E4.40825
G1 X85.442 Y105.094 E4.45767
G1 X84.717 Y104.76 E4.4975
G1 X83.631 Y104.184 E4.55883
G1 X82.767 Y103.671 E4.60896
G1 X81.94 Y103.123 E4.65845
G1 X81.185 Y102.565 E4.70529
G1 X80.384 Y101.917 E4.75669
G1 X79.715 Y101.319 E4.80146
G1 X78.924 Y100.536 E4.85699
G1 X78.303 Y99.864 E4.90264
G1 X77.646 Y99.066 E4.95421
G1 X77.016 Y98.22 E5.00683
G1 X76.504 Y97.464 E5.05238
G1 X75.935 Y96.518 E5.10746
G1 X75.493 Y95.7 E5.15385
G1 X75.071 Y94.808 E5.20308
G1 X74.659 Y93.817 E5.25662
G1 X74.328 Y92.915 E5.30456
G1 X74.067 Y92.065 E5.34892
G1 X73.777 Y90.951 E5.40635
G1 X73.649 Y90.338 E5.43759
G1 X73.438 Y88.977 E5.5063
G1 X73.371 Y88.353 E5.53761
G1 X73.298 Y86.959 E5.60725
G1 X73.293 Y85.963 E5.65694
G1 X73.32 Y85.33 E5.68855
G1 X73.452 Y83.939 E5.75826
G1 X73.597 Y82.97 E5.80714
G1 X73.759 Y82.14 E5.84934
G1 X74.008 Y81.134 E5.90104
G1 X74.299 Y80.181 E5.95075
G1 X74.691 Y79.101 E6.00807
G1 X75.098 Y78.125 E6.06083
G1 X75.546 Y77.202 E6.11202
G1 X76.175 Y76.078 E6.17628
G1 X76.693 Y75.252 E6.22492
G1 X77.304 Y74.383 E6.27792
G1 X77.879 Y73.644 E6.32463
G1 X78.55 Y72.871 E6.3757
G0 F3600 X78.84 Y73.146
G1 F4200 X79.539 Y72.408 E6.42641
G1 X80.194 Y71.786 E6.47148
G1 X80.975 Y71.111 E6.52298
G1 X81.785 Y70.479 E6.57423
G1 X82.568 Y69.927 E6.62203
G1 X83.257 Y69.489 E6.66276
G1 X84.29 Y68.907 E6.72191
G1 X85.035 Y68.531 E6.76355
G1 X86.043 Y68.091 E6.81842
G1 X86.93 Y67.744 E6.86594
G1 X87.904 Y67.427 E6.91704
G1 X88.84 Y67.173 E6.96543
G1 X89.811 Y66.961 E7.01501
G1 X90.725 Y66.808 E7.06124
G1 X91.85 Y66.681 E7.11773
G1 X92.91 Y66.616 E7.17071
G1 X94.343 Y66.629 E7.24221
G1 X96.188 Y66.873 E7.33505
G1 X98.334 Y68.041 E7.45695
G1 X99.783 Y69.455 E7.55796
G1 X100.422 Y70.529 E7.62031
G1 X101.024 Y71.919 E7.69588
G1 X101.316 Y73.33 E7.76776
G1 X101.241 Y75.83 E7.89255
G1 X101.038 Y77.113 E7.95735
G1 X100.283 Y78.814 E8.0502
G1 X99.093 Y80.322 E8.14604
G1 X98.608 Y80.775 E8.17915
G1 X96.51 Y81.989 E8.30008
G1 X94.45 Y82.405 E8.40493
G1 X93.383 Y82.404 E8.45816
G1 X92.906 Y82.451 E8.48207
G1 X92.159 Y82.638 E8.52049
G1 X91.64 Y82.892 E8.54932
G1 X91.206 Y83.156 E8.57466
G1 X90.615 Y83.671 E8.61377
G1 X90.186 Y84.21 E8.64814
G1 X89.851 Y84.792 E8.68164
G1 X89.586 Y85.57 E8.72264
G1 X89.5 Y86.214 E8.75506
G1 X89.484 Y86.754 E8.78201
G1 X89.625 Y87.599 E8.82475
G1 X89.846 Y88.185 E8.856
G1 X90.183 Y88.79 E8.89055
G1 X90.61 Y89.336 E8.92513
G1 X91.211 Y89.857 E8.96481
G1 X91.754 Y90.164 E8.99593
G1 X92.215 Y90.368 E9.02108
G1 X92.786 Y90.527 E9.05065
G1 X93.294 Y90.593 E9.07621
G1 X94.707 Y90.669 E9.14681
G1 X96.446 Y90.984 E9.23498
G1 X98.479 Y92.138 E9.35161
G1 X98.988 Y92.557 E9.3845
G1 X100.135 Y93.996 E9.47631
G1 X101.07 Y95.918 E9.58294
G1 X101.278 Y97.518 E9.66343
G1 X101.312 Y99.695 E9.77206
G1 X100.759 Y102.003 E9.89046
G1 X99.266 Y104.234 E10.02439
G1 X97.7 Y105.382 E10.12127
G1 X96.059 Y106.127 E10.21118
G1 X94.332 Y106.431 E10.29866
G1 X92.365 Y106.367 E10.39685
G1 X91.274 Y106.272 E10.45149
G1 X90.64 Y106.188 E10.48339
G1 X89.311 Y105.934 E10.5509
G1 X88.387 Y105.707 E10.59837
G1 X87.556 Y105.463 E10.64157
G1 X86.51 Y105.093 E10.69693
G1 X85.609 Y104.731 E10.74537
G1 X84.904 Y104.407 E10.78408
G1 X83.835 Y103.84 E10.84445
G1 X82.988 Y103.337 E10.8936
G1 X82.178 Y102.801 E10.94206
G1 X81.437 Y102.254 E10.98801
G1 X80.636 Y101.606 E11.03941
G1 X79.996 Y101.035 E11.0822
G1 X79.218 Y100.265 E11.13681
G1 X78.612 Y99.609 E11.18136
G1 X77.967 Y98.827 E11.23194
G1 X77.347 Y97.996 E11.28366
G1 X76.847 Y97.258 E11.32814
G1 X76.287 Y96.328 E11.3823
G1 X75.855 Y95.529 E11.42761
G1 X75.433 Y94.637 E11.47684
G1 X75.035 Y93.679 E11.5286
G1 X74.704 Y92.777 E11.57653
G1 X74.454 Y91.964 E11.61897
G1 X74.169 Y90.869 E11.67542
G1 X74.041 Y90.256 E11.70666
G1 X73.836 Y88.934 E11.7734
G1 X73.769 Y88.31 E11.80471
G1 X73.698 Y86.957 E11.87231
G1 X73.693 Y85.98 E11.92105
G1 X73.72 Y85.347 E11.95266
G1 X73.848 Y83.998 E12.02027
G1 X73.99 Y83.047 E12.06824
G1 X74.152 Y82.217 E12.11043
G1 X74.391 Y81.251 E12.16007
G1 X74.682 Y80.298 E12.20979
G1 X75.06 Y79.255 E12.26513
G1 X75.458 Y78.3 E12.31675
G1 X75.906 Y77.377 E12.36794
G1 X76.514 Y76.291 E12.43003
G1 X77.032 Y75.465 E12.47867
G1 X77.62 Y74.628 E12.52971
G1 X78.181 Y73.906 E12.57532
G1 X78.84 Y73.146 E12.62551
G0 F3600 X79.13 Y73.421
G1 F4200 X79.815 Y72.698 E12.6752
G1 X80.456 Y72.089 E12.71931
G1 X81.237 Y71.414 E12.77081
G1 X82.016 Y70.806 E12.82011
G1 X82.783 Y70.265 E12.86694
G1 X83.472 Y69.827 E12.90767
G1 X84.47 Y69.264 E12.96484
G1 X85.195 Y68.898 E13.00535
G1 X86.189 Y68.464 E13.05947
G1 X87.076 Y68.117 E13.10698
G1 X88.009 Y67.813 E13.15594
G1 X88.925 Y67.564 E13.2033
G1 X89.877 Y67.356 E13.25191
G1 X90.791 Y67.203 E13.29815
G1 X91.875 Y67.08 E13.35258
G1 X92.907 Y67.016 E13.40416
G1 X94.29 Y67.026 E13.47316
G1 X96.064 Y67.261 E13.56244
G1 X98.095 Y68.366 E13.67779
G1 X99.465 Y69.703 E13.7733
G1 X100.055 Y70.688 E13.83058
G1 X100.64 Y72.039 E13.90403
G1 X100.915 Y73.366 E13.97164
G1 X100.846 Y75.767 E14.09148
G1 X100.651 Y76.998 E14.15366
G1 X99.937 Y78.606 E14.24143
G1 X98.779 Y80.074 E14.33472
G1 X98.368 Y80.452 E14.36257
G1 X96.367 Y81.61 E14.47792
G1 X94.411 Y82.005 E14.57747
G1 X93.364 Y82.004 E14.62971
G1 X92.837 Y82.056 E14.65613
G1 X92.022 Y82.26 E14.69804
G1 X91.443 Y82.543 E14.73019
G1 X90.968 Y82.832 E14.75793
G1 X90.326 Y83.391 E14.8004
G1 X89.854 Y83.985 E14.83825
G1 X89.484 Y84.628 E14.87527
G1 X89.194 Y85.479 E14.92012
G1 X89.101 Y86.178 E14.9553
G1 X89.083 Y86.783 E14.9855
G1 X89.236 Y87.7 E15.03188
G1 X89.484 Y88.357 E15.06691
G1 X89.849 Y89.013 E15.10437
G1 X90.317 Y89.611 E15.14225
G1 X90.98 Y90.186 E15.18604
G1 X91.574 Y90.522 E15.22008
G1 X92.08 Y90.745 E15.24767
G1 X92.71 Y90.921 E15.2803
G1 X93.247 Y90.991 E15.30732
G1 X94.636 Y91.063 E15.37671
G1 X96.309 Y91.366 E15.46154
G1 X98.225 Y92.447 E15.57129
G1 X98.701 Y92.839 E15.60205
G1 X99.794 Y94.21 E15.68953
G1 X100.681 Y96.034 E15.79072
G1 X100.878 Y97.524 E15.8657
G1 X100.911 Y99.651 E15.97183
G1 X100.386 Y101.842 E16.08424
G1 X98.974 Y103.952 E16.2109
G1 X97.495 Y105.036 E16.30238
G1 X95.941 Y105.742 E16.38754
G1 X94.305 Y106.03 E16.47042
G1 X92.4 Y105.968 E16.56551
G1 X91.327 Y105.875 E16.61924
G1 X90.693 Y105.791 E16.65115
G1 X89.406 Y105.545 E16.71652
G1 X88.5 Y105.323 E16.76306
G1 X87.669 Y105.079 E16.80626
G1 X86.659 Y104.722 E16.85971
G1 X85.776 Y104.368 E16.90717
G1 X85.091 Y104.053 E16.94478
G1 X84.039 Y103.496 E17.00417
G1 X83.209 Y103.003 E17.05233
G1 X82.416 Y102.479 E17.09975
G1 X81.675 Y101.932 E17.1457
G1 X80.902 Y101.308 E17.19527
G1 X80.277 Y100.75 E17.23707
G1 X79.512 Y99.994 E17.29073
G1 X78.921 Y99.354 E17.33419
G1 X78.276 Y98.572 E17.38476
G1 X77.678 Y97.772 E17.43459
G1 X77.19 Y97.052 E17.47798
G1 X76.639 Y96.137 E17.53127
G1 X76.217 Y95.358 E17.57547
G1 X75.795 Y94.466 E17.6247
G1 X75.411 Y93.541 E17.67467
G1 X75.08 Y92.639 E17.72261
G1 X74.841 Y91.863 E17.76312
G1 X74.561 Y90.787 E17.81859
G1 X74.433 Y90.174 E17.84983
G1 X74.234 Y88.891 E17.9146
G1 X74.167 Y88.267 E17.94591
G1 X74.098 Y86.955 E18.01146
G1 X74.093 Y85.997 E18.05925
G1 X74.12 Y85.364 E18.09086
G1 X74.244 Y84.057 E18.15636
G1 X74.383 Y83.124 E18.20342
G1 X74.545 Y82.294 E18.24561
G1 X74.774 Y81.368 E18.2932
G1 X75.065 Y80.415 E18.34292
G1 X75.429 Y79.409 E18.39629
G1 X75.818 Y78.475 E18.44677
G1 X76.266 Y77.552 E18.49795
G1 X76.853 Y76.503 E18.55793
G1 X77.359 Y75.695 E18.60549
G1 X77.936 Y74.873 E18.65559
G1 X78.483 Y74.168 E18.70011
G1 X79.13 Y73.421 E18.74942
G0 F3600 X79.421 Y73.696
G1 F4200 X80.091 Y72.988 E18.79805
G1 X80.718 Y72.392 E18.84121
G1 X81.499 Y71.717 E18.89271
G1 X82.246 Y71.133 E18.94001
G1 X82.998 Y70.603 E18.98591
G1 X83.687 Y70.165 E19.02664
G1 X84.651 Y69.621 E19.08187
G1 X85.355 Y69.265 E19.12122
G1 X86.335 Y68.837 E19.17458
G1 X87.222 Y68.49 E19.22209
G1 X88.114 Y68.199 E19.2689
G1 X89.01 Y67.955 E19.31523
G1 X89.943 Y67.751 E19.36288
G1 X90.857 Y67.598 E19.40911
G1 X91.9 Y67.479 E19.46149
G1 X92.905 Y67.416 E19.51173
G1 X94.238 Y67.423 E19.57823
G1 X95.94 Y67.648 E19.66388
G1 X97.856 Y68.691 E19.77272
G1 X99.148 Y69.952 E19.86279
G1 X99.688 Y70.847 E19.91494
G1 X100.256 Y72.159 E19.98626
G1 X100.514 Y73.402 E20.0496
G1 X100.451 Y75.704 E20.16449
G1 X100.264 Y76.883 E20.22405
G1 X99.592 Y78.397 E20.30669
G1 X98.508 Y79.779 E20.39431
G1 X98.126 Y80.13 E20.4202
G1 X96.224 Y81.231 E20.52984
G1 X94.372 Y81.605 E20.6241
G1 X93.345 Y81.604 E20.67534
G1 X92.768 Y81.661 E20.70426
G1 X91.885 Y81.882 E20.74968
G1 X91.252 Y82.192 E20.78484
G1 X90.731 Y82.508 E20.81524
G1 X90.035 Y83.115 E20.86131
G1 X89.524 Y83.758 E20.90229
G1 X89.116 Y84.465 E20.94301
G1 X88.802 Y85.388 E20.99165
G1 X88.702 Y86.144 E21.0297
G1 X88.682 Y86.812 E21.06304
G1 X88.847 Y87.801 E21.11307
G1 X89.122 Y88.529 E21.15189
G1 X89.515 Y89.236 E21.19225
G1 X90.024 Y89.886 E21.23343
G1 X90.749 Y90.515 E21.28132
G1 X91.394 Y90.88 E21.31829
G1 X91.943 Y91.122 E21.34823
G1 X92.635 Y91.315 E21.38407
G1 X93.214 Y91.39 E21.4132
G1 X94.565 Y91.457 E21.48068
G1 X96.171 Y91.748 E21.56211
G1 X97.97 Y92.756 E21.66499
G1 X98.416 Y93.124 E21.69384
G1 X99.453 Y94.424 E21.7768
G1 X100.292 Y96.15 E21.87255
G1 X100.481 Y97.577 E21.94436
G1 X100.51 Y99.607 E22.04565
G1 X100.013 Y101.681 E22.15205
G1 X98.682 Y103.67 E22.27145
G1 X97.29 Y104.69 E22.35755
G1 X95.824 Y105.356 E22.43788
G1 X94.277 Y105.629 E22.51625
G1 X92.413 Y105.568 E22.6093
G1 X91.38 Y105.478 E22.66103
G1 X90.746 Y105.394 E22.69294
G1 X89.501 Y105.156 E22.75617
G1 X88.613 Y104.939 E22.80178
G1 X87.782 Y104.695 E22.84499
G1 X86.808 Y104.351 E22.89652
G1 X85.943 Y104.005 E22.943
G1 X85.278 Y103.699 E22.97952
G1 X84.243 Y103.152 E23.03793
G1 X83.429 Y102.669 E23.08515
G1 X82.653 Y102.157 E23.13153
G1 X81.926 Y101.621 E23.1766
G1 X81.168 Y101.009 E23.2252
G1 X80.558 Y100.465 E23.26598
G1 X79.806 Y99.722 E23.31872
G1 X79.23 Y99.099 E23.36105
G1 X78.585 Y98.317 E23.41162
G1 X78.009 Y97.547 E23.4596
G1 X77.533 Y96.846 E23.50187
G1 X76.991 Y95.946 E23.55428
G1 X76.579 Y95.187 E23.59737
G1 X76.157 Y94.295 E23.6466
G1 X75.787 Y93.403 E23.69478
G1 X75.456 Y92.501 E23.74271
G1 X75.228 Y91.762 E23.7813
G1 X74.953 Y90.705 E23.83579
G1 X74.825 Y90.092 E23.86703
G1 X74.632 Y88.848 E23.92984
G1 X74.565 Y88.224 E23.96115
G1 X74.498 Y86.953 E24.02464
G1 X74.493 Y86.014 E24.07149
G1 X74.52 Y85.381 E24.1031
G1 X74.64 Y84.116 E24.1665
G1 X74.776 Y83.201 E24.21265
G1 X74.938 Y82.371 E24.25484
G1 X75.157 Y81.485 E24.30037
G1 X75.448 Y80.532 E24.35008
G1 X75.798 Y79.563 E24.40148
G1 X76.178 Y78.65 E24.45082
G1 X76.626 Y77.727 E24.50201
G1 X77.192 Y76.715 E24.55986
G1 X77.686 Y75.925 E24.60634
G1 X78.252 Y75.118 E24.65552
G1 X78.785 Y74.43 E24.69894
G1 X79.421 Y73.696 E24.74739
G0 F3600 X79.711 Y73.971
G1 F4200 X80.367 Y73.278 E24.795
G1 X80.98 Y72.695 E24.8372
G1 X81.761 Y72.02 E24.8887
G1 X82.477 Y71.46 E24.93405
G1 X83.213 Y70.941 E24.97898
G1 X83.902 Y70.503 E25.01972
G1 X84.832 Y69.978 E25.073
G1 X85.515 Y69.632 E25.11119
G1 X86.481 Y69.21 E25.16379
G1 X87.368 Y68.863 E25.2113
G1 X88.219 Y68.585 E25.25597
G1 X89.096 Y68.346 E25.30132
G1 X90.009 Y68.146 E25.34795
G1 X90.923 Y67.993 E25.39418
G1 X91.925 Y67.878 E25.4445
G1 X92.904 Y67.816 E25.49344
G1 X94.185 Y67.82 E25.55735
G1 X95.816 Y68.036 E25.63943
G1 X97.617 Y69.016 E25.74173
G1 X98.83 Y70.2 E25.82629
G1 X99.321 Y71.006 E25.87338
G1 X99.872 Y72.279 E25.94258
G1 X100.113 Y73.438 E26.00164
G1 X100.056 Y75.641 E26.11159
G1 X99.877 Y76.768 E26.16852
G1 X99.246 Y78.189 E26.24609
G1 X98.193 Y79.532 E26.33123
G1 X97.886 Y79.807 E26.35179
G1 X96.081 Y80.852 E26.45585
G1 X94.333 Y81.205 E26.54481
G1 X93.326 Y81.204 E26.59505
G1 X92.699 Y81.266 E26.62649
G1 X91.748 Y81.504 E26.6754
G1 X91.055 Y81.843 E26.71389
G1 X90.497 Y82.182 E26.74646
G1 X89.744 Y82.839 E26.79632
G1 X89.19 Y83.535 E26.8407
G1 X88.75 Y84.298 E26.88464
G1 X88.412 Y85.292 E26.93702
G1 X88.302 Y86.118 E26.97859
G1 X88.281 Y86.841 E27.01468
G1 X88.458 Y87.902 E27.06834
G1 X88.76 Y88.701 E27.11096
G1 X89.179 Y89.455 E27.15399
G1 X89.733 Y90.163 E27.19884
G1 X90.331 Y90.682 E27.23835
G1 X90.721 Y90.959 E27.26221
G1 X91.214 Y91.238 E27.29047
G1 X91.806 Y91.499 E27.32275
G1 X92.56 Y91.709 E27.3618
G1 X93.181 Y91.789 E27.39304
G1 X94.494 Y91.851 E27.45862
G1 X96.034 Y92.13 E27.5367
G1 X97.774 Y93.105 E27.63621
G1 X98.125 Y93.402 E27.65915
G1 X99.113 Y94.64 E27.73817
G1 X99.903 Y96.266 E27.82836
G1 X100.084 Y97.63 E27.897
G1 X100.109 Y99.563 E27.99345
G1 X99.64 Y101.52 E28.09385
G1 X98.391 Y103.386 E28.20587
G1 X97.083 Y104.345 E28.28679
G1 X95.707 Y104.97 E28.36219
G1 X94.249 Y105.228 E28.43606
G1 X92.448 Y105.169 E28.52596
G1 X91.433 Y105.081 E28.57679
G1 X90.799 Y104.997 E28.6087
G1 X89.596 Y104.767 E28.6698
G1 X88.725 Y104.555 E28.71452
G1 X87.915 Y104.318 E28.75663
G1 X86.957 Y103.98 E28.80731
G1 X86.11 Y103.641 E28.85283
G1 X85.465 Y103.345 E28.88823
G1 X84.447 Y102.808 E28.94565
G1 X83.649 Y102.335 E28.99194
G1 X82.89 Y101.835 E29.03728
G1 X82.177 Y101.31 E29.08145
G1 X81.434 Y100.711 E29.12907
G1 X80.839 Y100.18 E29.16886
G1 X80.1 Y99.45 E29.22068
G1 X79.539 Y98.844 E29.26188
G1 X78.894 Y98.062 E29.31245
G1 X78.34 Y97.322 E29.35857
G1 X77.876 Y96.64 E29.39972
G1 X77.343 Y95.755 E29.45127
G1 X76.931 Y94.996 E29.49435
G1 X76.526 Y94.142 E29.54151
G1 X76.162 Y93.265 E29.58888
G1 X75.838 Y92.383 E29.63576
G1 X75.615 Y91.661 E29.67346
G1 X75.345 Y90.623 E29.72697
G1 X75.217 Y90.01 E29.75821
G1 X75.03 Y88.805 E29.81905
G1 X74.963 Y88.181 E29.85036
G1 X74.898 Y86.951 E29.91181
G1 X74.893 Y86.031 E29.95771
G1 X74.92 Y85.398 E29.98932
G1 X75.036 Y84.175 E30.05061
G1 X75.169 Y83.278 E30.09585
G1 X75.331 Y82.448 E30.13804
G1 X75.54 Y81.601 E30.18156
G1 X75.824 Y80.668 E30.23022
