;FLAVOR:Marlin
;TIME:2403
;Filament used: 3.31606m
;Layer height: 0.2
;MINX:47.125
;MINY:46.125
;MINZ:0.3
;MAXX:127.875
;MAXY:126.875
;MAXZ:4.9
;TARGET_MACHINE.NAME:Unknown
;Generated with Cura_SteamEngine 5.10.0
M104 S200
M105
M109 S200
G28 ;Home
G1 Z15.0 F6000 ;Move the platform down 15mm
;Prime the extruder
G92 E0
G1 F200 E3
G92 E0
M82 ;absolute extrusion mode
G92 E0
G92 E0
G1 F1500 E-6.5
;LAYER_COUNT:24
;LAYER:0
M107
G0 F3600 X49.688 Y48.144 Z0.3
;TYPE:SKIRT
G1 F1500 E0
G1 F2550 X50.426 Y47.529 E0.04194
G1 X52.574 Y46.45 E0.14687
G1 X54.238 Y46.183 E0.22044
G1 X75.868 Y46.125 E1.16468
G1 X78.472 Y46.822 E1.28235
G1 X80.081 Y48.01 E1.36966
G1 X126.132 Y93.999 E4.21076
G1 X127.386 Y96.026 E4.31481
G1 X127.875 Y98.286 E4.41575
G1 X127.875 Y119.77 E5.35361
G1 X127.415 Y121.741 E5.44196
G1 X126.163 Y124.074 E5.55754
G1 X124.122 Y125.751 E5.67286
G1 X122.079 Y126.635 E5.77004
G1 X120 Y126.875 E5.8614
G1 X54.309 Y126.869 E8.72907
G1 X52.506 Y126.498 E8.80942
G1 X50.71 Y125.652 E8.89609
G1 X48.977 Y124.174 E8.99552
G1 X48.602 Y123.713 E9.02146
G1 X47.462 Y121.449 E9.13211
G1 X47.21 Y120.045 E9.19438
G1 X47.125 Y53.204 E12.11226
G1 X47.49 Y51.552 E12.18611
G1 X48.329 Y49.741 E12.27324
G1 X49.688 Y48.144 E12.36478
G0 F3600 X49.955 Y48.371
G1 F2550 X50.619 Y47.824 E12.40234
G1 X52.682 Y46.788 E12.50311
G1 X54.294 Y46.529 E12.57439
G1 X75.823 Y46.475 E13.51422
G1 X78.316 Y47.142 E13.62687
G1 X79.873 Y48.292 E13.71137
G1 X125.855 Y94.217 E16.54836
G1 X127.057 Y96.16 E16.64809
G1 X127.525 Y98.323 E16.7447
G1 X127.525 Y119.729 E17.67916
G1 X127.084 Y121.619 E17.76388
G1 X125.888 Y123.848 E17.87431
G1 X123.939 Y125.449 E17.98441
G1 X121.988 Y126.293 E18.07721
G1 X120 Y126.525 E18.16458
G1 X54.345 Y126.519 E21.03068
G1 X52.618 Y126.164 E21.10765
G1 X50.9 Y125.354 E21.19056
G1 X49.249 Y123.953 E21.28509
G1 X48.897 Y123.52 E21.30945
G1 X47.798 Y121.338 E21.4161
G1 X47.555 Y119.983 E21.4762
G1 X47.475 Y53.244 E24.38962
G1 X47.824 Y51.665 E24.46021
G1 X48.627 Y49.932 E24.54359
G1 X49.955 Y48.371 E24.63306
G0 F3600 X50.177 Y48.641
G1 F2550 X50.809 Y48.121 E24.66878
G1 X52.79 Y47.126 E24.76556
G1 X54.35 Y46.875 E24.83453
G1 X75.777 Y46.825 E25.76991
G1 X78.16 Y47.463 E25.8776
G1 X79.665 Y48.574 E25.95926
G1 X125.578 Y94.435 E28.79214
G1 X126.728 Y96.294 E28.88757
G1 X127.175 Y98.36 E28.97984
G1 X127.175 Y119.688 E29.91089
G1 X126.753 Y121.496 E29.99194
G1 X125.612 Y123.622 E30.09727
G1 X123.756 Y125.147 E30.20213
G1 X121.897 Y125.951 E30.29055
G1 X120 Y126.175 E30.37394
G1 X54.382 Y126.169 E33.23842
G1 X52.73 Y125.829 E33.31205
G1 X51.09 Y125.056 E33.3912
G1 X49.521 Y123.732 E33.48082
G1 X49.192 Y123.327 E33.5036
G1 X48.134 Y121.227 E33.60625
G1 X47.9 Y119.921 E33.66417
G1 X47.825 Y53.284 E36.57313
G1 X48.158 Y51.778 E36.64047
G1 X48.926 Y50.121 E36.72019
G1 X50.177 Y48.641 E36.80479
G0 F3600 X50.4 Y48.911
G1 F2550 X51.001 Y48.416 E36.83878
G1 X52.898 Y47.463 E36.93145
G1 X54.405 Y47.221 E36.99808
G1 X75.732 Y47.175 E37.92909
G1 X78.004 Y47.783 E38.03176
G1 X79.457 Y48.856 E38.11061
G1 X125.301 Y94.653 E40.93939
G1 X126.399 Y96.428 E41.0305
G1 X126.825 Y98.397 E41.11844
G1 X126.825 Y119.647 E42.04609
G1 X126.422 Y121.374 E42.1235
G1 X125.337 Y123.396 E42.22368
G1 X123.573 Y124.845 E42.32333
G1 X121.809 Y125.609 E42.40725
G1 X120 Y125.825 E42.48678
G1 X54.418 Y125.819 E45.34969
G1 X52.842 Y125.495 E45.41993
G1 X51.282 Y124.759 E45.49523
G1 X49.747 Y123.464 E45.5829
G1 X49.505 Y123.17 E45.59952
G1 X48.47 Y121.116 E45.69993
G1 X48.245 Y119.859 E45.75567
G1 X48.175 Y53.324 E48.66019
G1 X48.492 Y51.891 E48.72425
G1 X49.225 Y50.31 E48.80033
G1 X50.4 Y48.911 E48.88008
G0 F3600 X50.668 Y49.136
G1 F2550 X51.192 Y48.712 E48.90951
G1 X53.006 Y47.801 E48.99812
G1 X54.461 Y47.567 E49.06245
G1 X75.686 Y47.525 E49.98901
G1 X77.848 Y48.104 E50.08672
G1 X79.249 Y49.138 E50.16273
G1 X125.024 Y94.871 E52.9874
G1 X126.07 Y96.562 E53.0742
G1 X126.475 Y98.434 E53.15781
G1 X126.475 Y119.606 E54.08205
G1 X126.091 Y121.251 E54.15579
G1 X125.061 Y123.17 E54.25087
G1 X123.39 Y124.543 E54.34528
G1 X121.716 Y125.268 E54.42491
G1 X120 Y125.475 E54.50037
G1 X54.455 Y125.469 E57.36166
G1 X52.954 Y125.16 E57.42856
G1 X51.474 Y124.462 E57.49999
G1 X49.973 Y123.196 E57.58571
G1 X49.818 Y123.012 E57.59622
G1 X48.806 Y121.004 E57.69438
G1 X48.59 Y119.797 E57.7479
G1 X48.525 Y53.363 E60.64801
G1 X48.825 Y52.005 E60.70872
G1 X49.524 Y50.498 E60.78124
G1 X50.668 Y49.136 E60.85889
G0 F3600 X50.936 Y49.361
G1 F2550 X51.38 Y49.009 E60.88362
G1 X53.114 Y48.139 E60.96831
G1 X54.517 Y47.913 E61.03035
G1 X75.641 Y47.875 E61.95249
G1 X77.692 Y48.424 E62.04518
G1 X79.041 Y49.42 E62.11838
G1 X124.747 Y95.089 E64.93894
G1 X125.741 Y96.696 E65.02143
G1 X126.125 Y98.471 E65.10071
G1 X126.125 Y119.565 E66.02155
G1 X125.76 Y121.129 E66.09165
G1 X124.786 Y122.944 E66.18157
G1 X123.207 Y124.241 E66.27078
G1 X121.623 Y124.927 E66.34613
G1 X120 Y125.125 E66.41751
G1 X54.492 Y125.119 E69.27719
G1 X53.066 Y124.825 E69.34075
G1 X51.666 Y124.165 E69.40831
G1 X50.199 Y122.928 E69.49208
G1 X50.112 Y122.818 E69.4982
G1 X49.142 Y120.893 E69.5923
G1 X48.935 Y119.735 E69.64366
G1 X48.875 Y53.403 E72.53931
G1 X49.159 Y52.118 E72.59676
G1 X49.823 Y50.686 E72.66566
G1 X50.936 Y49.361 E72.7412
G0 F3600 X51.204 Y49.586
G1 F2550 X51.537 Y49.322 E72.75976
G1 X53.222 Y48.477 E72.84204
G1 X54.573 Y48.259 E72.90178
G1 X75.596 Y48.225 E73.81952
G1 X77.536 Y48.744 E73.90719
G1 X78.833 Y49.702 E73.97758
G1 X124.47 Y95.307 E76.79403
G1 X125.412 Y96.83 E76.87221
G1 X125.775 Y98.508 E76.94715
G1 X125.775 Y119.524 E77.86459
G1 X125.429 Y121.007 E77.93106
G1 X124.512 Y122.716 E78.01573
G1 X123.021 Y123.94 E78.09994
G1 X121.529 Y124.586 E78.17091
G1 X120 Y124.775 E78.23817
G1 X54.529 Y124.769 E81.09623
G1 X53.174 Y124.49 E81.15663
G1 X51.861 Y123.87 E81.22001
G1 X50.425 Y122.66 E81.30199
G1 X49.478 Y120.781 E81.39384
G1 X49.28 Y119.673 E81.44298
G1 X49.225 Y53.443 E84.33418
G1 X49.493 Y52.231 E84.38836
G1 X50.122 Y50.874 E84.45366
G1 X51.204 Y49.586 E84.52709
G0 F3600 X51.472 Y49.811
G1 F2550 X51.694 Y49.635 E84.53946
G1 X53.33 Y48.815 E84.61934
G1 X54.629 Y48.605 E84.67679
G1 X75.55 Y48.575 E85.59007
G1 X77.38 Y49.065 E85.67277
G1 X78.625 Y49.984 E85.74032
G1 X124.193 Y95.525 E88.55268
G1 X125.083 Y96.964 E88.62654
G1 X125.425 Y98.545 E88.69715
G1 X125.425 Y119.483 E89.61118
G1 X125.098 Y120.884 E89.67398
G1 X124.236 Y122.49 E89.75355
G1 X122.838 Y123.638 E89.83252
G1 X121.435 Y124.245 E89.89925
G1 X120 Y124.425 E89.96238
G1 X54.566 Y124.419 E92.81883
G1 X53.286 Y124.155 E92.87589
G1 X52.051 Y123.572 E92.9355
G1 X50.707 Y122.44 E93.01221
G1 X49.814 Y120.669 E93.0988
G1 X49.625 Y119.611 E93.14571
G1 X49.575 Y53.482 E96.03251
G1 X49.827 Y52.341 E96.08351
G1 X50.419 Y51.065 E96.14492
G1 X51.472 Y49.811 E96.2164
G0 F3600 X51.74 Y50.036
G1 F2550 X51.851 Y49.948 E96.22259
G1 X53.44 Y49.151 E96.30019
G1 X54.63 Y48.955 E96.35284
G1 X75.505 Y48.925 E97.26411
G1 X77.224 Y49.385 E97.34179
G1 X78.417 Y50.266 E97.40654
G1 X123.916 Y95.743 E100.21478
G1 X124.754 Y97.098 E100.28433
G1 X125.075 Y98.582 E100.35061
G1 X125.075 Y119.442 E101.26123
G1 X124.767 Y120.761 E101.32036
G1 X123.96 Y122.264 E101.39483
G1 X122.655 Y123.336 E101.46856
G1 X121.342 Y123.904 E101.53101
G1 X120 Y124.075 E101.59007
G1 X54.603 Y124.069 E104.4449
G1 X53.398 Y123.82 E104.49862
G1 X52.241 Y123.274 E104.55446
G1 X50.987 Y122.218 E104.62603
G1 X50.15 Y120.559 E104.70715
G1 X49.97 Y119.55 E104.75189
G1 X49.925 Y53.522 E107.63427
G1 X50.161 Y52.454 E107.68202
G1 X50.718 Y51.253 E107.73981
G1 X51.74 Y50.036 E107.80919
G0 F3600 X52.008 Y50.261
G1 F2550 X53.55 Y49.487 E107.88451
G1 X54.631 Y49.305 E107.93236
G1 X75.46 Y49.275 E108.84163
G1 X77.068 Y49.705 E108.91429
G1 X78.209 Y50.548 E108.97622
G1 X123.639 Y95.961 E111.78036
G1 X124.425 Y97.232 E111.8456
G1 X124.725 Y98.619 E111.90754
G1 X124.725 Y119.402 E112.8148
G1 X124.437 Y120.637 E112.87016
G1 X123.685 Y122.037 E112.93954
G1 X122.469 Y123.035 E113.00821
G1 X121.248 Y123.563 E113.06628
G1 X120 Y123.725 E113.12122
G1 X54.64 Y123.719 E115.97444
G1 X53.51 Y123.485 E116.02481
G1 X52.431 Y122.976 E116.0769
G1 X51.267 Y121.996 E116.14332
G1 X50.486 Y120.449 E116.21897
G1 X50.315 Y119.489 E116.26154
G1 X50.275 Y53.562 E119.13951
G1 X50.495 Y52.567 E119.184
G1 X51.017 Y51.441 E119.23817
G1 X52.008 Y50.261 E119.30544
G0 F3600 X52.229 Y50.542
G1 F2550 X53.66 Y49.824 E119.37533
G1 X54.632 Y49.655 E119.4184
G1 X75.414 Y49.625 E120.32562
G1 X76.912 Y50.026 E120.39331
G1 X78.001 Y50.83 E120.45241
G1 X123.362 Y96.179 E123.25244
G1 X124.096 Y97.366 E123.31337
G1 X124.375 Y98.656 E123.37098
G1 X124.375 Y119.361 E124.27484
G1 X124.106 Y120.514 E124.32652
G1 X123.41 Y121.809 E124.3907
G1 X122.283 Y122.734 E124.45435
G1 X121.153 Y123.222 E124.50808
G1 X120 Y123.375 E124.55885
G1 X54.677 Y123.369 E127.41046
G1 X53.618 Y123.15 E127.45767
G1 X52.623 Y122.68 E127.5057
G1 X51.548 Y121.776 E127.56702
G1 X50.822 Y120.336 E127.63742
G1 X50.66 Y119.428 E127.67768
G1 X50.625 Y53.601 E130.55129
G1 X50.828 Y52.681 E130.59242
G1 X51.316 Y51.629 E130.64304
G1 X52.229 Y50.542 E130.70501
G0 F3600 X52.45 Y50.823
G1 F2550 X53.771 Y50.16 E130.76953
G1 X54.692 Y50 E130.81034
G1 X75.368 Y49.975 E131.71293
G1 X76.756 Y50.347 E131.77566
G1 X77.793 Y51.112 E131.83191
G1 X123.085 Y96.397 E134.62784
G1 X123.767 Y97.5 E134.68446
G1 X124.025 Y98.693 E134.73774
G1 X124.025 Y119.321 E135.63823
G1 X123.776 Y120.39 E135.68615
G1 X123.135 Y121.581 E135.74519
G1 X122.097 Y122.433 E135.80381
G1 X121.06 Y122.881 E135.85313
G1 X120 Y123.025 E135.89982
G1 X54.714 Y123.019 E138.74981
G1 X53.728 Y122.815 E138.79377
G1 X52.814 Y122.383 E138.8379
G1 X51.828 Y121.554 E138.89414
G1 X51.158 Y120.226 E138.95907
G1 X51.005 Y119.367 E138.99716
G1 X50.975 Y53.641 E141.86636
G1 X51.163 Y52.79 E141.9044
G1 X51.613 Y51.82 E141.95108
G1 X52.45 Y50.823 E142.00791
G0 F3600 X52.671 Y51.104
G1 F2550 X53.884 Y50.495 E142.06716
G1 X54.692 Y50.35 E142.10299
G1 X75.322 Y50.325 E143.00357
G1 X76.602 Y50.668 E143.06142
G1 X77.546 Y51.36 E143.11252
G1 X122.808 Y96.615 E145.9066
G1 X123.438 Y97.634 E145.95889
G1 X123.675 Y98.73 E146.00785
G1 X123.675 Y119.28 E146.90493
G1 X123.445 Y120.266 E146.94913
G1 X122.86 Y121.353 E147.00302
G1 X121.911 Y122.132 E147.05662
G1 X120.965 Y122.54 E147.10159
G1 X120 Y122.675 E147.14413
G1 X54.751 Y122.669 E149.9925
G1 X53.838 Y122.48 E150.0332
G1 X53.005 Y122.086 E150.07343
G1 X52.109 Y121.333 E150.12452
G1 X51.494 Y120.113 E150.18416
G1 X51.35 Y119.306 E150.21995
G1 X51.325 Y53.681 E153.08474
G1 X51.497 Y52.903 E153.11952
G1 X51.912 Y52.008 E153.16259
G1 X52.671 Y51.104 E153.21411
G0 F3600 X52.892 Y51.385
G1 F2550 X53.995 Y50.831 E153.268
G1 X54.754 Y50.695 E153.30166
G1 X75.276 Y50.675 E154.19752
G1 X76.448 Y50.989 E154.25049
G1 X77.299 Y51.608 E154.29643
G1 X122.531 Y96.833 E157.08865
G1 X123.109 Y97.768 E157.13664
G1 X123.325 Y98.767 E157.18126
G1 X123.325 Y119.239 E158.07494
G1 X123.114 Y120.142 E158.11542
G1 X122.585 Y121.125 E158.16415
G1 X121.725 Y121.831 E158.21273
G1 X120.869 Y122.201 E158.25344
G1 X120 Y122.325 E158.29175
G1 X54.788 Y122.319 E161.13851
G1 X53.948 Y122.145 E161.17596
G1 X53.196 Y121.789 E161.21228
G1 X52.389 Y121.111 E161.25829
G1 X51.83 Y120.003 E161.31247
G1 X51.695 Y119.245 E161.34608
G1 X51.675 Y53.721 E164.20646
G1 X51.831 Y53.016 E164.23798
G1 X52.211 Y52.196 E164.27743
G1 X52.892 Y51.385 E164.32366
G0 F3600 X53.113 Y51.666
G1 F2550 X54.106 Y51.167 E164.37218
G1 X54.816 Y51.04 E164.40366
G1 X75.23 Y51.025 E165.29482
G1 X76.294 Y51.31 E165.3429
G1 X77.052 Y51.856 E165.38368
G1 X122.254 Y97.051 E168.17405
G1 X122.78 Y97.902 E168.21773
G1 X122.975 Y98.804 E168.25801
G1 X122.975 Y119.199 E169.14833
G1 X122.784 Y120.018 E169.18505
G1 X122.31 Y120.897 E169.22864
G1 X121.539 Y121.53 E169.27219
G1 X120.771 Y121.862 E169.30871
G1 X120 Y121.975 E169.34273
G1 X54.825 Y121.969 E172.18788
G1 X54.058 Y121.81 E172.22207
G1 X53.387 Y121.492 E172.25448
G1 X52.67 Y120.89 E172.29535
G1 X52.166 Y119.89 E172.34424
G1 X52.04 Y119.184 E172.37555
G1 X52.025 Y53.76 E175.23156
G1 X52.165 Y53.126 E175.2599
G1 X52.508 Y52.387 E175.29547
G1 X53.113 Y51.666 E175.33656
G0 F3600 X53.334 Y51.947
G1 F2550 X54.217 Y51.503 E175.3797
G1 X54.878 Y51.385 E175.40901
G1 X75.184 Y51.375 E176.29545
G1 X76.142 Y51.632 E176.33875
G1 X76.805 Y52.104 E176.37428
G1 X121.977 Y97.269 E179.1628
G1 X122.451 Y98.036 E179.20216
G1 X122.625 Y98.841 E179.23811
G1 X122.625 Y119.158 E180.12503
G1 X122.453 Y119.894 E180.15802
G1 X122.034 Y120.671 E180.19656
G1 X121.356 Y121.228 E180.23486
G1 X120.674 Y121.522 E180.26729
G1 X120 Y121.625 E180.29705
G1 X54.862 Y121.619 E183.14058
G1 X54.168 Y121.475 E183.17152
G1 X53.578 Y121.195 E183.20003
G1 X52.95 Y120.668 E183.23582
G1 X52.502 Y119.78 E183.27924
G1 X52.385 Y119.123 E183.30837
G1 X52.375 Y53.8 E186.15997
G1 X52.499 Y53.239 E186.18505
G1 X52.807 Y52.575 E186.21701
G1 X53.334 Y51.947 E186.2528
G0 F3600 X53.555 Y52.228
G1 F2550 X54.328 Y51.839 E186.29057
G1 X54.939 Y51.73 E186.31767
G1 X75.138 Y51.725 E187.19943
G1 X75.992 Y51.954 E187.23803
G1 X76.558 Y52.352 E187.26823
G1 X121.7 Y97.487 E190.0549
G1 X122.122 Y98.17 E190.08995
G1 X122.275 Y98.878 E190.12157
G1 X122.275 Y119.116 E191.00504
G1 X122.122 Y119.77 E191.03436
G1 X121.758 Y120.445 E191.06784
G1 X121.173 Y120.926 E191.1009
G1 X120.581 Y121.182 E191.12906
G1 X120 Y121.275 E191.15474
G1 X54.899 Y121.269 E193.99666
G1 X54.278 Y121.14 E194.02434
G1 X53.769 Y120.898 E194.04895
G1 X53.23 Y120.446 E194.07966
G1 X52.839 Y119.671 E194.11755
G1 X52.73 Y119.061 E194.1446
G1 X52.725 Y53.84 E196.99175
G1 X52.834 Y53.348 E197.01375
G1 X53.104 Y52.766 E197.04176
G1 X53.555 Y52.228 E197.0724
G0 F3600 X53.776 Y52.509
G1 F2550 X54.439 Y52.175 E197.10481
G1 X55 Y52.075 E197.12969
G1 X75.092 Y52.075 E198.00678
G1 X75.841 Y52.276 E198.04064
G1 X76.311 Y52.6 E198.06556
G1 X121.423 Y97.705 E200.85037
G1 X121.793 Y98.304 E200.88111
G1 X121.925 Y98.915 E200.9084
G1 X121.925 Y119.074 E201.78842
G1 X121.791 Y119.646 E201.81406
G1 X121.482 Y120.219 E201.84248
G1 X120.991 Y120.623 E201.87024
G1 X120.488 Y120.843 E201.8942
G1 X120 Y120.925 E201.91581
G1 X54.936 Y120.919 E204.75611
G1 X54.39 Y120.806 E204.78045
G1 X53.959 Y120.6 E204.8013
G1 X53.51 Y120.224 E204.82686
G1 X53.175 Y119.561 E204.85929
G1 X53.075 Y119 E204.88417
G1 X53.075 Y53.88 E207.72691
G1 X53.169 Y53.457 E207.74583
G1 X53.401 Y52.957 E207.76989
G1 X53.776 Y52.509 E207.79539
G0 F3600 X53.998 Y52.789
G1 F2550 X54.549 Y52.511 E207.82234
G1 X55 Y52.425 E207.84238
G1 X75.046 Y52.425 E208.71746
G1 X75.692 Y52.598 E208.74666
G1 X76.112 Y52.888 E208.76894
G1 X121.144 Y97.92 E211.54903
G1 X121.463 Y98.437 E211.57555
G1 X121.575 Y98.915 E211.59699
G1 X121.575 Y119.037 E212.47539
G1 X121.483 Y119.48 E212.49514
G1 X121.206 Y119.994 E212.52063
G1 X120.851 Y120.302 E212.54115
G1 X120.351 Y120.521 E212.56498
G1 X120 Y120.575 E212.58048
G1 X55 Y120.575 E215.41798
G1 X54.541 Y120.49 E215.43836
G1 X54.11 Y120.284 E215.45922
G1 X53.789 Y120.002 E215.47787
G1 X53.511 Y119.451 E215.50481
G1 X53.425 Y119 E215.52485
G1 X53.425 Y53.92 E218.36585
G1 X53.511 Y53.533 E218.38316
G1 X53.716 Y53.11 E218.40368
G1 X53.998 Y52.789 E218.42233
G0 F3600 X54.215 Y53.072
G1 F2550 X54.707 Y52.824 E218.44638
G1 X55 Y52.775 E218.45935
G1 X75 Y52.775 E219.33243
G1 X75.544 Y52.921 E219.35701
G1 X75.865 Y53.135 E219.37386
G1 X120.865 Y98.135 E222.15197
G1 X121.135 Y98.572 E222.1744
G1 X121.225 Y98.915 E222.18988
G1 X121.225 Y119 E223.06667
G1 X121.14 Y119.409 E223.0849
G1 X120.967 Y119.738 E223.10113
G1 X120.703 Y119.985 E223.11691
G1 X120.293 Y120.176 E223.13666
G1 X120 Y120.225 E223.14963
G1 X55 Y120.225 E225.98713
G1 X54.609 Y120.147 E226.00454
G1 X54.27 Y119.973 E226.02117
G1 X54.072 Y119.785 E226.03309
G1 X53.824 Y119.293 E226.05714
G1 X53.775 Y119 E226.07011
G1 X53.775 Y53.96 E228.90936
G1 X53.853 Y53.609 E228.92506
G1 X54.027 Y53.27 E228.94169
G1 X54.215 Y53.072 E228.95361
G0 F3600 X54.454 Y53.328
G1 F2550 X54.332 Y53.442 E228.9609
G1 X54.195 Y53.685 E228.97308
G1 X54.125 Y54 E228.98716
G1 X54.125 Y119 E231.82467
G1 X54.168 Y119.228 E231.8348
