;FLAVOR:Marlin
;TIME:7703
;Filament used: 10.3276m
;Layer height: 0.2
;MINX:6.114
;MINY:5.114
;MINZ:0.3
;MAXX:168.886
;MAXY:167.886
;MAXZ:19.9
;TARGET_MACHINE.NAME:Unknown
;Generated with Cura_SteamEngine 5.10.0
M104 S200
M105
M109 S200
G28 ;Home
G1 Z15.0 F6000 ;Move the platform down 15mm
;Prime the extruder
G92 E0
G1 F200 E3
G92 E0
M82 ;absolute extrusion mode
G92 E0
G92 E0
G1 F1500 E-6.5
;LAYER_COUNT:99
;LAYER:0
M107
G0 F3600 X8.815 Y6.95 Z0.3
;TYPE:SKIRT
G1 F1500 E0
G1 F2400 X9.256 Y6.598 E0.02463
G1 X11.615 Y5.41 E0.13993
G1 X13.989 Y5.114 E0.24437
G1 X111.702 Y5.12 E4.50993
G1 X113.505 Y5.491 E4.59028
G1 X115.301 Y6.337 E4.67695
G1 X117.034 Y7.815 E4.77638
G1 X117.409 Y8.276 E4.80232
G1 X118.549 Y10.54 E4.91297
G1 X118.801 Y11.944 E4.97524
G1 X118.884 Y23.389 E5.47488
G1 X118.019 Y25.915 E5.59143
G1 X116.724 Y27.841 E5.69275
G1 X115.172 Y29.082 E5.77949
G1 X113.916 Y29.818 E5.84304
G1 X111.853 Y30.39 E5.9365
G1 X100.346 Y30.39 E6.43883
G1 X143.637 Y73.679 E9.11138
G1 X143.711 Y62.052 E9.61895
G1 X144.044 Y60.258 E9.6986
G1 X145.313 Y58.223 E9.8033
G1 X146.46 Y57.007 E9.87627
G1 X148.034 Y55.999 E9.95786
G1 X150.639 Y55.115 E10.07795
G1 X161.807 Y55.114 E10.56548
G1 X163.459 Y55.479 E10.63933
G1 X165.27 Y56.318 E10.72646
G1 X166.867 Y57.677 E10.818
G1 X167.482 Y58.415 E10.85994
G1 X168.547 Y60.539 E10.96366
G1 X168.806 Y62.021 E11.02934
G1 X168.886 Y160.806 E15.34169
G1 X168.475 Y162.674 E15.42519
G1 X167.213 Y165.009 E15.54106
G1 X165.298 Y166.663 E15.65152
G1 X163.125 Y167.656 E15.75581
G1 X161.248 Y167.886 E15.83837
G1 X150.838 Y167.793 E16.29282
G1 X149.629 Y167.579 E16.34642
G1 X147.772 Y166.844 E16.4336
G1 X146.064 Y165.608 E16.52564
G1 X144.835 Y164.057 E16.61203
G1 X144.179 Y162.91 E16.66971
G1 X143.61 Y160.884 E16.76157
G1 X143.609 Y134.544 E17.91142
G1 X39.456 Y30.391 E24.3414
G1 X13.298 Y30.391 E25.4833
G1 X11.18 Y29.859 E25.57863
G1 X8.882 Y28.522 E25.69469
G1 X7.25 Y26.423 E25.81076
G1 X6.114 Y23.571 E25.94478
G1 X6.114 Y12.193 E26.44147
G1 X6.479 Y10.541 E26.51533
G1 X7.317 Y8.735 E26.60224
G1 X8.815 Y6.95 E26.70396
G0 F3600 X9.083 Y7.175
G1 F2400 X9.413 Y6.911 E26.72241
G1 X11.719 Y5.749 E26.83514
G1 X13.989 Y5.464 E26.93501
G1 X111.666 Y5.47 E31.19899
G1 X113.393 Y5.825 E31.27596
G1 X115.111 Y6.635 E31.35888
G1 X116.762 Y8.036 E31.4534
G1 X117.114 Y8.469 E31.47776
G1 X118.213 Y10.651 E31.58441
G1 X118.456 Y12.006 E31.64451
G1 X118.534 Y23.333 E32.13899
G1 X117.703 Y25.759 E32.25093
G1 X116.465 Y27.6 E32.34778
G1 X114.995 Y28.78 E32.43007
G1 X113.778 Y29.493 E32.49164
G1 X111.806 Y30.04 E32.58098
G1 X99.502 Y30.04 E33.1181
G1 X143.982 Y74.518 E35.86405
G1 X144.055 Y62.116 E36.40546
G1 X144.376 Y60.387 E36.48222
G1 X145.591 Y58.439 E36.58245
G1 X146.685 Y57.279 E36.65205
G1 X148.19 Y56.315 E36.73007
G1 X150.695 Y55.465 E36.84555
G1 X161.767 Y55.464 E37.32889
G1 X163.346 Y55.813 E37.39948
G1 X165.079 Y56.616 E37.48286
G1 X166.64 Y57.944 E37.57233
G1 X167.187 Y58.608 E37.60988
G1 X168.211 Y60.65 E37.7096
G1 X168.461 Y62.081 E37.77302
G1 X168.536 Y160.767 E42.08105
G1 X168.143 Y162.552 E42.16084
G1 X166.936 Y164.785 E42.27165
G1 X165.106 Y166.366 E42.37722
G1 X163.028 Y167.316 E42.47696
G1 X161.251 Y167.536 E42.55513
G1 X150.899 Y167.448 E43.00705
G1 X149.722 Y167.24 E43.05923
G1 X147.944 Y166.536 E43.1427
G1 X146.308 Y165.352 E43.23086
G1 X145.139 Y163.883 E43.31282
G1 X144.504 Y162.773 E43.36864
G1 X143.96 Y160.835 E43.45651
G1 X143.959 Y134.4 E44.61051
G1 X39.6 Y30.041 E51.05321
G1 X13.339 Y30.041 E52.19961
G1 X11.316 Y29.533 E52.29066
G1 X9.116 Y28.253 E52.40177
G1 X7.557 Y26.248 E52.51264
G1 X6.464 Y23.504 E52.64158
G1 X6.464 Y12.233 E53.1336
G1 X6.813 Y10.654 E53.2042
G1 X7.616 Y8.923 E53.2875
G1 X9.083 Y7.175 E53.38712
G0 F3600 X9.351 Y7.4
G1 F2400 X9.571 Y7.224 E53.39942
G1 X11.825 Y6.088 E53.5096
G1 X13.989 Y5.814 E53.60482
G1 X111.629 Y5.82 E57.86719
G1 X113.281 Y6.16 E57.94082
G1 X114.921 Y6.933 E58.01997
G1 X116.49 Y8.257 E58.10959
G1 X116.819 Y8.662 E58.13237
G1 X117.877 Y10.762 E58.23502
G1 X118.111 Y12.068 E58.29294
G1 X118.184 Y23.277 E58.78226
G1 X117.387 Y25.603 E58.8896
G1 X116.205 Y27.36 E58.98204
G1 X114.818 Y28.478 E59.05981
G1 X113.64 Y29.168 E59.1194
G1 X111.759 Y29.69 E59.20462
G1 X98.658 Y29.69 E59.77653
G1 X144.327 Y75.357 E62.59589
G1 X144.399 Y62.18 E63.17113
G1 X144.708 Y60.516 E63.24501
G1 X145.869 Y58.655 E63.34076
G1 X146.91 Y57.551 E63.407
G1 X148.346 Y56.631 E63.48145
G1 X150.751 Y55.815 E63.59232
G1 X161.727 Y55.814 E64.07146
G1 X163.233 Y56.147 E64.13879
G1 X164.89 Y56.915 E64.21852
G1 X166.37 Y58.166 E64.30312
G1 X166.89 Y58.798 E64.33884
G1 X167.875 Y60.761 E64.43472
G1 X168.116 Y62.141 E64.49587
G1 X168.186 Y160.728 E68.79958
G1 X167.811 Y162.43 E68.87566
G1 X166.659 Y164.561 E68.98141
G1 X164.914 Y166.069 E69.08209
G1 X162.931 Y166.976 E69.17728
G1 X161.254 Y167.186 E69.25106
G1 X150.96 Y167.103 E69.70045
G1 X149.815 Y166.901 E69.75121
G1 X148.113 Y166.227 E69.83112
G1 X146.554 Y165.098 E69.91515
G1 X145.413 Y163.665 E69.99511
G1 X144.83 Y162.638 E70.04666
G1 X144.31 Y160.786 E70.13064
G1 X144.309 Y134.256 E71.28878
G1 X39.744 Y29.691 E77.7442
G1 X13.38 Y29.691 E78.89509
G1 X11.452 Y29.207 E78.98187
G1 X9.35 Y27.984 E79.08803
G1 X7.864 Y26.073 E79.19371
G1 X6.814 Y23.437 E79.31757
G1 X6.814 Y12.273 E79.80492
G1 X7.147 Y10.767 E79.87225
G1 X7.915 Y9.111 E79.95194
G1 X9.351 Y7.4 E80.04945
G0 F3600 X9.619 Y7.625
G1 F2400 X9.729 Y7.537 E80.0556
G1 X11.931 Y6.427 E80.16325
G1 X13.989 Y6.164 E80.25382
G1 X111.593 Y6.17 E84.51462
G1 X113.169 Y6.494 E84.58486
G1 X114.729 Y7.23 E84.66015
G1 X116.264 Y8.525 E84.74782
G1 X116.506 Y8.819 E84.76445
G1 X117.541 Y10.873 E84.86485
G1 X117.766 Y12.13 E84.9206
G1 X117.834 Y23.221 E85.40477
G1 X117.071 Y25.447 E85.5075
G1 X115.945 Y27.12 E85.59553
G1 X114.598 Y28.206 E85.67106
G1 X113.504 Y28.843 E85.72633
G1 X111.712 Y29.34 E85.80751
G1 X97.814 Y29.34 E86.41421
G1 X144.673 Y76.197 E89.30703
G1 X144.743 Y62.244 E89.91614
G1 X145.04 Y60.644 E89.98718
G1 X146.124 Y58.895 E90.07701
G1 X147.135 Y57.823 E90.14134
G1 X148.502 Y56.947 E90.21221
G1 X150.807 Y56.165 E90.31847
G1 X161.687 Y56.164 E90.79342
G1 X163.12 Y56.481 E90.85749
G1 X164.701 Y57.214 E90.93356
G1 X166.1 Y58.389 E91.01332
G1 X166.595 Y58.99 E91.04731
G1 X167.539 Y60.872 E91.13922
G1 X167.771 Y62.201 E91.19811
G1 X167.836 Y160.689 E95.4975
G1 X167.479 Y162.308 E95.56988
G1 X166.382 Y164.337 E95.67057
G1 X164.721 Y165.773 E95.76642
G1 X162.835 Y166.635 E95.85694
G1 X161.257 Y166.836 E95.92638
G1 X151.021 Y166.758 E96.37324
G1 X149.908 Y166.562 E96.42257
G1 X148.282 Y165.918 E96.49892
G1 X146.799 Y164.844 E96.57885
G1 X145.717 Y163.492 E96.65444
G1 X145.156 Y162.504 E96.70404
G1 X144.66 Y160.737 E96.78416
G1 X144.659 Y134.112 E97.94645
G1 X39.888 Y29.341 E104.41459
G1 X13.421 Y29.341 E105.56997
G1 X11.588 Y28.881 E105.65247
G1 X9.584 Y27.715 E105.75369
G1 X8.171 Y25.898 E105.85417
G1 X7.164 Y23.37 E105.97296
G1 X7.164 Y12.313 E106.45564
G1 X7.481 Y10.88 E106.51971
G1 X8.214 Y9.299 E106.59578
G1 X9.619 Y7.625 E106.69118
G0 F3600 X9.887 Y7.85
G1 F2400 X12.037 Y6.766 E106.7963
G1 X13.989 Y6.514 E106.88221
G1 X111.556 Y6.52 E111.1414
G1 X113.057 Y6.829 E111.2083
G1 X114.537 Y7.527 E111.27973
G1 X116.038 Y8.793 E111.36545
G1 X116.193 Y8.977 E111.37595
G1 X117.205 Y10.985 E111.47411
G1 X117.421 Y12.192 E111.52764
G1 X117.484 Y23.164 E112.00662
G1 X116.755 Y25.291 E112.10477
G1 X115.687 Y26.878 E112.18828
G1 X114.378 Y27.933 E112.26167
G1 X113.367 Y28.518 E112.31266
G1 X111.665 Y28.99 E112.38976
G1 X96.97 Y28.99 E113.03126
G1 X145.019 Y77.037 E115.99755
G1 X145.087 Y62.308 E116.64053
G1 X145.372 Y60.773 E116.70869
G1 X146.403 Y59.109 E116.79414
G1 X147.36 Y58.095 E116.85501
G1 X148.658 Y57.263 E116.92231
G1 X150.863 Y56.515 E117.02395
G1 X161.648 Y56.514 E117.49476
G1 X163.006 Y56.814 E117.55547
G1 X164.513 Y57.513 E117.62799
G1 X165.875 Y58.657 E117.70564
G1 X166.299 Y59.181 E117.73506
G1 X167.203 Y60.983 E117.82307
G1 X167.426 Y62.261 E117.8797
G1 X167.486 Y160.65 E122.17477
G1 X167.147 Y162.185 E122.2434
G1 X166.105 Y164.113 E122.33907
G1 X164.528 Y165.477 E122.43009
G1 X162.738 Y166.295 E122.516
G1 X161.26 Y166.486 E122.58106
G1 X151.082 Y166.413 E123.02538
G1 X150 Y166.223 E123.07333
G1 X148.451 Y165.609 E123.14607
G1 X147.044 Y164.59 E123.22191
G1 X146.021 Y163.319 E123.29313
G1 X145.482 Y162.37 E123.34078
G1 X145.01 Y160.688 E123.41704
G1 X145.009 Y133.968 E124.58347
G1 X40.032 Y28.991 E131.06433
G1 X13.462 Y28.991 E132.22421
G1 X11.724 Y28.555 E132.30244
G1 X9.818 Y27.446 E132.3987
G1 X8.477 Y25.722 E132.49405
G1 X7.514 Y23.304 E132.60766
G1 X7.514 Y12.352 E133.08576
G1 X7.814 Y10.994 E133.14647
G1 X8.513 Y9.487 E133.21899
G1 X9.887 Y7.85 E133.31229
G0 F3600 X10.108 Y8.131
G1 F2400 X12.143 Y7.105 E133.41178
G1 X13.989 Y6.864 E133.49305
G1 X111.519 Y6.87 E137.75061
G1 X112.945 Y7.164 E137.81417
G1 X114.345 Y7.824 E137.88174
G1 X115.812 Y9.061 E137.96551
G1 X115.899 Y9.171 E137.97163
G1 X116.869 Y11.096 E138.06573
G1 X117.076 Y12.254 E138.11708
G1 X117.134 Y23.107 E138.59087
G1 X116.439 Y25.135 E138.68445
G1 X115.429 Y26.636 E138.76343
G1 X114.158 Y27.66 E138.83468
G1 X113.229 Y28.193 E138.88143
G1 X111.618 Y28.64 E138.95442
G1 X96.126 Y28.64 E139.6307
G1 X145.365 Y77.877 E142.67046
G1 X145.431 Y62.372 E143.34732
G1 X145.704 Y60.902 E143.41259
G1 X146.684 Y59.32 E143.49383
G1 X147.582 Y58.369 E143.55092
G1 X148.814 Y57.579 E143.61481
G1 X150.919 Y56.865 E143.71185
G1 X161.608 Y56.864 E144.17846
G1 X162.893 Y57.148 E144.23591
G1 X164.325 Y57.812 E144.30482
G1 X165.65 Y58.925 E144.38036
G1 X166.002 Y59.369 E144.40509
G1 X166.867 Y61.094 E144.48933
G1 X167.081 Y62.321 E144.54371
G1 X167.136 Y160.61 E148.83441
G1 X166.815 Y162.063 E148.89937
G1 X165.828 Y163.889 E148.98998
G1 X164.335 Y165.181 E149.07617
G1 X162.641 Y165.955 E149.15747
G1 X161.262 Y166.136 E149.21819
G1 X151.142 Y166.068 E149.65997
G1 X150.093 Y165.884 E149.70647
G1 X148.62 Y165.3 E149.77564
G1 X147.288 Y164.335 E149.84744
G1 X146.325 Y163.146 E149.91423
G1 X145.807 Y162.235 E149.95998
G1 X145.36 Y160.64 E150.03229
G1 X145.359 Y133.824 E151.20292
G1 X40.176 Y28.641 E157.69649
G1 X13.503 Y28.641 E158.86087
G1 X11.86 Y28.229 E158.93482
G1 X10.052 Y27.177 E159.02613
G1 X8.784 Y25.547 E159.11628
G1 X7.864 Y23.237 E159.22483
G1 X7.864 Y12.392 E159.69825
G1 X8.148 Y11.107 E159.7557
G1 X8.812 Y9.675 E159.82461
G1 X10.108 Y8.131 E159.91261
G0 F3600 X10.329 Y8.412
G1 F2400 X12.249 Y7.444 E160.00647
G1 X13.989 Y7.214 E160.08309
G1 X111.482 Y7.22 E164.33904
G1 X112.837 Y7.499 E164.39943
G1 X114.15 Y8.119 E164.46282
G1 X115.586 Y9.329 E164.5448
G1 X116.533 Y11.208 E164.63665
G1 X116.731 Y12.316 E164.68578
G1 X116.784 Y23.049 E165.15433
G1 X116.122 Y24.98 E165.24344
G1 X115.17 Y26.396 E165.31793
G1 X113.939 Y27.387 E165.38691
G1 X113.093 Y27.868 E165.4294
G1 X111.571 Y28.29 E165.49834
G1 X95.282 Y28.29 E166.20942
G1 X145.712 Y78.718 E169.32271
G1 X145.775 Y62.436 E170.03348
G1 X146.036 Y61.031 E170.09587
G1 X146.965 Y59.531 E170.17289
G1 X147.804 Y58.643 E170.22622
G1 X148.97 Y57.895 E170.28669
G1 X150.975 Y57.215 E170.37912
G1 X161.568 Y57.214 E170.84154
G1 X162.78 Y57.482 E170.89573
G1 X164.137 Y58.111 E170.96102
G1 X165.425 Y59.193 E171.03446
G1 X165.689 Y59.526 E171.05301
G1 X166.531 Y61.205 E171.135
G1 X166.736 Y62.381 E171.18711
G1 X166.786 Y160.57 E175.47345
G1 X166.483 Y161.941 E175.53474
G1 X165.551 Y163.665 E175.6203
G1 X164.142 Y164.885 E175.70166
G1 X162.546 Y165.614 E175.77825
G1 X161.264 Y165.786 E175.83472
G1 X151.202 Y165.723 E176.27397
G1 X150.186 Y165.545 E176.319
G1 X148.789 Y164.991 E176.38461
G1 X147.531 Y164.08 E176.45241
G1 X146.629 Y162.973 E176.51474
G1 X146.132 Y162.1 E176.5586
G1 X145.71 Y160.592 E176.62696
G1 X145.709 Y133.68 E177.80177
G1 X40.32 Y28.291 E184.30806
G1 X13.544 Y28.291 E185.47694
G1 X11.993 Y27.902 E185.54675
G1 X10.287 Y26.909 E185.63292
G1 X9.091 Y25.372 E185.71793
G1 X8.214 Y23.17 E185.8214
G1 X8.214 Y12.432 E186.29016
G1 X8.482 Y11.22 E186.34435
G1 X9.111 Y9.863 E186.40964
G1 X10.329 Y8.412 E186.49234
G0 F3600 X10.55 Y8.693
G1 F2400 X12.355 Y7.783 E186.58058
G1 X13.989 Y7.564 E186.65255
G1 X111.445 Y7.57 E190.90689
G1 X112.725 Y7.834 E190.96394
G1 X113.96 Y8.417 E191.02356
G1 X115.304 Y9.549 E191.10027
G1 X116.197 Y11.32 E191.18685
G1 X116.386 Y12.378 E191.23377
G1 X116.434 Y22.992 E191.69711
G1 X115.806 Y24.824 E191.78166
G1 X114.91 Y26.156 E191.85173
G1 X113.766 Y27.083 E191.91601
G1 X112.958 Y27.542 E191.95658
G1 X111.524 Y27.94 E192.02154
G1 X94.635 Y27.94 E192.75882
G1 X94.562 Y28.017 E192.76345
G1 X94.644 Y28.146 E192.77012
G1 X145.883 Y79.383 E195.93335
G1 X146.02 Y79.434 E195.93973
G1 X146.06 Y79.351 E195.94375
G1 X146.119 Y62.5 E196.67937
G1 X146.368 Y61.16 E196.73887
G1 X147.246 Y59.742 E196.81167
G1 X148.026 Y58.917 E196.86124
G1 X149.126 Y58.211 E196.91829
G1 X151.031 Y57.565 E197.00611
G1 X161.529 Y57.564 E197.46439
G1 X162.67 Y57.816 E197.51539
G1 X163.946 Y58.408 E197.5768
G1 X165.2 Y59.461 E197.64828
G1 X165.376 Y59.683 E197.66065
G1 X166.195 Y61.316 E197.7404
G1 X166.391 Y62.441 E197.79025
G1 X166.436 Y160.53 E202.07222
G1 X166.151 Y161.819 E202.12985
G1 X165.274 Y163.441 E202.21034
G1 X163.949 Y164.589 E202.28688
G1 X162.45 Y165.274 E202.35882
G1 X161.266 Y165.436 E202.41099
G1 X151.262 Y165.378 E202.84771
G1 X150.279 Y165.206 E202.89127
G1 X148.958 Y164.682 E202.95331
G1 X147.774 Y163.824 E203.01714
G1 X146.9 Y162.752 E203.07752
G1 X146.458 Y161.965 E203.11693
G1 X146.06 Y160.544 E203.18134
G1 X146.059 Y133.536 E204.36035
G1 X40.464 Y27.941 E210.87936
G1 X13.585 Y27.941 E212.05273
G1 X12.126 Y27.575 E212.1184
G1 X10.522 Y26.641 E212.19943
G1 X9.398 Y25.197 E212.27931
G1 X8.564 Y23.103 E212.3777
G1 X8.564 Y12.471 E212.84183
G1 X8.816 Y11.33 E212.89284
G1 X9.408 Y10.054 E212.95425
G1 X10.55 Y8.693 E213.0318
G0 F3600 X10.771 Y8.974
G1 F2400 X12.461 Y8.122 E213.11442
G1 X13.989 Y7.914 E213.18174
G1 X111.408 Y7.92 E217.43446
G1 X112.613 Y8.169 E217.48818
G1 X113.77 Y8.715 E217.54403
G1 X115.024 Y9.771 E217.61559
G1 X115.861 Y11.43 E217.69671
G1 X116.041 Y12.439 E217.74145
G1 X116.084 Y22.935 E218.19965
G1 X115.49 Y24.668 E218.27962
G1 X114.65 Y25.917 E218.34533
G1 X113.593 Y26.779 E218.40487
G1 X112.823 Y27.216 E218.44352
G1 X111.477 Y27.59 E218.5045
G1 X94.565 Y27.59 E219.24278
G1 X94.395 Y27.662 E219.25084
G1 X94.264 Y27.793 E219.25893
G1 X94.203 Y27.994 E219.2681
G1 X94.227 Y28.143 E219.27468
G1 X94.368 Y28.364 E219.28613
G1 X145.691 Y79.685 E222.45454
G1 X145.998 Y79.798 E222.46882
G1 X146.163 Y79.773 E222.47611
G1 X146.342 Y79.618 E222.48644
G1 X146.41 Y79.406 E222.49616
G1 X146.463 Y62.564 E223.23139
G1 X146.7 Y61.289 E223.288
G1 X147.525 Y59.956 E223.35643
G1 X148.253 Y59.187 E223.40266
G1 X149.279 Y58.528 E223.45589
G1 X151.087 Y57.915 E223.53923
G1 X161.489 Y57.914 E223.99332
G1 X162.557 Y58.15 E224.04106
G1 X163.758 Y58.707 E224.09886
G1 X164.975 Y59.729 E224.16823
G1 X165.063 Y59.84 E224.17442
G1 X165.859 Y61.427 E224.25192
G1 X166.046 Y62.501 E224.29951
G1 X166.086 Y160.49 E228.57712
G1 X165.819 Y161.697 E228.63108
G1 X164.996 Y163.219 E228.70661
G1 X163.758 Y164.292 E228.77813
G1 X162.355 Y164.933 E228.84547
G1 X161.268 Y165.086 E228.89339
G1 X151.322 Y165.033 E229.32757
G1 X150.372 Y164.867 E229.36967
G1 X149.127 Y164.373 E229.42814
G1 X148.016 Y163.568 E229.48804
G1 X147.205 Y162.581 E229.5438
G1 X146.784 Y161.831 E229.58135
G1 X146.41 Y160.496 E229.64187
G1 X146.409 Y133.392 E230.82507
G1 X40.608 Y27.591 E237.35679
G1 X13.626 Y27.591 E238.53466
G1 X12.259 Y27.248 E238.59619
G1 X10.757 Y26.373 E238.67207
G1 X9.705 Y25.022 E238.74682
G1 X8.914 Y23.036 E238.84014
G1 X8.914 Y12.511 E239.2996
G1 X9.15 Y11.443 E239.34735
G1 X9.707 Y10.242 E239.40514
G1 X10.771 Y8.974 E239.4774
G0 F3600 X10.992 Y9.255
G1 F2400 X12.567 Y8.461 E239.55439
G1 X13.989 Y8.264 E239.61706
G1 X111.371 Y8.27 E243.86817
G1 X112.501 Y8.504 E243.91855
G1 X113.58 Y9.013 E243.97063
G1 X114.744 Y9.993 E244.03705
G1 X115.525 Y11.54 E244.1127
G1 X115.696 Y12.5 E244.15527
G1 X115.734 Y22.877 E244.60827
G1 X115.173 Y24.513 E244.68377
G1 X114.389 Y25.678 E244.74507
