;FLAVOR:Marlin
;TIME:6726
;Filament used: 8.81582m
;Layer height: 0.2
;MINX:6.114
;MINY:5.114
;MINZ:0.3
;MAXX:168.886
;MAXY:167.886
;MAXZ:19.9
;TARGET_MACHINE.NAME:Unknown
;Generated with Cura_SteamEngine 5.10.0
M104 S200
M105
M109 S200
G28 ;Home
G1 Z15.0 F6000 ;Move the platform down 15mm
;Prime the extruder
G92 E0
G1 F200 E3
G92 E0
M82 ;absolute extrusion mode
G92 E0
G92 E0
G1 F1500 E-6.5
;LAYER_COUNT:99
;LAYER:0
M107
G0 F3600 X8.677 Y7.133 Z0.3
;TYPE:SKIRT
G1 F1500 E0
G1 F2550 X9.415 Y6.518 E0.04194
G1 X11.539 Y5.453 E0.14566
G1 X13.021 Y5.194 E0.21134
G1 X111.011 Y5.114 E4.48899
G1 X113.324 Y5.399 E4.59072
G1 X115.287 Y6.342 E4.68579
G1 X117.003 Y7.79 E4.7838
G1 X117.457 Y8.398 E4.81693
G1 X118.558 Y10.566 E4.92308
G1 X118.832 Y12.28 E4.99885
G1 X118.884 Y20.89 E5.37472
G1 X118.018 Y23.416 E5.49129
G1 X116.724 Y25.341 E5.59254
G1 X115.172 Y26.582 E5.67929
G1 X113.916 Y27.318 E5.74284
G1 X111.853 Y27.89 E5.83629
G1 X100.346 Y27.89 E6.33862
G1 X146.137 Y73.68 E9.16554
G1 X146.211 Y62.043 E9.67355
G1 X146.556 Y60.206 E9.75515
G1 X147.942 Y58.102 E9.86513
G1 X148.854 Y57.076 E9.92506
G1 X150.586 Y55.969 E10.01479
G1 X153.155 Y55.114 E10.13298
G1 X161.807 Y55.114 E10.51068
G1 X163.459 Y55.479 E10.58453
G1 X165.27 Y56.318 E10.67166
G1 X166.867 Y57.677 E10.7632
G1 X167.482 Y58.415 E10.80514
G1 X168.547 Y60.539 E10.90886
G1 X168.806 Y62.021 E10.97454
G1 X168.886 Y160.802 E15.28672
G1 X168.473 Y162.679 E15.37062
G1 X167.191 Y165.051 E15.48832
G1 X165.242 Y166.679 E15.59918
G1 X163.471 Y167.529 E15.68493
G1 X161.676 Y167.886 E15.76483
G1 X153.338 Y167.793 E16.12884
G1 X152.129 Y167.579 E16.18244
G1 X150.272 Y166.844 E16.26962
G1 X148.564 Y165.608 E16.36166
G1 X147.335 Y164.057 E16.44804
G1 X146.679 Y162.91 E16.50572
G1 X146.11 Y160.884 E16.59759
G1 X146.109 Y134.544 E17.74743
G1 X39.456 Y27.891 E24.33176
G1 X13.298 Y27.891 E25.47366
G1 X11.18 Y27.359 E25.56899
G1 X8.882 Y26.022 E25.68505
G1 X7.25 Y23.923 E25.80112
G1 X6.114 Y21.071 E25.93513
G1 X6.114 Y12.193 E26.32269
G1 X6.479 Y10.541 E26.39655
G1 X7.318 Y8.73 E26.48368
G1 X8.677 Y7.133 E26.57522
G0 F3600 X8.944 Y7.36
G1 F2550 X9.608 Y6.813 E26.61277
G1 X11.65 Y5.789 E26.71249
G1 X13.081 Y5.539 E26.77591
G1 X111.011 Y5.464 E31.05094
G1 X113.224 Y5.739 E31.14829
G1 X115.095 Y6.638 E31.2389
G1 X116.747 Y8.032 E31.33326
G1 X117.145 Y8.557 E31.36202
G1 X118.221 Y10.675 E31.46573
G1 X118.486 Y12.335 E31.53911
G1 X118.534 Y20.833 E31.91009
G1 X117.702 Y23.26 E32.02209
G1 X116.465 Y25.1 E32.11888
G1 X114.995 Y26.28 E32.20117
G1 X113.778 Y26.993 E32.26274
G1 X111.806 Y27.54 E32.35208
G1 X99.502 Y27.54 E32.88919
G1 X146.482 Y74.519 E35.78952
G1 X146.555 Y62.108 E36.33132
G1 X146.887 Y60.34 E36.40985
G1 X148.204 Y58.335 E36.51457
G1 X149.084 Y57.345 E36.57239
G1 X150.739 Y56.287 E36.65814
G1 X153.212 Y55.464 E36.77192
G1 X161.767 Y55.464 E37.14537
G1 X163.346 Y55.813 E37.21597
G1 X165.079 Y56.616 E37.29935
G1 X166.64 Y57.944 E37.38881
G1 X167.187 Y58.608 E37.42637
G1 X168.211 Y60.65 E37.52609
G1 X168.461 Y62.081 E37.58951
G1 X168.536 Y160.763 E41.89736
G1 X168.141 Y162.557 E41.97755
G1 X166.915 Y164.825 E42.0901
G1 X165.052 Y166.382 E42.19609
G1 X163.357 Y167.195 E42.27816
G1 X161.645 Y167.536 E42.35436
G1 X153.399 Y167.448 E42.71435
G1 X152.222 Y167.24 E42.76653
G1 X150.444 Y166.536 E42.85001
G1 X148.808 Y165.352 E42.93817
G1 X147.639 Y163.883 E43.02012
G1 X147.004 Y162.773 E43.07594
G1 X146.46 Y160.835 E43.16382
G1 X146.459 Y134.4 E44.31781
G1 X39.6 Y27.541 E50.91485
G1 X13.339 Y27.541 E52.06125
G1 X11.316 Y27.033 E52.1523
G1 X9.116 Y25.753 E52.26341
G1 X7.557 Y23.748 E52.37428
G1 X6.464 Y21.004 E52.50322
G1 X6.464 Y12.233 E52.88611
G1 X6.813 Y10.654 E52.95671
G1 X7.616 Y8.921 E53.04008
G1 X8.944 Y7.36 E53.12955
G0 F3600 X9.166 Y7.63
G1 F2550 X9.798 Y7.11 E53.16528
G1 X11.761 Y6.125 E53.26116
G1 X13.141 Y5.884 E53.32231
G1 X111.011 Y5.814 E57.59472
G1 X113.124 Y6.079 E57.68768
G1 X114.903 Y6.934 E57.77385
G1 X116.491 Y8.274 E57.86455
G1 X116.833 Y8.715 E57.88891
G1 X117.883 Y10.783 E57.99016
G1 X118.14 Y12.39 E58.0612
G1 X118.184 Y20.776 E58.42729
G1 X117.386 Y23.104 E58.53472
G1 X116.205 Y24.86 E58.6271
G1 X114.818 Y25.978 E58.70487
G1 X113.64 Y26.668 E58.76447
G1 X111.759 Y27.19 E58.84968
G1 X98.658 Y27.19 E59.42159
G1 X146.827 Y75.358 E62.39532
G1 X146.899 Y62.173 E62.97091
G1 X147.218 Y60.474 E63.04637
G1 X148.466 Y58.567 E63.14586
G1 X149.312 Y57.615 E63.20146
G1 X150.893 Y56.604 E63.28338
G1 X153.268 Y55.814 E63.39265
G1 X161.727 Y55.814 E63.76191
G1 X163.233 Y56.147 E63.82924
G1 X164.89 Y56.915 E63.90897
G1 X166.37 Y58.166 E63.99357
G1 X166.89 Y58.798 E64.0293
G1 X167.875 Y60.761 E64.12517
G1 X168.116 Y62.141 E64.18633
G1 X168.186 Y160.724 E68.48986
G1 X167.809 Y162.435 E68.56634
G1 X166.639 Y164.599 E68.67374
G1 X164.862 Y166.085 E68.77486
G1 X163.243 Y166.861 E68.85323
G1 X161.614 Y167.186 E68.92575
G1 X153.46 Y167.103 E69.28172
G1 X152.315 Y166.901 E69.33247
G1 X150.613 Y166.227 E69.41239
G1 X149.054 Y165.098 E69.49641
G1 X147.913 Y163.665 E69.57638
G1 X147.33 Y162.638 E69.62793
G1 X146.81 Y160.786 E69.7119
G1 X146.809 Y134.256 E70.87004
G1 X39.744 Y27.191 E77.47981
G1 X13.38 Y27.191 E78.6307
G1 X11.452 Y26.707 E78.71747
G1 X9.35 Y25.484 E78.82364
G1 X7.864 Y23.573 E78.92931
G1 X6.814 Y20.937 E79.05318
G1 X6.814 Y12.273 E79.43139
G1 X7.147 Y10.767 E79.49873
G1 X7.915 Y9.11 E79.57845
G1 X9.166 Y7.63 E79.66305
G0 F3600 X9.389 Y7.9
G1 F2550 X9.99 Y7.405 E79.69704
G1 X11.872 Y6.461 E79.78895
G1 X13.201 Y6.229 E79.84784
G1 X111.011 Y6.164 E84.11763
G1 X113.021 Y6.419 E84.20608
G1 X114.714 Y7.232 E84.28807
G1 X116.238 Y8.518 E84.37512
G1 X116.521 Y8.873 E84.39494
G1 X117.547 Y10.893 E84.49384
G1 X117.79 Y12.392 E84.56013
G1 X117.834 Y20.719 E84.92364
G1 X117.07 Y22.948 E85.0265
G1 X115.945 Y24.62 E85.11448
G1 X114.598 Y25.706 E85.19001
G1 X113.504 Y26.343 E85.24527
G1 X111.712 Y26.84 E85.32645
G1 X97.814 Y26.84 E85.93316
G1 X147.173 Y76.198 E88.98035
G1 X147.243 Y62.238 E89.58977
G1 X147.549 Y60.606 E89.66225
G1 X148.728 Y58.799 E89.75644
G1 X149.542 Y57.883 E89.80994
G1 X151.044 Y56.923 E89.88775
G1 X153.325 Y56.164 E89.9927
G1 X161.687 Y56.164 E90.35773
G1 X163.12 Y56.481 E90.4218
G1 X164.701 Y57.214 E90.49787
G1 X166.1 Y58.389 E90.57763
G1 X166.595 Y58.99 E90.61162
G1 X167.539 Y60.872 E90.70353
G1 X167.771 Y62.201 E90.76242
G1 X167.836 Y160.685 E95.06164
G1 X167.478 Y162.311 E95.13432
G1 X166.362 Y164.374 E95.23671
G1 X164.672 Y165.788 E95.3329
G1 X163.13 Y166.527 E95.40755
G1 X161.582 Y166.836 E95.47645
G1 X153.521 Y166.758 E95.82837
G1 X152.408 Y166.562 E95.8777
G1 X150.782 Y165.918 E95.95405
G1 X149.299 Y164.844 E96.03398
G1 X148.217 Y163.492 E96.10957
G1 X147.656 Y162.504 E96.15917
G1 X147.16 Y160.737 E96.23929
G1 X147.159 Y134.112 E97.40157
G1 X39.888 Y26.841 E104.02405
G1 X13.421 Y26.841 E105.17944
G1 X11.588 Y26.381 E105.26194
G1 X9.584 Y25.215 E105.36315
G1 X8.171 Y23.398 E105.46363
G1 X7.164 Y20.87 E105.58242
G1 X7.164 Y12.313 E105.95597
G1 X7.481 Y10.88 E106.02004
G1 X8.214 Y9.299 E106.09611
G1 X9.389 Y7.9 E106.17587
G0 F3600 X9.657 Y8.125
G1 F2550 X10.181 Y7.701 E106.20529
G1 X11.983 Y6.797 E106.2933
G1 X13.261 Y6.574 E106.34993
G1 X111.011 Y6.514 E110.61711
G1 X112.921 Y6.759 E110.70117
G1 X114.522 Y7.528 E110.7787
G1 X115.968 Y8.741 E110.86109
G1 X116.209 Y9.032 E110.87759
G1 X117.21 Y11.002 E110.97405
G1 X117.444 Y12.448 E111.038
G1 X117.484 Y20.662 E111.39657
G1 X116.754 Y22.792 E111.49487
G1 X115.687 Y24.378 E111.57831
G1 X114.378 Y25.433 E111.6517
G1 X113.367 Y26.018 E111.70269
G1 X111.665 Y26.49 E111.7798
G1 X96.97 Y26.49 E112.42129
G1 X147.519 Y77.038 E115.54195
G1 X147.587 Y62.302 E116.18524
G1 X147.88 Y60.739 E116.25466
G1 X148.99 Y59.031 E116.34359
G1 X149.772 Y58.151 E116.39498
G1 X151.196 Y57.241 E116.46875
G1 X153.381 Y56.514 E116.56928
G1 X161.648 Y56.514 E116.93016
G1 X163.006 Y56.814 E116.99087
G1 X164.513 Y57.513 E117.06339
G1 X165.875 Y58.657 E117.14104
G1 X166.299 Y59.181 E117.17046
G1 X167.203 Y60.983 E117.25847
G1 X167.426 Y62.261 E117.31511
G1 X167.486 Y160.646 E121.61
G1 X167.146 Y162.189 E121.67897
G1 X166.086 Y164.149 E121.77624
G1 X164.482 Y165.491 E121.86754
G1 X163.017 Y166.193 E121.93846
G1 X161.55 Y166.486 E122.00376
G1 X153.582 Y166.413 E122.35161
G1 X152.5 Y166.223 E122.39957
G1 X150.951 Y165.609 E122.47231
G1 X149.544 Y164.59 E122.54814
G1 X148.521 Y163.319 E122.61937
G1 X147.982 Y162.37 E122.66701
G1 X147.51 Y160.688 E122.74327
G1 X147.509 Y133.968 E123.90971
G1 X40.032 Y26.491 E130.5449
G1 X13.462 Y26.491 E131.70479
G1 X11.724 Y26.055 E131.78301
G1 X9.818 Y24.946 E131.87927
G1 X8.477 Y23.222 E131.97462
G1 X7.514 Y20.804 E132.08824
G1 X7.514 Y12.352 E132.4572
G1 X7.814 Y10.994 E132.51791
G1 X8.513 Y9.487 E132.59043
G1 X9.657 Y8.125 E132.66808
G0 F3600 X9.925 Y8.35
G1 F2550 X10.369 Y7.998 E132.69281
G1 X12.094 Y7.133 E132.77705
G1 X13.321 Y6.919 E132.83142
G1 X111.011 Y6.864 E137.09598
G1 X112.819 Y7.099 E137.17557
G1 X114.332 Y7.825 E137.24883
G1 X115.743 Y9.009 E137.32923
G1 X115.897 Y9.191 E137.33964
G1 X116.873 Y11.111 E137.43367
G1 X117.098 Y12.504 E137.49526
G1 X117.134 Y20.605 E137.84891
G1 X116.438 Y22.636 E137.94263
G1 X115.429 Y24.136 E138.02155
G1 X114.158 Y25.16 E138.0928
G1 X113.229 Y25.693 E138.13955
G1 X111.618 Y26.14 E138.21254
G1 X96.126 Y26.14 E138.88882
G1 X147.865 Y77.878 E142.08295
G1 X147.931 Y62.366 E142.76012
G1 X148.211 Y60.872 E142.82647
G1 X149.252 Y59.264 E142.91009
G1 X150.004 Y58.418 E142.9595
G1 X151.347 Y57.56 E143.02907
G1 X153.438 Y56.864 E143.12528
G1 X161.608 Y56.864 E143.48193
G1 X162.893 Y57.148 E143.53938
G1 X164.325 Y57.812 E143.60829
G1 X165.65 Y58.925 E143.68383
G1 X166.002 Y59.369 E143.70856
G1 X166.867 Y61.094 E143.7928
G1 X167.081 Y62.321 E143.84717
G1 X167.136 Y160.607 E148.13774
G1 X166.814 Y162.067 E148.20301
G1 X165.81 Y163.924 E148.29516
G1 X164.292 Y165.194 E148.38156
G1 X162.904 Y165.859 E148.44875
G1 X161.518 Y166.136 E148.51045
G1 X153.642 Y166.068 E148.85428
G1 X152.593 Y165.884 E148.90078
G1 X151.12 Y165.3 E148.96995
G1 X149.788 Y164.335 E149.04175
G1 X148.825 Y163.146 E149.10854
G1 X148.307 Y162.235 E149.15429
G1 X147.86 Y160.64 E149.2266
G1 X147.859 Y133.824 E150.39723
G1 X40.176 Y26.141 E157.04514
G1 X13.503 Y26.141 E158.20952
G1 X11.86 Y25.729 E158.28347
G1 X10.052 Y24.677 E158.37478
G1 X8.784 Y23.047 E158.46493
G1 X7.864 Y20.737 E158.57348
G1 X7.864 Y12.392 E158.93777
G1 X8.148 Y11.107 E158.99522
G1 X8.812 Y9.675 E159.06412
G1 X9.925 Y8.35 E159.13966
G0 F3600 X10.193 Y8.575
G1 F2550 X10.526 Y8.311 E159.15821
G1 X12.205 Y7.469 E159.24021
G1 X13.381 Y7.264 E159.29232
G1 X111.011 Y7.214 E163.55425
G1 X112.718 Y7.439 E163.62941
G1 X114.142 Y8.122 E163.69836
G1 X115.518 Y9.277 E163.77678
G1 X115.605 Y9.387 E163.7829
G1 X116.535 Y11.218 E163.87255
G1 X116.752 Y12.56 E163.9319
G1 X116.784 Y20.547 E164.28057
G1 X116.121 Y22.481 E164.36982
G1 X115.17 Y23.896 E164.44424
G1 X113.939 Y24.887 E164.51323
G1 X113.093 Y25.368 E164.55571
G1 X111.571 Y25.79 E164.62466
G1 X95.282 Y25.79 E165.33574
G1 X148.212 Y78.719 E168.60339
G1 X148.275 Y62.43 E169.31448
G1 X148.542 Y61.005 E169.37777
G1 X149.514 Y59.497 E169.45609
G1 X150.234 Y58.687 E169.5034
G1 X151.501 Y57.877 E169.56904
G1 X153.494 Y57.214 E169.66073
G1 X161.568 Y57.214 E170.01319
G1 X162.78 Y57.482 E170.06738
G1 X164.137 Y58.111 E170.13267
G1 X165.425 Y59.193 E170.20611
G1 X165.689 Y59.526 E170.22466
G1 X166.531 Y61.205 E170.30665
G1 X166.736 Y62.381 E170.35876
G1 X166.786 Y160.568 E174.64501
G1 X166.482 Y161.945 E174.70657
G1 X165.534 Y163.699 E174.79361
G1 X164.102 Y164.897 E174.87511
G1 X162.791 Y165.525 E174.93857
G1 X161.486 Y165.786 E174.99667
G1 X153.702 Y165.723 E175.33648
G1 X152.686 Y165.545 E175.38151
G1 X151.289 Y164.991 E175.44711
G1 X150.031 Y164.08 E175.51492
G1 X149.129 Y162.973 E175.57725
G1 X148.632 Y162.1 E175.6211
G1 X148.21 Y160.592 E175.68946
G1 X148.209 Y133.68 E176.86428
G1 X40.32 Y25.791 E183.52491
G1 X13.544 Y25.791 E184.69379
G1 X11.993 Y25.402 E184.76359
G1 X10.287 Y24.409 E184.84976
G1 X9.091 Y22.872 E184.93478
G1 X8.214 Y20.67 E185.03825
G1 X8.214 Y12.432 E185.39787
G1 X8.482 Y11.22 E185.45206
G1 X9.111 Y9.863 E185.51735
G1 X10.193 Y8.575 E185.59078
G0 F3600 X10.461 Y8.8
G1 F2550 X10.683 Y8.624 E185.60315
G1 X12.316 Y7.805 E185.6829
G1 X13.441 Y7.609 E185.73275
G1 X111.011 Y7.564 E189.99206
G1 X112.616 Y7.779 E190.06275
G1 X113.952 Y8.419 E190.12742
G1 X115.293 Y9.545 E190.20386
G1 X116.197 Y11.325 E190.29101
G1 X116.406 Y12.616 E190.3481
G1 X116.434 Y20.49 E190.69184
G1 X115.805 Y22.325 E190.77652
G1 X114.91 Y23.656 E190.84654
G1 X113.766 Y24.583 E190.91081
G1 X112.958 Y25.042 E190.95138
G1 X111.524 Y25.44 E191.01635
G1 X94.624 Y25.44 E191.7541
G1 X94.559 Y25.503 E191.75805
G1 X94.651 Y25.653 E191.76573
G1 X148.341 Y79.342 E195.0803
G1 X148.504 Y79.433 E195.08845
G1 X148.56 Y79.318 E195.09404
G1 X148.619 Y62.494 E195.82848
G1 X148.873 Y61.138 E195.8887
G1 X149.776 Y59.73 E195.96172
G1 X150.466 Y58.954 E196.00705
G1 X151.652 Y58.196 E196.06849
G1 X153.551 Y57.564 E196.15586
G1 X161.529 Y57.564 E196.50413
G1 X162.67 Y57.816 E196.55514
G1 X163.946 Y58.408 E196.61655
G1 X165.2 Y59.461 E196.68803
G1 X165.376 Y59.683 E196.7004
G1 X166.195 Y61.316 E196.78015
G1 X166.391 Y62.441 E196.83
G1 X166.436 Y160.529 E201.11193
G1 X166.151 Y161.821 E201.16968
G1 X165.257 Y163.474 E201.25172
G1 X163.912 Y164.6 E201.32829
G1 X162.678 Y165.191 E201.38802
G1 X161.453 Y165.436 E201.44256
G1 X153.762 Y165.378 E201.77831
G1 X152.779 Y165.206 E201.82187
G1 X151.458 Y164.682 E201.88391
G1 X150.274 Y163.824 E201.94774
G1 X149.4 Y162.752 E202.00812
G1 X148.958 Y161.965 E202.04752
G1 X148.56 Y160.544 E202.11194
G1 X148.559 Y133.536 E203.29095
G1 X40.464 Y25.441 E209.9643
G1 X13.585 Y25.441 E211.13767
G1 X12.126 Y25.075 E211.20334
G1 X10.522 Y24.141 E211.28436
G1 X9.398 Y22.697 E211.36425
G1 X8.564 Y20.603 E211.46264
G1 X8.564 Y12.471 E211.81763
G1 X8.816 Y11.33 E211.86864
G1 X9.408 Y10.054 E211.93005
G1 X10.461 Y8.8 E212.00153
G0 F3600 X10.729 Y9.025
G1 F2550 X10.84 Y8.937 E212.00772
G1 X12.427 Y8.141 E212.08522
G1 X13.501 Y7.954 E212.13281
G1 X111.011 Y7.914 E216.3895
G1 X112.514 Y8.119 E216.45572
G1 X113.762 Y8.716 E216.51612
G1 X115.013 Y9.767 E216.58744
G1 X115.861 Y11.436 E216.66917
G1 X116.056 Y12.617 E216.72142
G1 X116.084 Y20.433 E217.06262
G1 X115.489 Y22.169 E217.14273
G1 X114.65 Y23.417 E217.20838
G1 X113.593 Y24.279 E217.26792
G1 X112.823 Y24.716 E217.30657
G1 X111.477 Y25.09 E217.36755
G1 X94.524 Y25.09 E218.10762
G1 X94.331 Y25.209 E218.11752
G1 X94.238 Y25.341 E218.12456
G1 X94.2 Y25.496 E218.13153
G1 X94.235 Y25.662 E218.13894
G1 X94.376 Y25.872 E218.14998
G1 X148.131 Y79.626 E221.46857
G1 X148.421 Y79.788 E221.48307
G1 X148.555 Y79.791 E221.48892
G1 X148.754 Y79.716 E221.4982
G1 X148.91 Y79.401 E221.51355
G1 X148.963 Y62.559 E222.24877
G1 X149.205 Y61.269 E222.30607
G1 X150.038 Y59.963 E222.37369
G1 X150.696 Y59.223 E222.41691
G1 X151.805 Y58.514 E222.47437
G1 X153.608 Y57.914 E222.55733
G1 X161.489 Y57.914 E222.90136
G1 X162.557 Y58.15 E222.94911
G1 X163.758 Y58.707 E223.0069
G1 X164.975 Y59.729 E223.07628
G1 X165.063 Y59.84 E223.08246
G1 X165.859 Y61.427 E223.15997
G1 X166.046 Y62.501 E223.20756
G1 X166.086 Y160.49 E227.48516
G1 X165.82 Y161.697 E227.53912
G1 X164.98 Y163.249 E227.61615
G1 X163.722 Y164.303 E227.6878
G1 X162.565 Y164.857 E227.7438
G1 X161.42 Y165.086 E227.79477
G1 X153.822 Y165.033 E228.12646
G1 X152.872 Y164.867 E228.16856
G1 X151.627 Y164.373 E228.22703
G1 X150.516 Y163.568 E228.28692
G1 X149.705 Y162.581 E228.34269
G1 X149.284 Y161.831 E228.38024
G1 X148.91 Y160.496 E228.44076
G1 X148.909 Y133.392 E229.62395
G1 X40.608 Y25.091 E236.31002
G1 X13.626 Y25.091 E237.48789
G1 X12.259 Y24.748 E237.54942
G1 X10.757 Y23.873 E237.6253
G1 X9.705 Y22.522 E237.70005
G1 X8.914 Y20.536 E237.79337
G1 X8.914 Y12.511 E238.14369
G1 X9.15 Y11.443 E238.19144
G1 X9.707 Y10.242 E238.24923
G1 X10.729 Y9.025 E238.31861
G0 F3600 X10.997 Y9.25
G1 F2550 X12.538 Y8.477 E238.39386
G1 X13.561 Y8.299 E238.43919
G1 X111.011 Y8.264 E242.69327
G1 X112.413 Y8.459 E242.75506
