;FLAVOR:Marlin
;TIME:6778
;Filament used: 9.09379m
;Layer height: 0.2
;MINX:6.114
;MINY:5.114
;MINZ:0.3
;MAXX:168.886
;MAXY:167.886
;MAXZ:19.9
;TARGET_MACHINE.NAME:Unknown
;Generated with Cura_SteamEngine 5.10.0
M104 S200
M105
M109 S200
G28 ;Home
G1 Z15.0 F6000 ;Move the platform down 15mm
;Prime the extruder
G92 E0
G1 F200 E3
G92 E0
M82 ;absolute extrusion mode
G92 E0
G92 E0
G1 F1500 E-6.5
;LAYER_COUNT:99
;LAYER:0
M107
G0 F3600 X8.677 Y7.133 Z0.3
;TYPE:SKIRT
G1 F1500 E0
G1 F2550 X9.415 Y6.518 E0.04194
G1 X11.539 Y5.453 E0.14566
G1 X13.021 Y5.194 E0.21134
G1 X111.011 Y5.114 E4.48899
G1 X113.324 Y5.399 E4.59072
G1 X115.287 Y6.342 E4.68579
G1 X117.003 Y7.79 E4.7838
G1 X117.457 Y8.398 E4.81693
G1 X118.558 Y10.566 E4.92308
G1 X118.832 Y12.28 E4.99885
G1 X118.884 Y20.89 E5.37472
G1 X118.018 Y23.416 E5.49129
G1 X116.724 Y25.341 E5.59254
G1 X115.172 Y26.582 E5.67929
G1 X113.916 Y27.318 E5.74284
G1 X111.853 Y27.89 E5.83629
G1 X100.346 Y27.89 E6.33862
G1 X146.137 Y73.679 E9.16551
G1 X146.211 Y62.043 E9.67348
G1 X146.556 Y60.206 E9.75507
G1 X147.942 Y58.102 E9.86506
G1 X148.854 Y57.076 E9.92498
G1 X150.586 Y55.969 E10.01471
G1 X153.155 Y55.114 E10.13291
G1 X161.807 Y55.114 E10.5106
G1 X163.459 Y55.479 E10.58446
G1 X165.27 Y56.318 E10.67159
G1 X166.867 Y57.677 E10.76313
G1 X167.482 Y58.415 E10.80507
G1 X168.547 Y60.539 E10.90879
G1 X168.806 Y62.021 E10.97447
G1 X168.886 Y160.811 E15.28704
G1 X168.476 Y162.65 E15.36929
G1 X167.191 Y165.048 E15.48805
G1 X165.124 Y166.761 E15.60524
G1 X163.181 Y167.629 E15.69814
G1 X161.831 Y167.886 E15.75813
G1 X153.338 Y167.793 E16.12891
G1 X152.129 Y167.579 E16.18251
G1 X150.272 Y166.844 E16.26969
G1 X148.564 Y165.608 E16.36173
G1 X147.335 Y164.057 E16.44811
G1 X146.679 Y162.91 E16.5058
G1 X146.11 Y160.884 E16.59766
G1 X146.109 Y134.544 E17.74751
G1 X39.456 Y27.891 E24.33183
G1 X13.298 Y27.891 E25.47373
G1 X11.18 Y27.359 E25.56906
G1 X8.882 Y26.022 E25.68512
G1 X7.25 Y23.923 E25.80119
G1 X6.114 Y21.071 E25.9352
G1 X6.114 Y12.193 E26.32276
G1 X6.479 Y10.541 E26.39662
G1 X7.318 Y8.73 E26.48375
G1 X8.677 Y7.133 E26.57529
G0 F3600 X8.944 Y7.36
G1 F2550 X9.608 Y6.813 E26.61284
G1 X11.65 Y5.789 E26.71257
G1 X13.081 Y5.539 E26.77598
G1 X111.011 Y5.464 E31.05101
G1 X113.224 Y5.739 E31.14836
G1 X115.095 Y6.638 E31.23898
G1 X116.747 Y8.032 E31.33334
G1 X117.145 Y8.557 E31.3621
G1 X118.221 Y10.675 E31.4658
G1 X118.486 Y12.335 E31.53919
G1 X118.534 Y20.833 E31.91016
G1 X117.702 Y23.26 E32.02216
G1 X116.465 Y25.1 E32.11895
G1 X114.995 Y26.28 E32.20124
G1 X113.778 Y26.993 E32.26281
G1 X111.806 Y27.54 E32.35215
G1 X99.502 Y27.54 E32.88927
G1 X146.482 Y74.518 E35.78956
G1 X146.555 Y62.108 E36.33132
G1 X146.887 Y60.34 E36.40984
G1 X148.204 Y58.335 E36.51456
G1 X149.084 Y57.345 E36.57239
G1 X150.739 Y56.287 E36.65814
G1 X153.212 Y55.464 E36.77191
G1 X161.767 Y55.464 E37.14537
G1 X163.346 Y55.813 E37.21597
G1 X165.079 Y56.616 E37.29934
G1 X166.64 Y57.944 E37.38881
G1 X167.187 Y58.608 E37.42637
G1 X168.211 Y60.65 E37.52609
G1 X168.461 Y62.081 E37.5895
G1 X168.536 Y160.771 E41.89771
G1 X168.144 Y162.53 E41.97638
G1 X166.915 Y164.823 E42.08995
G1 X164.941 Y166.459 E42.20187
G1 X163.074 Y167.293 E42.29114
G1 X161.799 Y167.536 E42.3478
G1 X153.399 Y167.448 E42.71451
G1 X152.222 Y167.24 E42.76669
G1 X150.444 Y166.536 E42.85017
G1 X148.808 Y165.352 E42.93833
G1 X147.639 Y163.883 E43.02028
G1 X147.004 Y162.773 E43.0761
G1 X146.46 Y160.835 E43.16398
G1 X146.459 Y134.4 E44.31797
G1 X39.6 Y27.541 E50.91501
G1 X13.339 Y27.541 E52.06141
G1 X11.316 Y27.033 E52.15246
G1 X9.116 Y25.753 E52.26357
G1 X7.557 Y23.748 E52.37444
G1 X6.464 Y21.004 E52.50338
G1 X6.464 Y12.233 E52.88627
G1 X6.813 Y10.654 E52.95686
G1 X7.616 Y8.921 E53.04024
G1 X8.944 Y7.36 E53.12971
G0 F3600 X9.166 Y7.63
G1 F2550 X9.798 Y7.11 E53.16544
G1 X11.761 Y6.125 E53.26131
G1 X13.141 Y5.884 E53.32247
G1 X111.011 Y5.814 E57.59488
G1 X113.124 Y6.079 E57.68784
G1 X114.903 Y6.934 E57.77401
G1 X116.491 Y8.274 E57.86471
G1 X116.833 Y8.715 E57.88907
G1 X117.883 Y10.783 E57.99032
G1 X118.14 Y12.39 E58.06136
G1 X118.184 Y20.776 E58.42745
G1 X117.386 Y23.104 E58.53488
G1 X116.205 Y24.86 E58.62726
G1 X114.818 Y25.978 E58.70503
G1 X113.64 Y26.668 E58.76463
G1 X111.759 Y27.19 E58.84984
G1 X98.658 Y27.19 E59.42175
G1 X146.827 Y75.357 E62.39545
G1 X146.899 Y62.173 E62.97099
G1 X147.218 Y60.474 E63.04646
G1 X148.466 Y58.567 E63.14595
G1 X149.312 Y57.615 E63.20155
G1 X150.893 Y56.604 E63.28347
G1 X153.268 Y55.814 E63.39273
G1 X161.727 Y55.814 E63.762
G1 X163.233 Y56.147 E63.82933
G1 X164.89 Y56.915 E63.90906
G1 X166.37 Y58.166 E63.99365
G1 X166.89 Y58.798 E64.02938
G1 X167.875 Y60.761 E64.12526
G1 X168.116 Y62.141 E64.18641
G1 X168.186 Y160.731 E68.49025
G1 X167.812 Y162.41 E68.56534
G1 X166.639 Y164.598 E68.67372
G1 X164.758 Y166.157 E68.78037
G1 X162.967 Y166.957 E68.866
G1 X161.766 Y167.186 E68.91937
G1 X153.46 Y167.103 E69.28198
G1 X152.315 Y166.901 E69.33273
G1 X150.613 Y166.227 E69.41265
G1 X149.054 Y165.098 E69.49667
G1 X147.913 Y163.665 E69.57664
G1 X147.33 Y162.638 E69.62819
G1 X146.81 Y160.786 E69.71216
G1 X146.809 Y134.256 E70.8703
G1 X39.744 Y27.191 E77.48007
G1 X13.38 Y27.191 E78.63096
G1 X11.452 Y26.707 E78.71773
G1 X9.35 Y25.484 E78.8239
G1 X7.864 Y23.573 E78.92957
G1 X6.814 Y20.937 E79.05344
G1 X6.814 Y12.273 E79.43165
G1 X7.147 Y10.767 E79.49898
G1 X7.915 Y9.11 E79.57871
G1 X9.166 Y7.63 E79.66331
G0 F3600 X9.389 Y7.9
G1 F2550 X9.99 Y7.405 E79.6973
G1 X11.872 Y6.461 E79.78921
G1 X13.201 Y6.229 E79.8481
G1 X111.011 Y6.164 E84.11789
G1 X113.021 Y6.419 E84.20634
G1 X114.714 Y7.232 E84.28833
G1 X116.238 Y8.518 E84.37538
G1 X116.521 Y8.873 E84.3952
G1 X117.547 Y10.893 E84.4941
G1 X117.79 Y12.392 E84.56039
G1 X117.834 Y20.719 E84.9239
G1 X117.07 Y22.948 E85.02676
G1 X115.945 Y24.62 E85.11474
G1 X114.598 Y25.706 E85.19027
G1 X113.504 Y26.343 E85.24553
G1 X111.712 Y26.84 E85.32671
G1 X97.814 Y26.84 E85.93342
G1 X147.173 Y76.197 E88.98058
G1 X147.243 Y62.238 E89.58995
G1 X147.549 Y60.606 E89.66244
G1 X148.728 Y58.799 E89.75663
G1 X149.542 Y57.883 E89.81012
G1 X151.044 Y56.923 E89.88794
G1 X153.325 Y56.164 E89.99288
G1 X161.687 Y56.164 E90.35791
G1 X163.12 Y56.481 E90.42198
G1 X164.701 Y57.214 E90.49806
G1 X166.1 Y58.389 E90.57781
G1 X166.595 Y58.99 E90.6118
G1 X167.539 Y60.872 E90.70371
G1 X167.771 Y62.201 E90.76261
G1 X167.836 Y160.691 E95.06208
G1 X167.48 Y162.29 E95.13359
G1 X166.363 Y164.373 E95.23677
G1 X164.575 Y165.855 E95.33815
G1 X162.86 Y166.621 E95.42015
G1 X161.733 Y166.836 E95.47023
G1 X153.521 Y166.758 E95.82874
G1 X152.408 Y166.562 E95.87807
G1 X150.782 Y165.918 E95.95442
G1 X149.299 Y164.844 E96.03435
G1 X148.217 Y163.492 E96.10994
G1 X147.656 Y162.504 E96.15954
G1 X147.16 Y160.737 E96.23966
G1 X147.159 Y134.112 E97.40194
G1 X39.888 Y26.841 E104.02442
G1 X13.421 Y26.841 E105.17981
G1 X11.588 Y26.381 E105.26231
G1 X9.584 Y25.215 E105.36352
G1 X8.171 Y23.398 E105.464
G1 X7.164 Y20.87 E105.5828
G1 X7.164 Y12.313 E105.95634
G1 X7.481 Y10.88 E106.02041
G1 X8.214 Y9.299 E106.09648
G1 X9.389 Y7.9 E106.17624
G0 F3600 X9.657 Y8.125
G1 F2550 X10.181 Y7.701 E106.20566
G1 X11.983 Y6.797 E106.29367
G1 X13.261 Y6.574 E106.3503
G1 X111.011 Y6.514 E110.61748
G1 X112.921 Y6.759 E110.70154
G1 X114.522 Y7.528 E110.77907
G1 X115.968 Y8.741 E110.86147
G1 X116.209 Y9.032 E110.87796
G1 X117.21 Y11.002 E110.97442
G1 X117.444 Y12.448 E111.03837
G1 X117.484 Y20.662 E111.39695
G1 X116.754 Y22.792 E111.49524
G1 X115.687 Y24.378 E111.57868
G1 X114.378 Y25.433 E111.65207
G1 X113.367 Y26.018 E111.70306
G1 X111.665 Y26.49 E111.78017
G1 X96.97 Y26.49 E112.42166
G1 X147.519 Y77.037 E115.54229
G1 X147.587 Y62.302 E116.18554
G1 X147.88 Y60.739 E116.25496
G1 X148.99 Y59.031 E116.34388
G1 X149.772 Y58.151 E116.39527
G1 X151.196 Y57.241 E116.46905
G1 X153.381 Y56.514 E116.56957
G1 X161.648 Y56.514 E116.93046
G1 X163.006 Y56.814 E116.99117
G1 X164.513 Y57.513 E117.06369
G1 X165.875 Y58.657 E117.14134
G1 X166.299 Y59.181 E117.17076
G1 X167.203 Y60.983 E117.25877
G1 X167.426 Y62.261 E117.3154
G1 X167.486 Y160.651 E121.61051
G1 X167.148 Y162.167 E121.67832
G1 X166.086 Y164.149 E121.77648
G1 X164.392 Y165.553 E121.87252
G1 X162.753 Y166.285 E121.95088
G1 X161.7 Y166.486 E121.99768
G1 X153.582 Y166.413 E122.35208
G1 X152.5 Y166.223 E122.40003
G1 X150.951 Y165.609 E122.47277
G1 X149.544 Y164.59 E122.54861
G1 X148.521 Y163.319 E122.61983
G1 X147.982 Y162.37 E122.66748
G1 X147.51 Y160.688 E122.74374
G1 X147.509 Y133.968 E123.91017
G1 X40.032 Y26.491 E130.54537
G1 X13.462 Y26.491 E131.70525
G1 X11.724 Y26.055 E131.78348
G1 X9.818 Y24.946 E131.87974
G1 X8.477 Y23.222 E131.97509
G1 X7.514 Y20.804 E132.0887
G1 X7.514 Y12.352 E132.45767
G1 X7.814 Y10.994 E132.51838
G1 X8.513 Y9.487 E132.5909
G1 X9.657 Y8.125 E132.66855
G0 F3600 X9.925 Y8.35
G1 F2550 X10.369 Y7.998 E132.69328
G1 X12.094 Y7.133 E132.77752
G1 X13.321 Y6.919 E132.83189
G1 X111.011 Y6.864 E137.09644
G1 X112.819 Y7.099 E137.17603
G1 X114.332 Y7.825 E137.24929
G1 X115.743 Y9.009 E137.3297
G1 X115.897 Y9.191 E137.34011
G1 X116.873 Y11.111 E137.43413
G1 X117.098 Y12.504 E137.49573
G1 X117.134 Y20.605 E137.84937
G1 X116.438 Y22.636 E137.9431
G1 X115.429 Y24.136 E138.02201
G1 X114.158 Y25.16 E138.09327
G1 X113.229 Y25.693 E138.14002
G1 X111.618 Y26.14 E138.213
G1 X96.126 Y26.14 E138.88929
G1 X147.865 Y77.877 E142.08339
G1 X147.931 Y62.366 E142.76051
G1 X148.211 Y60.872 E142.82686
G1 X149.252 Y59.264 E142.91048
G1 X150.004 Y58.418 E142.9599
G1 X151.347 Y57.56 E143.02947
G1 X153.438 Y56.864 E143.12567
G1 X161.608 Y56.864 E143.48232
G1 X162.893 Y57.148 E143.53977
G1 X164.325 Y57.812 E143.60868
G1 X165.65 Y58.925 E143.68422
G1 X166.002 Y59.369 E143.70895
G1 X166.867 Y61.094 E143.79319
G1 X167.081 Y62.321 E143.84757
G1 X167.136 Y160.611 E148.13831
G1 X166.816 Y162.047 E148.20254
G1 X165.81 Y163.924 E148.2955
G1 X164.209 Y165.251 E148.38628
G1 X162.646 Y165.949 E148.461
G1 X161.667 Y166.136 E148.50451
G1 X153.642 Y166.068 E148.85485
G1 X152.593 Y165.884 E148.90134
G1 X151.12 Y165.3 E148.97051
G1 X149.788 Y164.335 E149.04231
G1 X148.825 Y163.146 E149.10911
G1 X148.307 Y162.235 E149.15486
G1 X147.86 Y160.64 E149.22717
G1 X147.859 Y133.824 E150.39779
G1 X40.176 Y26.141 E157.0457
G1 X13.503 Y26.141 E158.21009
G1 X11.86 Y25.729 E158.28403
G1 X10.052 Y24.677 E158.37534
G1 X8.784 Y23.047 E158.4655
G1 X7.864 Y20.737 E158.57404
G1 X7.864 Y12.392 E158.93833
G1 X8.148 Y11.107 E158.99578
G1 X8.812 Y9.675 E159.06469
G1 X9.925 Y8.35 E159.14023
G0 F3600 X10.193 Y8.575
G1 F2550 X10.526 Y8.311 E159.15878
G1 X12.205 Y7.469 E159.24077
G1 X13.381 Y7.264 E159.29288
G1 X111.011 Y7.214 E163.55482
G1 X112.718 Y7.439 E163.62998
G1 X114.142 Y8.122 E163.69892
G1 X115.518 Y9.277 E163.77735
G1 X115.605 Y9.387 E163.78347
G1 X116.535 Y11.218 E163.87312
G1 X116.752 Y12.56 E163.93246
G1 X116.784 Y20.547 E164.28113
G1 X116.121 Y22.481 E164.37038
G1 X115.17 Y23.896 E164.4448
G1 X113.939 Y24.887 E164.51379
G1 X113.093 Y25.368 E164.55628
G1 X111.571 Y25.79 E164.62522
G1 X95.282 Y25.79 E165.3363
G1 X148.212 Y78.718 E168.60393
G1 X148.275 Y62.43 E169.31497
G1 X148.542 Y61.005 E169.37826
G1 X149.514 Y59.497 E169.45658
G1 X150.234 Y58.687 E169.50389
G1 X151.501 Y57.877 E169.56953
G1 X153.494 Y57.214 E169.66122
G1 X161.568 Y57.214 E170.01368
G1 X162.78 Y57.482 E170.06787
G1 X164.137 Y58.111 E170.13316
G1 X165.425 Y59.193 E170.2066
G1 X165.689 Y59.526 E170.22515
G1 X166.531 Y61.205 E170.30714
G1 X166.736 Y62.381 E170.35925
G1 X166.786 Y160.571 E174.64563
G1 X166.484 Y161.927 E174.70628
G1 X165.534 Y163.699 E174.79405
G1 X164.026 Y164.949 E174.87955
G1 X162.539 Y165.613 E174.95064
G1 X161.634 Y165.786 E174.99087
G1 X153.702 Y165.723 E175.33714
G1 X152.686 Y165.545 E175.38217
G1 X151.289 Y164.991 E175.44777
G1 X150.031 Y164.08 E175.51558
G1 X149.129 Y162.973 E175.57791
G1 X148.632 Y162.1 E175.62177
G1 X148.21 Y160.592 E175.69013
G1 X148.209 Y133.68 E176.86494
G1 X40.32 Y25.791 E183.52557
G1 X13.544 Y25.791 E184.69445
G1 X11.993 Y25.402 E184.76425
G1 X10.287 Y24.409 E184.85042
G1 X9.091 Y22.872 E184.93544
G1 X8.214 Y20.67 E185.03891
G1 X8.214 Y12.432 E185.39853
G1 X8.482 Y11.22 E185.45272
G1 X9.111 Y9.863 E185.51801
G1 X10.193 Y8.575 E185.59144
G0 F3600 X10.461 Y8.8
G1 F2550 X10.683 Y8.624 E185.60381
G1 X12.316 Y7.805 E185.68356
G1 X13.441 Y7.609 E185.73341
G1 X111.011 Y7.564 E189.99273
G1 X112.616 Y7.779 E190.06342
G1 X113.952 Y8.419 E190.12808
G1 X115.293 Y9.545 E190.20452
G1 X116.197 Y11.325 E190.29168
G1 X116.406 Y12.616 E190.34877
G1 X116.434 Y20.49 E190.6925
G1 X115.805 Y22.325 E190.77718
G1 X114.91 Y23.656 E190.8472
G1 X113.766 Y24.583 E190.91147
G1 X112.958 Y25.042 E190.95204
G1 X111.524 Y25.44 E191.01701
G1 X94.663 Y25.44 E191.75306
G1 X94.561 Y25.506 E191.75836
G1 X94.782 Y25.784 E191.77386
G1 X148.422 Y79.422 E195.08532
G1 X148.498 Y79.449 E195.08884
G1 X148.56 Y79.343 E195.0942
G1 X148.619 Y62.494 E195.82973
G1 X148.873 Y61.138 E195.88995
G1 X149.776 Y59.73 E195.96297
G1 X150.466 Y58.954 E196.0083
G1 X151.652 Y58.196 E196.06975
G1 X153.551 Y57.564 E196.15712
G1 X161.529 Y57.564 E196.50539
G1 X162.67 Y57.816 E196.5564
G1 X163.946 Y58.408 E196.6178
G1 X165.2 Y59.461 E196.68929
G1 X165.376 Y59.683 E196.70165
G1 X166.195 Y61.316 E196.7814
G1 X166.391 Y62.441 E196.83125
G1 X166.436 Y160.531 E201.11327
G1 X166.152 Y161.807 E201.17033
G1 X165.258 Y163.474 E201.25291
G1 X163.843 Y164.647 E201.33314
G1 X162.432 Y165.277 E201.4006
G1 X161.601 Y165.436 E201.43753
G1 X153.762 Y165.378 E201.77975
G1 X152.779 Y165.206 E201.82331
G1 X151.458 Y164.682 E201.88535
G1 X150.274 Y163.824 E201.94918
G1 X149.4 Y162.752 E202.00956
G1 X148.958 Y161.965 E202.04896
G1 X148.56 Y160.544 E202.11338
G1 X148.559 Y133.536 E203.29239
G1 X40.464 Y25.441 E209.96574
G1 X13.585 Y25.441 E211.13911
G1 X12.126 Y25.075 E211.20478
G1 X10.522 Y24.141 E211.2858
G1 X9.398 Y22.697 E211.36568
G1 X8.564 Y20.603 E211.46408
G1 X8.564 Y12.471 E211.81907
G1 X8.816 Y11.33 E211.87008
G1 X9.408 Y10.054 E211.93149
G1 X10.461 Y8.8 E212.00297
G0 F3600 X10.729 Y9.025
G1 F2550 X10.84 Y8.937 E212.00915
G1 X12.427 Y8.141 E212.08666
G1 X13.501 Y7.954 E212.13425
G1 X111.011 Y7.914 E216.39094
G1 X112.514 Y8.119 E216.45716
G1 X113.762 Y8.716 E216.51755
G1 X115.013 Y9.767 E216.58888
G1 X115.861 Y11.436 E216.6706
G1 X116.056 Y12.617 E216.72286
G1 X116.084 Y20.433 E217.06406
G1 X115.489 Y22.169 E217.14417
G1 X114.65 Y23.417 E217.20982
G1 X113.593 Y24.279 E217.26936
G1 X112.823 Y24.716 E217.30801
G1 X111.477 Y25.09 E217.36899
G1 X94.609 Y25.09 E218.10535
G1 X94.388 Y25.158 E218.11544
G1 X94.226 Y25.367 E218.12698
G1 X94.201 Y25.542 E218.1347
G1 X94.261 Y25.701 E218.14212
G1 X94.516 Y26.012 E218.15968
G1 X148.225 Y79.719 E221.47539
G1 X148.451 Y79.813 E221.48608
G1 X148.668 Y79.773 E221.49571
G1 X148.851 Y79.591 E221.50698
G1 X148.91 Y79.395 E221.51591
G1 X148.963 Y62.559 E222.25087
G1 X149.205 Y61.269 E222.30817
G1 X150.038 Y59.963 E222.37579
G1 X150.696 Y59.223 E222.41902
G1 X151.805 Y58.514 E222.47648
G1 X153.608 Y57.914 E222.55943
G1 X161.489 Y57.914 E222.90347
G1 X162.557 Y58.15 E222.95121
G1 X163.758 Y58.707 E223.00901
G1 X164.975 Y59.729 E223.07838
G1 X165.063 Y59.84 E223.08456
G1 X165.859 Y61.427 E223.16207
G1 X166.046 Y62.501 E223.20966
G1 X166.086 Y160.491 E227.48731
G1 X165.82 Y161.684 E227.54067
G1 X164.981 Y163.25 E227.61822
G1 X163.66 Y164.345 E227.69312
G1 X162.325 Y164.941 E227.75695
G1 X161.568 Y165.086 E227.79059
G1 X153.822 Y165.033 E228.12874
G1 X152.872 Y164.867 E228.17084
G1 X151.627 Y164.373 E228.22931
G1 X150.516 Y163.568 E228.28921
G1 X149.705 Y162.581 E228.34497
G1 X149.284 Y161.831 E228.38252
G1 X148.91 Y160.496 E228.44304
G1 X148.909 Y133.392 E229.62624
G1 X40.608 Y25.091 E236.3123
G1 X13.626 Y25.091 E237.49017
G1 X12.259 Y24.748 E237.5517
G1 X10.757 Y23.873 E237.62758
G1 X9.705 Y22.522 E237.70233
G1 X8.914 Y20.536 E237.79565
G1 X8.914 Y12.511 E238.14597
G1 X9.15 Y11.443 E238.19372
G1 X9.707 Y10.242 E238.25151
G1 X10.729 Y9.025 E238.32089
G0 F3600 X10.997 Y9.25
G1 F2550 X12.538 Y8.477 E238.39615
G1 X13.561 Y8.299 E238.44148
G1 X111.011 Y8.264 E242.69555
G1 X112.413 Y8.459 E242.75734
