;FLAVOR:Marlin
;TIME:4272
;Filament used: 6.9723m
;Layer height: 0.2
;MINX:34.4
;MINY:45.533
;MINZ:0.36
;MAXX:140.6
;MAXY:140.323
;MAXZ:31.11
;TARGET_MACHINE.NAME:Unknown
;Generated with Cura_SteamEngine 5.10.0
M104 S200
M105
M109 S200
G28 ;Home
G1 Z15.0 F6000 ;Move the platform down 15mm
;Prime the extruder
G92 E0
G1 F200 E3
G92 E0
M82 ;absolute extrusion mode
G92 E0
G92 E0
G1 F1500 E-6.5
;LAYER_COUNT:149
;LAYER:-6
M107
G0 F7200 X44.626 Y50.843 Z0.36
;TYPE:SUPPORT-INTERFACE
G1 F1500 E0
G1 F3150 X45.843 Y49.875 E0.18619
G1 X46.319 Y49.526 E0.25687
G1 X47.665 Y48.658 E0.44864
G1 X48.212 Y48.344 E0.52416
G1 X49.523 Y47.664 E0.70099
G1 X50.244 Y47.337 E0.79578
G1 X51.578 Y46.816 E0.96726
G1 X52.37 Y46.547 E1.06742
G1 X53.727 Y46.172 E1.23599
G1 X54.505 Y45.992 E1.3316
G1 X55.867 Y45.748 E1.49728
G1 X56.678 Y45.655 E1.59502
G1 X58.056 Y45.552 E1.76048
G1 X58.883 Y45.533 E1.85953
G1 X60.343 Y45.572 E2.03441
G1 X60.956 Y45.619 E2.10802
G1 X62.46 Y45.8 E2.2894
G1 X63.271 Y45.948 E2.38811
G1 X64.696 Y46.276 E2.5632
G1 X65.544 Y46.516 E2.66872
G1 X66.495 Y46.821 E2.78831
G1 X67.553 Y47.248 E2.92492
G1 X68.489 Y47.677 E3.0482
G1 X69.709 Y48.3 E3.21222
G1 X70.541 Y48.779 E3.32717
G1 X71.403 Y49.32 E3.44903
G1 X72.364 Y50.026 E3.59181
G1 X73.098 Y50.614 E3.70442
G1 X74.225 Y51.612 E3.88467
G1 X74.747 Y52.134 E3.97306
G1 X75.647 Y53.105 E4.13159
G1 X76.199 Y53.766 E4.2347
G1 X76.996 Y54.812 E4.39216
G1 X77.4 Y55.395 E4.47709
G1 X78.573 Y57.312 E4.74618
G1 X79 Y57.845 E4.82796
G1 X79.516 Y58.345 E4.91399
G1 X80.053 Y58.745 E4.99416
G1 X80.614 Y59.065 E5.0715
G1 X81.293 Y59.343 E5.15935
G1 X81.909 Y59.507 E5.23567
G1 X82.565 Y59.625 E5.31548
G1 X83.895 Y59.921 E5.47863
G1 X86.449 Y60.628 E5.79594
G1 X87.547 Y60.981 E5.93403
G1 X88.584 Y61.402 E6.06804
G1 X89.47 Y61.837 E6.18623
G1 X90.317 Y62.333 E6.30375
G1 X90.517 Y62.463 E6.33231
G1 X91.025 Y62.762 E6.40289
G1 X91.703 Y63.058 E6.49147
G1 X92.32 Y63.235 E6.56833
G1 X92.99 Y63.34 E6.64953
G1 X93.681 Y63.364 E6.73232
G1 X94.462 Y63.294 E6.82621
G1 X95.741 Y62.985 E6.98376
G1 X96.808 Y62.805 E7.11332
G1 X97.923 Y62.7 E7.24742
G1 X98.885 Y62.685 E7.36262
G1 X99.939 Y62.735 E7.48897
G1 X101.037 Y62.863 E7.62133
G1 X102.606 Y63.213 E7.81381
G1 X104.86 Y63.844 E8.09407
G1 X105.732 Y64.125 E8.20377
G1 X106.957 Y64.62 E8.36197
G1 X107.577 Y64.851 E8.44119
G1 X108.281 Y65.013 E8.52769
G1 X108.948 Y65.08 E8.60795
G1 X109.619 Y65.064 E8.68832
G1 X110.204 Y64.98 E8.75909
G1 X110.838 Y64.815 E8.83753
G1 X112.234 Y64.347 E9.01382
G1 X114.004 Y63.852 E9.23389
G1 X115.167 Y63.577 E9.37698
G1 X116.097 Y63.425 E9.48981
G1 X117.117 Y63.324 E9.61254
G1 X118.18 Y63.301 E9.73985
G1 X118.963 Y63.304 E9.83361
G1 X120.009 Y63.363 E9.95905
G1 X120.855 Y63.464 E10.06107
G1 X121.958 Y63.671 E10.19544
G1 X122.641 Y63.843 E10.27977
G1 X124.439 Y64.347 E10.50336
G1 X125.585 Y64.724 E10.64781
G1 X126.54 Y65.114 E10.77133
G1 X127.387 Y65.53 E10.88431
G1 X128.373 Y66.099 E11.02062
G1 X129.154 Y66.638 E11.13425
G1 X130.08 Y67.37 E11.27558
G1 X131.203 Y68.45 E11.46214
G1 X132.519 Y69.841 E11.69142
G1 X133.232 Y70.664 E11.8218
G1 X133.878 Y71.524 E11.95059
G1 X134.44 Y72.405 E12.07571
G1 X134.882 Y73.201 E12.18473
G1 X135.388 Y74.318 E12.33156
G1 X135.71 Y75.233 E12.4477
G1 X135.989 Y75.883 E12.5324
G1 X136.293 Y76.409 E12.60514
G1 X136.763 Y77.021 E12.69753
G1 X137.279 Y77.607 E12.79102
G1 X137.819 Y78.31 E12.89717
G1 X138.414 Y79.194 E13.02476
G1 X139.02 Y80.28 E13.17366
G1 X139.388 Y81.059 E13.27682
G1 X139.821 Y82.166 E13.41915
G1 X140.14 Y83.257 E13.55525
G1 X140.354 Y84.2 E13.67104
G1 X140.514 Y85.354 E13.81053
G1 X140.599 Y86.534 E13.95219
G1 X140.6 Y89.863 E14.35079
G1 X140.552 Y91.01 E14.48825
G1 X140.452 Y91.941 E14.60036
G1 X140.229 Y93.116 E14.74357
G1 X140.004 Y93.986 E14.85116
G1 X139.668 Y94.988 E14.97771
G1 X139.433 Y95.564 E15.05219
G1 X139.21 Y96.203 E15.13323
G1 X139.072 Y96.857 E15.21326
G1 X139.012 Y97.8 E15.3264
G1 X139.012 Y98.055 E15.35694
G1 X138.972 Y98.941 E15.46313
G1 X138.863 Y99.961 E15.58596
G1 X138.653 Y101.078 E15.72205
G1 X138.481 Y101.769 E15.80731
G1 X137.952 Y103.653 E16.04162
G1 X137.674 Y104.525 E16.1512
G1 X137.273 Y105.543 E16.28221
G1 X136.817 Y106.493 E16.40839
G1 X136.272 Y107.439 E16.53911
G1 X135.669 Y108.331 E16.66803
G1 X134.959 Y109.227 E16.80491
G1 X134.239 Y110.006 E16.93193
G1 X132.854 Y111.387 E17.16611
G1 X132.161 Y112.029 E17.27923
G1 X131.335 Y112.7 E17.40665
G1 X130.381 Y113.366 E17.54596
G1 X129.387 Y113.939 E17.68334
G1 X128.572 Y114.342 E17.7922
G1 X127.598 Y114.736 E17.918
G1 X126.579 Y115.069 E18.04636
G1 X124.642 Y115.617 E18.2874
G1 X123.909 Y115.795 E18.37771
G1 X123.254 Y115.996 E18.45975
G1 X122.639 Y116.281 E18.54091
G1 X121.99 Y116.685 E18.63245
G1 X121.065 Y117.33 E18.76747
G1 X120.051 Y117.915 E18.90764
G1 X119.236 Y118.318 E19.0165
G1 X118.262 Y118.712 E19.14231
G1 X117.243 Y119.045 E19.27067
G1 X115.347 Y119.58 E19.50656
G1 X114.189 Y119.855 E19.64907
G1 X113.254 Y120.006 E19.76247
G1 X112.058 Y120.112 E19.90624
G1 X111.069 Y120.131 E20.02468
G1 X109.919 Y120.057 E20.16266
G1 X109.007 Y119.941 E20.27274
G1 X107.829 Y119.694 E20.41686
G1 X107.265 Y119.542 E20.4868
G1 X105.459 Y119.013 E20.71213
G1 X104.533 Y118.712 E20.82871
G1 X103.412 Y118.236 E20.97454
G1 X102.543 Y117.802 E21.09084
G1 X101.88 Y117.529 E21.17669
G1 X101.337 Y117.365 E21.24461
G1 X100.646 Y117.256 E21.32837
G1 X99.94 Y117.232 E21.41296
G1 X99.269 Y117.298 E21.49369
G1 X98.568 Y117.461 E21.57986
G1 X98.104 Y117.622 E21.63867
G1 X78.999 Y125.76 E24.12512
G1 X78.428 Y126.046 E24.20159
G1 X77.834 Y126.44 E24.28693
G1 X77.314 Y126.899 E24.36998
G1 X76.857 Y127.406 E24.45171
G1 X76.487 Y127.956 E24.53108
G1 X76.129 Y128.669 E24.62661
G1 X75.915 Y129.186 E24.69361
G1 X75.423 Y130.169 E24.82523
G1 X74.976 Y130.939 E24.93183
G1 X74.337 Y131.886 E25.06862
G1 X73.672 Y132.714 E25.19578
G1 X72.963 Y133.482 E25.32093
G1 X71.082 Y135.363 E25.63945
G1 X70.382 Y136.009 E25.7535
G1 X69.555 Y136.68 E25.88102
G1 X68.6 Y137.346 E26.02043
G1 X67.607 Y137.923 E26.15794
G1 X66.792 Y138.322 E26.26659
G1 X65.822 Y138.716 E26.39195
G1 X64.839 Y139.037 E26.51577
G1 X62.245 Y139.769 E26.8385
G1 X61.143 Y140.039 E26.97435
G1 X60.13 Y140.206 E27.09728
G1 X58.939 Y140.308 E27.24041
G1 X57.95 Y140.323 E27.35884
G1 X56.798 Y140.249 E27.49706
G1 X55.882 Y140.137 E27.60756
G1 X54.714 Y139.89 E27.7505
G1 X54.109 Y139.727 E27.82553
G1 X51.704 Y139.022 E28.12561
G1 X50.702 Y138.689 E28.25204
G1 X49.64 Y138.24 E28.3901
G1 X48.844 Y137.84 E28.49676
G1 X47.949 Y137.311 E28.62125
G1 X47.073 Y136.699 E28.7492
G1 X46.234 Y136.025 E28.87806
G1 X45.49 Y135.335 E28.99956
G1 X43.549 Y133.391 E29.32848
G1 X42.789 Y132.564 E29.46297
G1 X42.127 Y131.722 E29.59122
G1 X41.571 Y130.918 E29.70826
G1 X40.998 Y129.924 E29.84564
G1 X40.535 Y128.97 E29.97261
G1 X40.141 Y127.971 E30.10119
G1 X39.875 Y127.173 E30.20191
G1 X39.141 Y124.635 E30.51826
G1 X38.944 Y124.026 E30.5949
G1 X38.671 Y123.43 E30.67339
G1 X38.294 Y122.837 E30.75753
G1 X37.725 Y122.142 E30.86508
G1 X37.178 Y121.434 E30.9722
G1 X36.499 Y120.412 E31.11912
G1 X35.978 Y119.467 E31.24833
G1 X35.53 Y118.497 E31.37626
G1 X35.156 Y117.5 E31.50376
G1 X34.856 Y116.491 E31.6298
G1 X34.654 Y115.584 E31.74107
G1 X34.483 Y114.377 E31.88703
G1 X34.4 Y113.19 E32.0295
G1 X34.401 Y109.885 E32.42523
G1 X34.448 Y108.733 E32.56328
G1 X34.545 Y107.803 E32.67524
G1 X34.767 Y106.628 E32.81842
G1 X34.996 Y105.746 E32.92753
G1 X35.351 Y104.683 E33.06172
G1 X35.822 Y103.593 E33.2039
G1 X36.599 Y102.11 E33.40436
G1 X36.837 Y101.477 E33.48534
G1 X37.017 Y100.721 E33.57839
G1 X37.084 Y100.056 E33.65842
G1 X37.064 Y99.379 E33.73951
G1 X36.961 Y98.709 E33.82068
G1 X36.773 Y98.056 E33.90204
G1 X36.404 Y97.244 E34.00884
G1 X36.048 Y96.604 E34.09653
G1 X35.585 Y95.626 E34.22609
G1 X35.156 Y94.499 E34.37048
G1 X34.856 Y93.491 E34.4964
G1 X34.654 Y92.584 E34.60767
G1 X34.483 Y91.377 E34.75363
G1 X34.401 Y90.207 E34.89407
G1 X34.4 Y86.885 E35.29183
G1 X34.448 Y85.733 E35.42989
G1 X34.545 Y84.803 E35.54185
G1 X34.767 Y83.629 E35.68491
G1 X34.996 Y82.759 E35.79263
G1 X35.335 Y81.737 E35.92155
G1 X35.779 Y80.674 E36.05949
G1 X36.264 Y79.741 E36.1854
G1 X36.491 Y79.259 E36.24919
G1 X36.715 Y78.596 E36.33298
G1 X36.858 Y77.861 E36.42264
G1 X36.901 Y77.18 E36.50434
G1 X36.9 Y67.331 E37.68363
G1 X36.976 Y65.889 E37.85653
G1 X37.042 Y65.176 E37.94226
G1 X37.251 Y63.736 E38.11649
G1 X37.459 Y62.689 E38.24431
G1 X37.674 Y61.771 E38.3572
G1 X38.055 Y60.57 E38.50806
G1 X38.352 Y59.76 E38.61136
G1 X38.977 Y58.293 E38.8023
G1 X39.289 Y57.643 E38.88863
G1 X39.931 Y56.465 E39.04926
G1 X40.373 Y55.742 E39.15073
G1 X41.15 Y54.602 E39.31592
G1 X41.581 Y54.03 E39.40167
G1 X42.597 Y52.825 E39.5904
G1 X43.016 Y52.371 E39.66437
G1 X44.081 Y51.325 E39.84311
G1 X44.626 Y50.843 E39.93022
G0 F7200 X44.606 Y51.395
G1 F3150 X112.852 Y119.64 E51.48644
G0 F7200 X114.778 Y119.303
G1 F3150 X45.854 Y50.379 E63.15754
G0 F7200 X47.183 Y49.446
G1 F3150 X116.559 Y118.822 E74.90519
G0 F7200 X118.275 Y118.275
G1 F3150 X48.596 Y48.596 E86.70414
G0 F7200 X50.103 Y47.841
G1 F3150 X119.837 Y117.574 E98.51232
G0 F7200 X121.243 Y116.718
G1 F3150 X51.717 Y47.192 E110.28536
G0 F7200 X53.452 Y46.663
G1 F3150 X122.631 Y115.843 E121.99973
G0 F7200 X124.331 Y115.28
G1 F3150 X55.306 Y46.255 E133.68794
G0 F7200 X57.322 Y46.009
G1 F3150 X126.101 Y114.787 E145.3344
G0 F7200 X127.799 Y114.222
G1 F3150 X59.527 Y45.951 E156.89502
G0 F7200 X61.986 Y46.146
G1 F3150 X129.342 Y113.503 E168.3007
G0 F7200 X130.733 Y112.632
G1 F3150 X64.832 Y46.731 E179.45991
G0 F7200 X68.492 Y48.128
G1 F3150 X131.999 Y111.634 E190.21365
G0 F7200 X133.152 Y110.524
G1 F3150 X82.69 Y60.062 E198.75853
G0 F7200 X85.736 Y60.846
G1 F3150 X134.272 Y109.382 E206.97728
G0 F7200 X135.303 Y108.15
G1 F3150 X89.431 Y62.278 E214.74492
G0 F7200 X93.163 Y63.748
G1 F3150 X136.192 Y106.777 E222.03115
G0 F7200 X136.95 Y105.272
G1 F3150 X95.206 Y63.528 E229.09978
G0 F7200 X97.119 Y63.178
G1 F3150 X137.548 Y103.607 E235.94574
G0 F7200 X138.046 Y101.842
G1 F3150 X99.31 Y63.106 E242.50502
G0 F7200 X101.942 Y63.476
G1 F3150 X138.452 Y99.986 E248.68737
G0 F7200 X138.613 Y97.883
G1 F3150 X105.057 Y64.328 E254.36942
G0 F7200 X108.421 Y65.429
G1 F3150 X138.893 Y95.901 E259.52934
G0 F7200 X139.497 Y94.242
G1 F3150 X110.558 Y65.303 E264.42966
G0 F7200 X112.273 Y64.755
G1 F3150 X139.951 Y92.434 E269.11655
G0 F7200 X140.178 Y90.397
G1 F3150 X114.039 Y64.258 E273.54274
G0 F7200 X115.905 Y63.862
G1 F3150 X140.199 Y88.156 E277.65652
G0 F7200 X140.149 Y85.843
G1 F3150 X118.01 Y63.705 E281.40529
G0 F7200 X120.379 Y63.811
G1 F3150 X139.682 Y83.113 E284.67384
G0 F7200 X137.739 Y78.907
G1 F3150 X123.266 Y64.434 E287.1246
G0 F7200 X126.763 Y65.669
G1 F3150 X134.565 Y73.471 E288.44573
G0 F7200 X110.652 Y119.703
G1 F3150 X43.452 Y52.503 E299.82491
G0 F7200 X42.384 Y53.698
G1 F3150 X108.009 Y119.323 E310.93739
G0 F7200 X104.802 Y118.379
G1 F3150 X41.387 Y54.963 E321.67572
G0 F7200 X40.485 Y56.324
G1 F3150 X101.082 Y116.922 E331.93687
G0 F7200 X98.875 Y116.977
G1 F3150 X39.672 Y57.774 E341.96189
G0 F7200 X38.969 Y59.333
G1 F3150 X97.205 Y117.569 E351.82317
G0 F7200 X95.618 Y118.245
G1 F3150 X38.346 Y60.974 E361.52112
G0 F7200 X37.856 Y62.747
G1 F3150 X94.031 Y118.921 E371.03332
G0 F7200 X92.444 Y119.597
G1 F3150 X37.518 Y64.671 E380.3341
G0 F7200 X37.331 Y66.747
G1 F3150 X90.858 Y120.273 E389.3979
G0 F7200 X89.271 Y120.949
G1 F3150 X37.299 Y68.978 E398.19839
G0 F7200 X37.299 Y71.24
G1 F3150 X87.684 Y121.625 E406.73023
G0 F7200 X86.097 Y122.301
G1 F3150 X37.299 Y73.503 E414.99334
G0 F7200 X37.299 Y75.766
G1 F3150 X84.51 Y122.976 E422.98763
G0 F7200 X82.923 Y123.652
G1 F3150 X37.243 Y77.972 E430.72276
G0 F7200 X36.719 Y79.711
G1 F3150 X81.336 Y124.328 E438.27789
G0 F7200 X79.75 Y125.004
G1 F3150 X35.979 Y81.234 E445.68968
G0 F7200 X35.374 Y82.891
G1 F3150 X78.199 Y125.717 E452.94145
G0 F7200 X76.939 Y126.719
G1 F3150 X34.963 Y84.743 E460.04937
G0 F7200 X34.802 Y86.845
G1 F3150 X75.998 Y128.041 E467.02521
G0 F7200 X75.272 Y129.578
G1 F3150 X34.8 Y89.106 E473.87845
G0 F7200 X34.899 Y91.468
G1 F3150 X74.444 Y131.013 E480.57472
G0 F7200 X73.482 Y132.313
G1 F3150 X35.533 Y94.364 E487.00074
G0 F7200 X37.278 Y98.372
G1 F3150 X72.392 Y133.486 E492.9467
G0 F7200 X71.261 Y134.618
G1 F3150 X37.413 Y100.77 E498.67828
G0 F7200 X36.856 Y102.475
G1 F3150 X70.101 Y135.721 E504.30784
G0 F7200 X68.821 Y136.704
G1 F3150 X36.092 Y103.974 E509.85002
G0 F7200 X35.464 Y105.609
G1 F3150 X67.422 Y137.567 E515.26157
G0 F7200 X65.861 Y138.268
G1 F3150 X35.022 Y107.43 E520.48354
G0 F7200 X34.817 Y109.488
G1 F3150 X64.146 Y138.816 E525.44982
G0 F7200 X62.381 Y139.314
G1 F3150 X34.8 Y111.733 E530.12019
G0 F7200 X34.862 Y114.058
G1 F3150 X60.537 Y139.733 E534.46782
G0 F7200 X58.457 Y139.915
G1 F3150 X35.374 Y116.833 E538.37645
G0 F7200 X37.585 Y121.306
G1 F3150 X56.03 Y139.752 E541.49988
G0 F7200 X53.001 Y138.985
G1 F3150 X39.926 Y125.91 E543.71391
G0 F7200 X41.221 Y129.468
G1 F3150 X49.45 Y137.697 E545.10735
G0 F600 X49.45 Y137.697 Z0.66
G0 F7200 X67.586 Y137.475
;TIME_ELAPSED:93.544715
;LAYER:-5
;TYPE:SUPPORT
G1 F3150 X67.751 Y137.31 E545.13063
G0 F7200 X75.053 Y130.008
G1 F3150 X67.951 Y137.11 E546.1328
G1 X68.563 Y136.891 E546.19766
G1 X69.314 Y136.365 E546.28914
G1 X70.132 Y135.703 E546.39414
G1 X70.808 Y135.075 E546.48621
G1 X72.633 Y133.251 E546.74367
G1 X73.298 Y132.535 E546.84117
G1 X74.019 Y131.646 E546.95538
G1 X74.633 Y130.738 E547.06475
G1 X75.169 Y129.807 E547.17194
G1 X75.543 Y129.043 E547.25682
G1 X75.94 Y128.067 E547.36195
G1 X75.983 Y128.067 E547.36624
G1 X76.121 Y127.789 E547.39721
G1 X76.56 Y127.145 E547.47498
G1 X77.005 Y126.641 E547.54207
G1 X132.843 Y70.804 E555.42134
G1 X133.21 Y71.6 E555.5088
G1 X133.379 Y71.489 E555.52898
G1 X133.454 Y71.607 E555.54293
G1 X80.28 Y124.781 E563.04635
G1 X82.743 Y123.732 E563.31347
G1 X134.017 Y72.458 E570.54879
G1 X134.514 Y73.375 E570.65286
G1 X85.206 Y122.683 E577.61075
G1 X87.669 Y121.634 E577.87788
G1 X134.966 Y74.337 E584.55199
G1 X135.34 Y75.378 E584.66236
G1 X90.133 Y120.585 E591.04156
G1 X92.596 Y119.536 E591.30868
G1 X135.793 Y76.339 E597.40424
G1 X136.007 Y76.698 E597.44595
G1 X136.375 Y77.172 E597.50582
G1 X95.058 Y118.488 E603.33603
G1 X97.522 Y117.438 E603.60328
G1 X137.025 Y77.936 E609.17751
G1 X137.642 Y78.733 E609.27808
G1 X99.498 Y116.877 E614.66061
G1 X99.928 Y116.835 E614.70372
G1 X100.612 Y116.852 E614.77199
G1 X100.896 Y116.893 E614.80062
G1 X138.185 Y79.604 E620.0625
G1 X138.689 Y80.514 E620.1663
G1 X102.048 Y117.155 E625.33674
G1 X103.04 Y117.577 E625.44431
G1 X139.126 Y81.491 E630.53643
G1 X139.517 Y82.514 E630.64571
G1 X103.981 Y118.051 E635.66029
G1 X104.533 Y118.281 E635.71996
G1 X105.005 Y118.44 E635.76966
G1 X139.816 Y83.63 E640.68179
G1 X139.944 Y84.201 E640.74018
G1 X140.035 Y84.825 E640.8031
G1 X106.079 Y118.781 E645.59466
G1 X107.173 Y119.101 E645.7084
G1 X140.168 Y86.106 E650.36435
G1 X140.2 Y86.555 E650.40926
G1 X140.2 Y87.488 E650.50236
G1 X108.301 Y119.387 E655.00365
G1 X109.034 Y119.54 E655.07837
G1 X109.502 Y119.601 E655.12546
G1 X140.2 Y88.902 E659.45735
G1 X140.2 Y90.317 E659.59854
G1 X110.788 Y119.729 E663.74889
G1 X112.218 Y119.713 E663.89158
G1 X140.063 Y91.868 E667.82081
G1 X139.873 Y92.889 E667.92444
G1 X139.673 Y93.673 E668.00517
G1 X113.836 Y119.509 E671.65098
G1 X114.13 Y119.461 E671.6807
G1 X115.661 Y119.098 E671.8377
G1 X138.913 Y95.847 E675.11874
G1 X138.823 Y96.104 E675.14591
G1 X138.668 Y96.855 E675.22243
G1 X138.628 Y97.545 E675.29139
G1 X117.688 Y118.486 E678.24632
G1 X117.979 Y118.393 E678.2768
G1 X119.069 Y117.955 E678.39402
G1 X120.178 Y117.41 E678.51731
G1 X138.562 Y99.026 E681.1115
G1 X138.458 Y99.957 E681.20497
G1 X138.323 Y100.679 E681.27826
G1 X123.525 Y115.477 E683.36642
G1 X124.527 Y115.234 E683.46929
G1 X125.434 Y114.982 E683.56322
G1 X137.84 Y102.576 E685.31384
G1 X137.57 Y103.539 E685.41364
G1 X137.22 Y104.61 E685.52606
G1 X127.48 Y114.35 E686.90048
G1 X128.405 Y113.979 E686.99993
G1 X129.225 Y113.575 E687.09114
G1 X129.565 Y113.379 E687.1303
G1 X129.462 Y113.225 E687.14878
G1 X130.33 Y112.915 E687.24075
