;FLAVOR:Marlin
;TIME:4361
;Filament used: 7.01054m
;Layer height: 0.2
;MINX:34.4
;MINY:45.513
;MINZ:0.36
;MAXX:140.6
;MAXY:140.323
;MAXZ:31.11
;TARGET_MACHINE.NAME:Unknown
;Generated with Cura_SteamEngine 5.10.0
M104 S200
M105
M109 S200
G28 ;Home
G1 Z15.0 F6000 ;Move the platform down 15mm
;Prime the extruder
G92 E0
G1 F200 E3
G92 E0
M82 ;absolute extrusion mode
G92 E0
G92 E0
G1 F1500 E-6.5
;LAYER_COUNT:149
;LAYER:-6
M107
G0 F7200 X47.706 Y66.278 Z0.36
;TYPE:SUPPORT-INTERFACE
G1 F1500 E0
G1 F3150 X48.633 Y65.709 E0.13024
G1 X49.577 Y65.222 E0.25742
G1 X50.461 Y64.834 E0.37302
G1 X51.799 Y64.383 E0.54208
G1 X53.607 Y63.871 E0.76708
G1 X54.63 Y63.616 E0.89332
G1 X55.768 Y63.425 E1.03148
G1 X56.887 Y63.32 E1.16606
G1 X57.845 Y63.305 E1.28078
G1 X58.903 Y63.355 E1.4076
G1 X60.001 Y63.483 E1.53996
G1 X61.566 Y63.833 E1.73198
G1 X62.524 Y64.101 E1.85109
G1 X63.174 Y64.238 E1.93063
G1 X63.859 Y64.296 E2.01294
G1 X64.575 Y64.265 E2.09875
G1 X65.413 Y64.101 E2.20099
G1 X67.298 Y63.579 E2.43519
G1 X68.387 Y63.308 E2.56956
G1 X69.492 Y63.118 E2.70381
G1 X70.673 Y63.016 E2.84575
G1 X71.561 Y63.001 E2.95209
G1 X72.705 Y63.055 E3.08922
G1 X73.603 Y63.168 E3.19759
G1 X73.812 Y63.206 E3.22303
G1 X74.465 Y63.28 E3.30172
G1 X75.175 Y63.268 E3.38674
G1 X75.854 Y63.171 E3.46887
G1 X76.518 Y62.983 E3.5515
G1 X77.176 Y62.706 E3.63698
G1 X77.977 Y62.239 E3.748
G1 X78.945 Y61.738 E3.87851
G1 X79.829 Y61.35 E3.9941
G1 X81.178 Y60.899 E4.16441
G1 X83.585 Y60.22 E4.46387
G1 X84.768 Y59.937 E4.60951
G1 X85.706 Y59.782 E4.72335
G1 X86.885 Y59.68 E4.86504
G1 X87.769 Y59.665 E4.97091
G1 X88.826 Y59.719 E5.09763
G1 X89.805 Y59.832 E5.21563
G1 X90.561 Y59.986 E5.30801
G1 X91.168 Y60.083 E5.38162
G1 X91.851 Y60.108 E5.46345
G1 X92.553 Y60.045 E5.54784
G1 X93.157 Y59.918 E5.62175
G1 X93.897 Y59.652 E5.7159
G1 X94.494 Y59.341 E5.7965
G1 X95.044 Y58.961 E5.87655
G1 X95.56 Y58.502 E5.95924
G1 X96.016 Y57.978 E6.04241
G1 X96.419 Y57.364 E6.13035
G1 X96.858 Y56.578 E6.23815
G1 X97.301 Y55.853 E6.33988
G1 X98.13 Y54.633 E6.51649
G1 X98.618 Y53.986 E6.61353
G1 X99.588 Y52.829 E6.79431
G1 X100.141 Y52.234 E6.89157
G1 X100.862 Y51.509 E7.014
G1 X101.852 Y50.648 E7.17109
G1 X102.482 Y50.148 E7.2674
G1 X103.754 Y49.235 E7.45487
G1 X104.281 Y48.894 E7.53003
G1 X105.683 Y48.088 E7.72367
G1 X106.31 Y47.769 E7.8079
G1 X107.524 Y47.221 E7.96738
G1 X108.293 Y46.916 E8.06644
G1 X109.726 Y46.439 E8.24728
G1 X110.307 Y46.276 E8.31953
G1 X111.872 Y45.921 E8.51168
G1 X112.52 Y45.804 E8.59052
G1 X114.044 Y45.619 E8.77434
G1 X114.919 Y45.552 E8.87942
G1 X116.058 Y45.513 E9.01588
G1 X117.149 Y45.556 E9.14661
G1 X117.944 Y45.615 E9.24206
G1 X119.544 Y45.816 E9.43515
G1 X120.14 Y45.921 E9.50761
G1 X121.685 Y46.276 E9.69742
G1 X122.482 Y46.5 E9.79655
G1 X123.48 Y46.813 E9.92179
G1 X124.642 Y47.288 E10.0721
G1 X125.382 Y47.621 E10.16926
G1 X126.82 Y48.364 E10.36306
G1 X127.561 Y48.791 E10.46547
G1 X128.363 Y49.296 E10.57895
G1 X129.293 Y49.971 E10.71654
G1 X130.098 Y50.614 E10.8399
G1 X131.23 Y51.62 E11.02123
G1 X131.748 Y52.135 E11.10869
G1 X132.647 Y53.105 E11.26705
G1 X133.199 Y53.766 E11.37016
G1 X133.996 Y54.812 E11.52762
G1 X134.404 Y55.403 E11.61361
G1 X135.276 Y56.827 E11.81354
G1 X135.611 Y57.453 E11.89856
G1 X136.187 Y58.653 E12.05794
G1 X136.515 Y59.431 E12.15903
G1 X137.008 Y60.782 E12.33123
G1 X137.31 Y61.8 E12.45837
G1 X137.569 Y62.784 E12.58021
G1 X137.765 Y63.839 E12.70869
G1 X137.943 Y65.015 E12.8511
G1 X138.056 Y66.09 E12.98053
G1 X138.096 Y67.069 E13.09785
G1 X138.1 Y77.217 E14.31294
G1 X138.137 Y77.872 E14.39149
G1 X138.269 Y78.553 E14.47455
G1 X138.484 Y79.206 E14.55686
G1 X138.774 Y79.824 E14.6386
G1 X139.018 Y80.277 E14.70021
G1 X139.388 Y81.059 E14.8038
G1 X139.821 Y82.166 E14.94612
G1 X140.14 Y83.257 E15.08223
G1 X140.354 Y84.2 E15.19801
G1 X140.513 Y85.354 E15.33749
G1 X140.599 Y86.533 E15.47903
G1 X140.6 Y89.863 E15.87776
G1 X140.552 Y91.009 E16.01509
G1 X140.436 Y92.031 E16.13825
G1 X140.229 Y93.116 E16.27051
G1 X140.004 Y93.986 E16.37811
G1 X139.661 Y95.007 E16.50707
G1 X139.217 Y96.071 E16.64512
G1 X138.387 Y97.658 E16.85956
G1 X138.157 Y98.274 E16.93829
G1 X137.98 Y99.017 E17.02974
G1 X137.916 Y99.685 E17.11009
G1 X137.932 Y100.353 E17.1901
G1 X138.038 Y101.03 E17.27215
G1 X138.229 Y101.705 E17.35615
G1 X138.584 Y102.487 E17.45898
G1 X139.011 Y103.263 E17.56503
G1 X139.388 Y104.059 E17.67049
G1 X139.821 Y105.166 E17.81282
G1 X140.14 Y106.257 E17.94892
G1 X140.354 Y107.2 E18.0647
G1 X140.513 Y108.354 E18.20418
G1 X140.599 Y109.533 E18.34573
G1 X140.6 Y112.863 E18.74445
G1 X140.552 Y114.01 E18.88191
G1 X140.463 Y114.855 E18.98364
G1 X140.26 Y115.971 E19.11946
G1 X140.003 Y116.987 E19.24495
G1 X139.661 Y118.007 E19.37376
G1 X139.221 Y119.063 E19.51074
G1 X138.703 Y120.067 E19.64601
G1 X138.218 Y120.855 E19.7568
G1 X137.543 Y121.806 E19.89644
G1 X136.81 Y122.676 E20.03266
G1 X136.196 Y123.316 E20.13885
G1 X135.371 Y124.063 E20.27211
G1 X134.725 Y124.62 E20.37424
G1 X134.243 Y125.168 E20.46163
G1 X133.862 Y125.739 E20.54382
G1 X133.576 Y126.309 E20.62018
G1 X133.335 Y126.99 E20.70667
G1 X132.991 Y128.096 E20.84536
G1 X132.535 Y129.206 E20.98905
G1 X132.055 Y130.17 E21.11799
G1 X131.609 Y130.938 E21.22433
G1 X130.965 Y131.886 E21.36155
G1 X130.304 Y132.715 E21.48851
G1 X129.595 Y133.482 E21.61357
G1 X127.71 Y135.363 E21.93242
G1 X127.013 Y136.009 E22.04621
G1 X126.187 Y136.68 E22.17364
G1 X125.229 Y137.346 E22.31334
G1 X124.235 Y137.923 E22.45096
G1 X123.42 Y138.322 E22.55961
G1 X122.454 Y138.716 E22.68452
G1 X121.471 Y139.037 E22.80834
G1 X118.873 Y139.769 E23.13153
G1 X117.775 Y140.039 E23.26692
G1 X116.758 Y140.206 E23.39032
G1 X115.567 Y140.308 E23.53345
G1 X114.578 Y140.323 E23.65188
G1 X113.426 Y140.249 E23.7901
G1 X112.514 Y140.137 E23.90012
G1 X111.342 Y139.89 E24.04354
G1 X110.737 Y139.727 E24.11856
G1 X108.332 Y139.022 E24.41864
G1 X107.33 Y138.689 E24.54507
G1 X106.268 Y138.24 E24.68313
G1 X105.472 Y137.84 E24.7898
G1 X104.577 Y137.311 E24.91428
G1 X103.701 Y136.7 E25.04216
G1 X102.866 Y136.025 E25.17072
G1 X102.118 Y135.335 E25.29257
G1 X100.182 Y133.391 E25.62108
G1 X99.421 Y132.564 E25.75565
G1 X98.754 Y131.721 E25.88436
G1 X98.199 Y130.918 E26.00124
G1 X97.63 Y129.924 E26.13838
G1 X97.19 Y129.028 E26.2579
G1 X96.833 Y128.152 E26.37116
G1 X96.789 Y128.012 E26.38873
G1 X96.488 Y127.32 E26.47909
G1 X96.128 Y126.723 E26.56256
G1 X95.734 Y126.22 E26.63907
G1 X95.232 Y125.717 E26.72416
G1 X94.719 Y125.323 E26.80161
G1 X93.827 Y124.836 E26.9233
G1 X76.87 Y117.614 E29.13014
G1 X76.238 Y117.39 E29.21043
G1 X75.586 Y117.248 E29.29033
G1 X74.887 Y117.188 E29.37433
G1 X74.174 Y117.219 E29.45978
G1 X73.536 Y117.327 E29.53726
G1 X72.878 Y117.526 E29.61957
G1 X72.188 Y117.84 E29.71034
G1 X71.343 Y118.254 E29.82301
G1 X70.374 Y118.652 E29.94844
G1 X69.351 Y118.985 E30.07726
G1 X67.456 Y119.52 E30.31303
G1 X66.297 Y119.791 E30.45555
G1 X65.365 Y119.946 E30.56867
G1 X64.167 Y120.052 E30.71268
G1 X63.178 Y120.067 E30.83111
G1 X62.026 Y119.993 E30.96933
G1 X61.114 Y119.881 E31.07935
G1 X59.938 Y119.634 E31.22324
G1 X59.373 Y119.482 E31.29329
G1 X57.567 Y118.949 E31.51876
G1 X56.743 Y118.68 E31.62254
G1 X55.673 Y118.243 E31.76094
G1 X54.723 Y117.772 E31.8879
G1 X53.828 Y117.242 E32.01244
G1 X52.921 Y116.614 E32.14453
G1 X52.248 Y116.122 E32.24435
G1 X51.675 Y115.812 E32.32236
G1 X51.029 Y115.558 E32.40547
G1 X50.482 Y115.413 E32.47323
G1 X49.621 Y115.23 E32.57863
G1 X48.956 Y115.054 E32.661
G1 X47.218 Y114.541 E32.87797
G1 X46.394 Y114.275 E32.98165
G1 X45.326 Y113.839 E33.11977
G1 X44.376 Y113.364 E33.24695
G1 X43.332 Y112.744 E33.39234
G1 X42.437 Y112.103 E33.52415
G1 X41.621 Y111.423 E33.65133
G1 X41.051 Y110.892 E33.74461
G1 X39.594 Y109.431 E33.99167
G1 X38.833 Y108.6 E34.12659
G1 X38.166 Y107.761 E34.25492
G1 X37.615 Y106.962 E34.37114
G1 X37.042 Y105.964 E34.50893
G1 X36.606 Y105.076 E34.62738
G1 X36.244 Y104.181 E34.74298
G1 X35.934 Y103.249 E34.86058
G1 X35.383 Y101.352 E35.09711
G1 X35.128 Y100.313 E35.22521
G1 X34.969 Y99.403 E35.33582
G1 X34.856 Y98.368 E35.46048
G1 X34.821 Y97.239 E35.59573
G1 X34.864 Y96.267 E35.71223
G1 X34.966 Y95.328 E35.82532
G1 X35 Y94.677 E35.90338
G1 X34.955 Y94.015 E35.98282
G1 X34.829 Y93.351 E36.06375
G1 X34.728 Y92.943 E36.11408
G1 X34.56 Y92.021 E36.22629
G1 X34.448 Y91.013 E36.34773
G1 X34.4 Y89.867 E36.48507
G1 X34.4 Y86.885 E36.84212
G1 X34.448 Y85.733 E36.98018
G1 X34.545 Y84.803 E37.09214
G1 X34.767 Y83.629 E37.2352
G1 X34.996 Y82.759 E37.34292
G1 X35.335 Y81.737 E37.47184
G1 X35.78 Y80.677 E37.60949
G1 X36.242 Y79.772 E37.73116
G1 X36.779 Y78.888 E37.85501
G1 X37.453 Y77.938 E37.99448
G1 X38.186 Y77.068 E38.13069
G1 X38.799 Y76.432 E38.23646
G1 X39.623 Y75.683 E38.36979
G1 X39.885 Y75.465 E38.4106
G1 X40.362 Y75.001 E38.49028
G1 X40.799 Y74.438 E38.57561
G1 X41.16 Y73.804 E38.66297
G1 X41.203 Y73.743 E38.67191
G1 X41.644 Y72.868 E38.78923
G1 X42.24 Y71.858 E38.92965
G1 X42.852 Y70.995 E39.05633
G1 X43.938 Y69.724 E39.2565
G1 X45.253 Y68.338 E39.48526
G1 X46.036 Y67.578 E39.61592
G1 X46.866 Y66.884 E39.74546
G1 X47.706 Y66.278 E39.86948
G0 F7200 X48.288 Y66.39
G1 F3150 X120.728 Y138.83 E52.13596
G0 F7200 X122.448 Y138.287
G1 F3150 X49.746 Y65.585 E64.44681
G0 F7200 X51.373 Y64.949
G1 F3150 X124.01 Y137.587 E76.74673
G0 F7200 X125.415 Y136.729
G1 F3150 X53.114 Y64.427 E88.98976
G0 F7200 X54.922 Y63.973
G1 F3150 X126.699 Y135.75 E101.14397
G0 F7200 X127.86 Y134.648
G1 F3150 X56.932 Y63.72 E113.15442
G0 F7200 X59.276 Y63.802
G1 F3150 X128.993 Y133.518 E124.95972
G0 F7200 X130.085 Y132.348
G1 F3150 X62.149 Y64.412 E136.46352
G0 F7200 X64.656 Y64.656
G1 F3150 X131.05 Y131.05 E147.70622
G0 F7200 X131.882 Y129.62
G1 F3150 X66.484 Y64.221 E158.78034
G0 F7200 X68.275 Y63.749
G1 F3150 X132.577 Y128.051 E169.66879
G0 F7200 X133.14 Y126.351
G1 F3150 X70.243 Y63.455 E180.31924
G0 F7200 X72.498 Y63.447
G1 F3150 X133.951 Y124.9 E190.72526
G0 F7200 X135.09 Y123.776
G1 F3150 X74.984 Y63.671 E200.9031
G0 F7200 X76.854 Y63.278
G1 F3150 X136.254 Y122.677 E210.96139
G0 F7200 X137.299 Y121.46
G1 F3150 X78.341 Y62.502 E220.94493
G0 F7200 X79.871 Y61.769
G1 F3150 X138.209 Y120.107 E230.82347
G0 F7200 X138.976 Y118.612
G1 F3150 X81.569 Y61.204 E240.54445
G0 F7200 X83.335 Y60.707
G1 F3150 X139.59 Y116.963 E250.07036
G0 F7200 X140.009 Y115.119
G1 F3150 X85.167 Y60.277 E259.35692
G0 F7200 X87.227 Y60.074
G1 F3150 X140.193 Y113.04 E268.32581
G0 F7200 X140.199 Y110.784
G1 F3150 X89.63 Y60.214 E276.8889
G0 F7200 X92.162 Y60.484
G1 F3150 X140.119 Y108.44 E285.00951
G0 F7200 X139.528 Y105.587
G1 F3150 X93.985 Y60.044 E292.72144
G0 F7200 X95.394 Y59.19
G1 F3150 X137.778 Y101.574 E299.89845
G0 F7200 X137.571 Y99.105
G1 F3150 X96.474 Y58.008 E306.85753
G0 F7200 X97.318 Y56.589
G1 F3150 X138.092 Y97.362 E313.76183
G0 F7200 X138.867 Y95.874
G1 F3150 X98.213 Y55.221 E320.6458
G0 F7200 X99.186 Y53.931
G1 F3150 X139.497 Y94.242 E327.47178
G0 F7200 X139.952 Y92.434
G1 F3150 X100.237 Y52.719 E334.19684
G0 F7200 X101.374 Y51.594
G1 F3150 X140.178 Y90.397 E340.76755
G0 F7200 X140.199 Y88.156
G1 F3150 X102.605 Y50.562 E347.13346
G0 F7200 X103.917 Y49.611
G1 F3150 X140.147 Y85.841 E353.26839
G0 F7200 X139.682 Y83.113
G1 F3150 X105.324 Y48.756 E359.08625
G0 F7200 X106.813 Y47.981
G1 F3150 X138.078 Y79.247 E364.38053
G0 F7200 X137.7 Y76.606
G1 F3150 X108.399 Y47.305 E369.34215
G0 F7200 X110.106 Y46.749
G1 F3150 X137.699 Y74.342 E374.01456
G0 F7200 X137.698 Y72.078
G1 F3150 X111.936 Y46.317 E378.37683
G0 F7200 X113.92 Y46.038
G1 F3150 X137.697 Y69.815 E382.40306
G0 F7200 X137.696 Y67.551
G1 F3150 X116.059 Y45.914 E386.06692
G0 F7200 X118.496 Y46.088
G1 F3150 X137.555 Y65.147 E389.29423
G0 F7200 X137.049 Y62.378
G1 F3150 X121.26 Y46.589 E391.96783
G0 F7200 X124.674 Y47.741
G1 F3150 X135.876 Y58.942 E393.86461
G0 F7200 X91.903 Y123.582
G1 F3150 X41.789 Y73.468 E402.35057
G0 F7200 X40.951 Y74.892
G1 F3150 X87.962 Y121.903 E410.31108
G0 F7200 X84.021 Y120.225
G1 F3150 X39.831 Y76.034 E417.79399
G0 F7200 X38.672 Y77.139
G1 F3150 X80.08 Y118.546 E424.80564
G0 F7200 X76.254 Y116.983
G1 F3150 X37.639 Y78.368 E431.34443
G0 F7200 X36.736 Y79.728
G1 F3150 X73.874 Y116.866 E437.63312
G0 F7200 X72.158 Y117.413
G1 F3150 X35.98 Y81.235 E443.75925
G0 F7200 X35.374 Y82.891
G1 F3150 X70.606 Y118.124 E449.72527
G0 F7200 X68.913 Y118.693
G1 F3150 X34.963 Y84.743 E455.47413
G0 F7200 X34.802 Y86.845
G1 F3150 X67.14 Y119.184 E460.9501
G0 F7200 X65.249 Y119.555
G1 F3150 X34.8 Y89.105 E466.1062
G0 F7200 X34.901 Y91.47
G1 F3150 X63.092 Y119.661 E470.87987
G0 F7200 X60.515 Y119.346
G1 F3150 X35.369 Y94.2 E475.13792
G0 F7200 X35.261 Y96.355
G1 F3150 X57.37 Y118.464 E478.8817
G0 F7200 X52.386 Y115.743
G1 F3150 X35.288 Y98.645 E481.77695
G0 F7200 X35.826 Y101.446
G1 F3150 X49.044 Y114.663 E484.01511
G0 F7200 X45.661 Y113.543
G1 F3150 X36.931 Y104.813 E485.49339
G0 F7200 X42.61 Y72.026
G1 F3150 X109.545 Y138.961 E496.82769
G0 F7200 X112.59 Y139.743
G1 F3150 X43.592 Y70.745 E508.51133
G0 F7200 X44.657 Y69.547
G1 F3150 X115.026 Y139.916 E520.42712
G0 F7200 X117.115 Y139.742
G1 F3150 X45.768 Y68.396 E532.50843
G0 F7200 X46.962 Y67.326
G1 F3150 X118.963 Y139.328 E544.70066
G0 F7200 X105.959 Y137.637
G1 F3150 X97.91 Y129.589 E546.06354
G0 F600 X97.91 Y129.589 Z0.66
G0 F7200 X124.07 Y137.56
;TIME_ELAPSED:94.430523
;LAYER:-5
;TYPE:SUPPORT
G1 F3150 X124.357 Y137.273 E546.10403
G0 F7200 X131.766 Y129.864
G1 F3150 X124.485 Y137.144 E547.13139
G1 X125.193 Y136.891 E547.20641
G1 X125.943 Y136.365 E547.29782
G1 X126.761 Y135.703 E547.40282
G1 X127.437 Y135.075 E547.49488
G1 X129.263 Y133.251 E547.75241
G1 X129.928 Y132.534 E547.84999
G1 X130.649 Y131.646 E547.96412
G1 X131.263 Y130.737 E548.07357
G1 X131.799 Y129.806 E548.18077
G1 X132.178 Y129.034 E548.26658
G1 X132.618 Y127.937 E548.38451
G1 X132.773 Y127.443 E548.43617
G1 X121.66 Y138.555 E550.00427
G1 X121.15 Y138.72 E550.05775
G1 X119.665 Y139.136 E550.21163
G1 X137.189 Y121.612 E552.68446
G1 X137.847 Y120.704 E552.79635
G1 X138.424 Y119.744 E552.90811
G1 X138.828 Y118.955 E552.99655
G1 X139.122 Y118.265 E553.07139
G1 X117.748 Y139.639 E556.08749
G1 X116.593 Y139.822 E556.20418
G1 X116.11 Y139.863 E556.25254
G1 X139.827 Y116.145 E559.59934
G1 X140.03 Y115.03 E559.71242
G1 X140.097 Y114.461 E559.76959
G1 X114.629 Y139.929 E563.3634
G1 X113.3 Y139.844 E563.49628
G1 X140.195 Y112.949 E567.29146
G1 X140.2 Y111.53 E567.43304
G1 X112.09 Y139.64 E571.39967
G1 X111.423 Y139.499 E571.46769
G1 X110.944 Y139.371 E571.51717
G1 X140.2 Y110.116 E575.64543
G1 X140.2 Y109.549 E575.70201
G1 X140.144 Y108.758 E575.78113
G1 X109.849 Y139.053 E580.05608
G1 X108.755 Y138.732 E580.16985
G1 X140.007 Y107.48 E584.57984
G1 X139.771 Y106.432 E584.68703
G1 X139.729 Y106.344 E584.69676
G1 X107.671 Y138.402 E589.22049
G1 X106.678 Y137.981 E589.32811
G1 X139.415 Y105.244 E593.94765
G1 X139.023 Y104.222 E594.05687
G1 X105.725 Y137.52 E598.75558
G1 X104.834 Y136.997 E598.85867
G1 X138.56 Y103.27 E603.61784
G1 X138.238 Y102.687 E603.6843
G1 X138.08 Y102.337 E603.72261
G1 X103.996 Y136.42 E608.53216
G1 X103.214 Y135.789 E608.63242
G1 X137.698 Y101.304 E613.49856
G1 X137.652 Y101.143 E613.51527
G1 X137.534 Y100.374 E613.5929
G1 X137.524 Y100.063 E613.62394
G1 X102.471 Y135.117 E618.57037
G1 X101.763 Y134.411 E618.67014
G1 X137.693 Y98.48 E623.74032
G1 X137.749 Y98.244 E623.76452
G1 X138.018 Y97.514 E623.84215
G1 X138.285 Y96.994 E623.90047
G1 X138.417 Y96.757 E623.92754
G1 X138.843 Y95.916 E624.02161
G1 X101.055 Y133.704 E629.35391
G1 X100.353 Y132.992 E629.45367
G1 X139.673 Y93.673 E635.00208
G1 X139.873 Y92.889 E635.08281
G1 X140.063 Y91.868 E635.18644
G1 X99.684 Y132.247 E640.88435
G1 X99.051 Y131.466 E640.98466
G1 X140.2 Y90.317 E646.79123
G1 X140.2 Y88.902 E646.93242
G1 X98.543 Y130.559 E652.81067
G1 X98.337 Y129.988 E652.87124
G1 X98.184 Y130.091 E652.88964
G1 X97.972 Y129.716 E652.93263
G1 X140.2 Y87.488 E658.89145
G1 X140.2 Y86.555 E658.98455
G1 X140.168 Y86.106 E659.02946
G1 X97.515 Y128.759 E665.04826
G1 X97.111 Y127.749 E665.1568
G1 X140.035 Y84.825 E671.21384
G1 X139.944 Y84.201 E671.27677
G1 X139.816 Y83.63 E671.33515
