;FLAVOR:Marlin
;TIME:4382
;Filament used: 7.04355m
;Layer height: 0.2
;MINX:34.4
;MINY:45.513
;MINZ:0.36
;MAXX:140.6
;MAXY:140.683
;MAXZ:31.11
;TARGET_MACHINE.NAME:Unknown
;Generated with Cura_SteamEngine 5.10.0
M104 S200
M105
M109 S200
G28 ;Home
G1 Z15.0 F6000 ;Move the platform down 15mm
;Prime the extruder
G92 E0
G1 F200 E3
G92 E0
M82 ;absolute extrusion mode
G92 E0
G92 E0
G1 F1500 E-6.5
;LAYER_COUNT:149
;LAYER:-6
M107
G0 F7200 X47.026 Y66.278 Z0.36
;TYPE:SUPPORT-INTERFACE
G1 F1500 E0
G1 F3150 X47.953 Y65.709 E0.13024
G1 X48.896 Y65.222 E0.25732
G1 X49.785 Y64.834 E0.37346
G1 X51.234 Y64.347 E0.55649
G1 X53.064 Y63.836 E0.78399
G1 X54.167 Y63.577 E0.91966
G1 X55.097 Y63.425 E1.03249
G1 X56.117 Y63.324 E1.15522
G1 X57.184 Y63.301 E1.28301
G1 X57.997 Y63.304 E1.38035
G1 X58.88 Y63.347 E1.4862
G1 X59.994 Y63.472 E1.62043
G1 X61.152 Y63.706 E1.76189
G1 X61.77 Y63.87 E1.83844
G1 X63.319 Y64.306 E2.03112
G1 X63.98 Y64.447 E2.11205
G1 X64.652 Y64.504 E2.1928
G1 X65.336 Y64.472 E2.27479
G1 X66.152 Y64.339 E2.37378
G1 X67.551 Y63.867 E2.55057
G1 X69.711 Y63.259 E2.81925
G1 X70.67 Y63.02 E2.93759
G1 X71.795 Y62.834 E3.07413
G1 X73.002 Y62.724 E3.21925
G1 X73.885 Y62.709 E3.32499
G1 X74.946 Y62.759 E3.45217
G1 X75.959 Y62.88 E3.57433
G1 X76.574 Y63.008 E3.64954
G1 X77.225 Y63.11 E3.72844
G1 X77.883 Y63.132 E3.80727
G1 X78.577 Y63.07 E3.8907
G1 X79.197 Y62.938 E3.9666
G1 X79.927 Y62.668 E4.0598
G1 X80.574 Y62.331 E4.14714
G1 X81.132 Y61.993 E4.22526
G1 X82.057 Y61.514 E4.34998
G1 X82.964 Y61.118 E4.46848
G1 X84.322 Y60.663 E4.63997
G1 X86.861 Y59.948 E4.95581
G1 X88.044 Y59.669 E5.10134
G1 X88.971 Y59.514 E5.21388
G1 X90.152 Y59.412 E5.35581
G1 X91.233 Y59.401 E5.48525
G1 X91.772 Y59.436 E5.54993
G1 X92.496 Y59.428 E5.63662
G1 X93.131 Y59.341 E5.71337
G1 X93.773 Y59.171 E5.79289
G1 X94.456 Y58.894 E5.88113
G1 X95.038 Y58.57 E5.96089
G1 X95.578 Y58.167 E6.04157
G1 X96.088 Y57.674 E6.1265
G1 X96.494 Y57.167 E6.20428
G1 X96.801 Y56.688 E6.2724
G1 X97.403 Y55.689 E6.41205
G1 X97.963 Y54.832 E6.53463
G1 X98.76 Y53.796 E6.69114
G1 X99.28 Y53.182 E6.78748
G1 X100.366 Y52.009 E6.97889
G1 X100.891 Y51.507 E7.06586
G1 X102.005 Y50.528 E7.24344
G1 X102.55 Y50.096 E7.32671
G1 X103.753 Y49.232 E7.50405
G1 X104.28 Y48.895 E7.57895
G1 X105.683 Y48.088 E7.77275
G1 X106.31 Y47.769 E7.85698
G1 X107.524 Y47.221 E8.01646
G1 X108.293 Y46.916 E8.11552
G1 X109.726 Y46.439 E8.29636
G1 X110.307 Y46.276 E8.36861
G1 X111.872 Y45.921 E8.56076
G1 X112.52 Y45.804 E8.6396
G1 X114.044 Y45.619 E8.82342
G1 X114.919 Y45.552 E8.9285
G1 X116.058 Y45.513 E9.06496
G1 X117.149 Y45.556 E9.19569
G1 X117.944 Y45.615 E9.29114
G1 X119.544 Y45.816 E9.48423
G1 X120.14 Y45.921 E9.55669
G1 X121.685 Y46.276 E9.7465
G1 X122.482 Y46.5 E9.84563
G1 X123.48 Y46.813 E9.97086
G1 X124.642 Y47.288 E10.12117
G1 X125.382 Y47.621 E10.21834
G1 X126.82 Y48.364 E10.41214
G1 X127.561 Y48.791 E10.51455
G1 X128.363 Y49.296 E10.62803
G1 X129.293 Y49.971 E10.76562
G1 X130.102 Y50.619 E10.88973
G1 X131.131 Y51.526 E11.05397
G1 X131.748 Y52.131 E11.15744
G1 X132.647 Y53.104 E11.31606
G1 X133.199 Y53.766 E11.41926
G1 X133.996 Y54.812 E11.57672
G1 X134.404 Y55.403 E11.66271
G1 X135.276 Y56.827 E11.86264
G1 X135.611 Y57.453 E11.94766
G1 X136.195 Y58.669 E12.10918
G1 X136.515 Y59.431 E12.20813
G1 X137.008 Y60.782 E12.38033
G1 X137.31 Y61.801 E12.50759
G1 X137.573 Y62.793 E12.63047
G1 X137.745 Y63.696 E12.74054
G1 X137.943 Y65.015 E12.90024
G1 X138.056 Y66.09 E13.02967
G1 X138.096 Y67.069 E13.14699
G1 X138.1 Y77.217 E14.36207
G1 X138.139 Y77.889 E14.44267
G1 X138.263 Y78.525 E14.52026
G1 X138.484 Y79.206 E14.60598
G1 X138.774 Y79.824 E14.68772
G1 X139.018 Y80.277 E14.74933
G1 X139.388 Y81.059 E14.85292
G1 X139.821 Y82.166 E14.99524
G1 X140.14 Y83.257 E15.13135
G1 X140.354 Y84.2 E15.24713
G1 X140.513 Y85.354 E15.38661
G1 X140.599 Y86.533 E15.52815
G1 X140.6 Y89.863 E15.92688
G1 X140.552 Y91.009 E16.06421
G1 X140.436 Y92.031 E16.18737
G1 X140.229 Y93.116 E16.31963
G1 X140.004 Y93.986 E16.42723
G1 X139.661 Y95.006 E16.55608
G1 X139.221 Y96.059 E16.69273
G1 X138.76 Y96.957 E16.81359
G1 X138.652 Y97.145 E16.83955
G1 X138.387 Y97.658 E16.90869
G1 X138.153 Y98.287 E16.98904
G1 X137.978 Y99.031 E17.08056
G1 X137.916 Y99.689 E17.15969
G1 X137.932 Y100.353 E17.23922
G1 X138.037 Y101.025 E17.32066
G1 X138.231 Y101.712 E17.40614
G1 X138.597 Y102.514 E17.51169
G1 X139.011 Y103.263 E17.61416
G1 X139.388 Y104.059 E17.71962
G1 X139.821 Y105.166 E17.86195
G1 X140.14 Y106.257 E17.99805
G1 X140.354 Y107.2 E18.11383
G1 X140.513 Y108.354 E18.25332
G1 X140.599 Y109.533 E18.39486
G1 X140.6 Y112.863 E18.79358
G1 X140.552 Y114.01 E18.93104
G1 X140.452 Y114.941 E19.04316
G1 X140.229 Y116.116 E19.18636
G1 X140.004 Y116.986 E19.29396
G1 X139.669 Y117.987 E19.42035
G1 X139.217 Y119.071 E19.56097
G1 X138.711 Y120.051 E19.69303
G1 X138.218 Y120.855 E19.80596
G1 X137.543 Y121.806 E19.94559
G1 X136.81 Y122.676 E20.08181
G1 X136.194 Y123.32 E20.18852
G1 X135.989 Y123.513 E20.22223
G1 X135.518 Y123.988 E20.30232
G1 X135.113 Y124.515 E20.38191
G1 X134.744 Y125.158 E20.47067
G1 X134.398 Y126.051 E20.58534
G1 X134.025 Y127.371 E20.74958
G1 X133.68 Y128.422 E20.88203
G1 X133.31 Y129.335 E20.99999
G1 X132.807 Y130.349 E21.13552
G1 X132.349 Y131.13 E21.24393
G1 X131.764 Y131.999 E21.36936
G1 X131.103 Y132.832 E21.49669
G1 X130.318 Y133.691 E21.63602
G1 X128.338 Y135.671 E21.9713
G1 X127.629 Y136.325 E22.08679
G1 X126.807 Y136.996 E22.21384
G1 X125.849 Y137.661 E22.35348
G1 X124.855 Y138.234 E22.49086
G1 X124.04 Y138.634 E22.59956
G1 X123.073 Y139.028 E22.72459
G1 X122.067 Y139.361 E22.85147
G1 X119.226 Y140.157 E23.20474
G1 X118.283 Y140.387 E23.32096
G1 X117.217 Y140.562 E23.45031
G1 X116.011 Y140.672 E23.59531
G1 X114.941 Y140.683 E23.72344
G1 X114.055 Y140.637 E23.82967
G1 X112.946 Y140.501 E23.96345
G1 X111.8 Y140.262 E24.10362
G1 X111.22 Y140.11 E24.17541
G1 X108.608 Y139.342 E24.5014
G1 X107.665 Y139.029 E24.62037
G1 X106.543 Y138.56 E24.76598
G1 X105.76 Y138.168 E24.87083
G1 X104.84 Y137.626 E24.99868
G1 X103.879 Y136.961 E25.13861
G1 X102.982 Y136.216 E25.27823
G1 X102.347 Y135.617 E25.38275
G1 X100.297 Y133.563 E25.73022
G1 X99.541 Y132.74 E25.86403
G1 X98.874 Y131.898 E25.99265
G1 X98.323 Y131.098 E26.10896
G1 X97.75 Y130.099 E26.24686
G1 X97.31 Y129.208 E26.36584
G1 X96.954 Y128.328 E26.4795
G1 X96.873 Y128.103 E26.50814
G1 X96.635 Y127.51 E26.58465
G1 X96.301 Y126.905 E26.66739
G1 X95.897 Y126.356 E26.74901
G1 X95.457 Y125.89 E26.82575
G1 X94.925 Y125.452 E26.90826
G1 X94.218 Y125.001 E27.00867
G1 X77.441 Y117.855 E29.19212
G1 X76.746 Y117.611 E29.28032
G1 X76.152 Y117.484 E29.35305
G1 X75.436 Y117.42 E29.43912
G1 X74.709 Y117.452 E29.52626
G1 X74.071 Y117.561 E29.60375
G1 X73.425 Y117.754 E29.68448
G1 X72.784 Y118.043 E29.76867
G1 X71.891 Y118.486 E29.88803
G1 X70.919 Y118.879 E30.01357
G1 X69.895 Y119.213 E30.14254
G1 X67.999 Y119.748 E30.37842
G1 X66.841 Y120.023 E30.52093
G1 X65.91 Y120.174 E30.63386
G1 X64.714 Y120.28 E30.77763
G1 X63.725 Y120.299 E30.89607
G1 X62.571 Y120.225 E31.03453
G1 X61.659 Y120.109 E31.14461
G1 X60.485 Y119.862 E31.28826
G1 X59.916 Y119.71 E31.35878
G1 X58.111 Y119.181 E31.58399
G1 X57.287 Y118.912 E31.68778
G1 X56.217 Y118.475 E31.82617
G1 X55.267 Y118.004 E31.95313
G1 X54.29 Y117.427 E32.08899
G1 X53.489 Y116.86 E32.2065
G1 X53.166 Y116.602 E32.256
G1 X52.621 Y116.21 E32.33638
G1 X52.008 Y115.872 E32.4202
G1 X51.393 Y115.637 E32.49903
G1 X50.737 Y115.464 E32.58026
G1 X49.593 Y115.226 E32.72017
G1 X49.025 Y115.074 E32.79058
G1 X47.218 Y114.541 E33.01616
G1 X46.394 Y114.275 E33.11983
G1 X45.326 Y113.839 E33.25796
G1 X44.376 Y113.364 E33.38513
G1 X43.332 Y112.744 E33.53052
G1 X42.437 Y112.103 E33.66233
G1 X41.621 Y111.423 E33.78952
G1 X41.051 Y110.892 E33.88279
G1 X39.593 Y109.431 E34.12994
G1 X38.833 Y108.604 E34.26442
G1 X38.171 Y107.762 E34.39267
G1 X37.615 Y106.958 E34.50971
G1 X37.042 Y105.964 E34.64709
G1 X36.61 Y105.076 E34.76533
G1 X36.244 Y104.181 E34.88111
G1 X35.934 Y103.249 E34.99871
G1 X35.383 Y101.356 E35.23478
G1 X35.128 Y100.313 E35.36335
G1 X34.969 Y99.404 E35.47384
G1 X34.86 Y98.368 E35.59857
G1 X34.821 Y97.242 E35.73347
G1 X34.864 Y96.267 E35.85033
G1 X34.966 Y95.332 E35.96295
G1 X35 Y94.677 E36.04148
G1 X34.955 Y94.019 E36.12045
G1 X34.833 Y93.368 E36.19976
G1 X34.728 Y92.943 E36.25218
G1 X34.572 Y92.089 E36.35612
G1 X34.448 Y91.012 E36.48593
G1 X34.4 Y89.867 E36.62315
G1 X34.4 Y86.885 E36.9802
G1 X34.448 Y85.733 E37.11826
G1 X34.545 Y84.803 E37.23022
G1 X34.767 Y83.629 E37.37328
G1 X34.996 Y82.759 E37.481
G1 X35.335 Y81.737 E37.60993
G1 X35.78 Y80.677 E37.74758
G1 X36.242 Y79.772 E37.86924
G1 X36.779 Y78.888 E37.99309
G1 X37.453 Y77.938 E38.13256
G1 X38.185 Y77.069 E38.26861
G1 X39.356 Y75.863 E38.46988
G1 X39.796 Y75.275 E38.55781
G1 X40.231 Y74.451 E38.66938
G1 X40.489 Y73.829 E38.75001
G1 X40.961 Y72.871 E38.87788
G1 X41.56 Y71.858 E39.0188
G1 X42.172 Y70.995 E39.14547
G1 X43.258 Y69.724 E39.34565
G1 X44.573 Y68.338 E39.57441
G1 X45.356 Y67.578 E39.70507
G1 X46.186 Y66.884 E39.83461
G1 X47.026 Y66.278 E39.95863
G0 F7200 X46.666 Y67.031
G1 F3150 X119.343 Y139.708 E52.26524
G0 F7200 X121.111 Y139.213
G1 F3150 X48.03 Y66.132 E64.64026
G0 F7200 X49.539 Y65.378
G1 F3150 X122.843 Y138.682 E77.05305
G0 F7200 X124.423 Y138
G1 F3150 X51.203 Y64.779 E89.45169
G0 F7200 X52.965 Y64.279
G1 F3150 X125.855 Y137.169 E101.79437
G0 F7200 X127.149 Y136.2
G1 F3150 X54.825 Y63.876 E114.04121
G0 F7200 X56.919 Y63.707
G1 F3150 X128.327 Y135.115 E126.13294
G0 F7200 X129.459 Y133.984
G1 F3150 X59.268 Y63.793 E138.01859
G0 F7200 X62.122 Y64.385
G1 F3150 X130.565 Y132.828 E149.60824
G0 F7200 X131.571 Y131.571
G1 F3150 X64.892 Y64.892 E160.8992
G0 F7200 X66.805 Y64.543
G1 F3150 X132.443 Y130.18 E172.01379
G0 F7200 X133.162 Y128.636
G1 F3150 X68.532 Y64.007 E182.95769
G0 F7200 X70.311 Y63.523
G1 F3150 X133.73 Y126.942 E193.69662
G0 F7200 X134.287 Y125.236
G1 F3150 X72.246 Y63.195 E204.20221
G0 F7200 X74.45 Y63.136
G1 F3150 X135.137 Y123.824 E214.4786
G0 F7200 X136.255 Y122.678
G1 F3150 X77.065 Y63.488 E224.50142
G0 F7200 X79.187 Y63.348
G1 F3150 X137.299 Y121.46 E234.3417
G0 F7200 X138.208 Y120.106
G1 F3150 X80.778 Y62.676 E244.06649
G0 F7200 X82.237 Y61.873
G1 F3150 X138.975 Y118.611 E253.6741
G0 F7200 X139.59 Y116.963
G1 F3150 X83.866 Y61.238 E263.1101
G0 F7200 X85.607 Y60.716
G1 F3150 X140.011 Y115.121 E272.32257
G0 F7200 X140.193 Y113.04
G1 F3150 X87.388 Y60.235 E281.2642
G0 F7200 X89.303 Y59.887
G1 F3150 X140.199 Y110.784 E289.88265
G0 F7200 X140.119 Y108.44
G1 F3150 X91.497 Y59.818 E298.11596
G0 F7200 X93.578 Y59.637
G1 F3150 X139.528 Y105.587 E305.89681
G0 F7200 X137.776 Y101.572
G1 F3150 X95.16 Y58.956 E313.1131
G0 F7200 X96.396 Y57.929
G1 F3150 X137.573 Y99.106 E320.08573
G0 F7200 X138.091 Y97.362
G1 F3150 X97.324 Y56.595 E326.98892
G0 F7200 X98.197 Y55.205
G1 F3150 X138.866 Y95.874 E333.87553
G0 F7200 X139.497 Y94.242
G1 F3150 X99.177 Y53.922 E340.70303
G0 F7200 X100.245 Y52.728
G1 F3150 X139.952 Y92.434 E347.42665
G0 F7200 X140.178 Y90.397
G1 F3150 X101.386 Y51.605 E353.99541
G0 F7200 X102.606 Y50.563
G1 F3150 X140.199 Y88.156 E360.36115
G0 F7200 X140.147 Y85.841
G1 F3150 X103.915 Y49.609 E366.49642
G0 F7200 X105.325 Y48.756
G1 F3150 X139.682 Y83.113 E372.31419
G0 F7200 X138.078 Y79.247
G1 F3150 X106.813 Y47.981 E377.60847
G0 F7200 X108.399 Y47.305
G1 F3150 X137.701 Y76.607 E382.57027
G0 F7200 X137.7 Y74.343
G1 F3150 X110.106 Y46.749 E387.24284
G0 F7200 X111.936 Y46.317
G1 F3150 X137.698 Y72.079 E391.6052
G0 F7200 X137.697 Y69.815
G1 F3150 X113.92 Y46.038 E395.63143
G0 F7200 X116.059 Y45.914
G1 F3150 X137.696 Y67.551 E399.29528
G0 F7200 X137.555 Y65.147
G1 F3150 X118.496 Y46.088 E402.5226
G0 F7200 X121.26 Y46.589
G1 F3150 X137.05 Y62.38 E405.19645
G0 F7200 X135.877 Y58.944
G1 F3150 X124.674 Y47.741 E407.09349
G0 F7200 X93.657 Y58.728
G0 X78.523 Y62.612
G0 X45.434 Y68.061
G1 F3150 X117.485 Y140.113 E419.29418
G0 F7200 X115.388 Y140.278
G1 F3150 X44.308 Y69.198 E431.33037
G0 F7200 X43.225 Y70.378
G1 F3150 X112.938 Y140.091 E443.13508
G0 F7200 X109.884 Y139.3
G1 F3150 X42.213 Y71.629 E454.59401
G0 F7200 X41.339 Y73.017
G1 F3150 X91.898 Y123.576 E463.15532
G0 F7200 X87.957 Y121.898
G1 F3150 X40.619 Y74.56 E471.1712
G0 F7200 X39.771 Y75.975
G1 F3150 X84.016 Y120.22 E478.66334
G0 F7200 X80.076 Y118.542
G1 F3150 X38.673 Y77.14 E485.67415
G0 F7200 X37.639 Y78.368
G1 F3150 X76.399 Y117.129 E492.23758
G0 F7200 X74.15 Y117.142
G1 F3150 X36.736 Y79.728 E498.573
G0 F7200 X35.98 Y81.235
G1 F3150 X72.488 Y117.743 E504.75501
G0 F7200 X70.927 Y118.445
G1 F3150 X35.374 Y82.891 E510.77539
G0 F7200 X34.963 Y84.743
G1 F3150 X69.21 Y118.991 E516.57462
G0 F7200 X67.429 Y119.472
G1 F3150 X34.802 Y86.845 E522.09944
G0 F7200 X34.8 Y89.105
G1 F3150 X65.502 Y119.808 E527.29839
G0 F7200 X63.302 Y119.871
G1 F3150 X34.903 Y91.472 E532.10728
G0 F7200 X35.369 Y94.2
G1 F3150 X60.658 Y119.489 E536.38954
G0 F7200 X57.45 Y118.544
G1 F3150 X35.261 Y96.355 E540.14687
G0 F7200 X35.291 Y98.648
G1 F3150 X52.131 Y115.488 E542.99843
G0 F7200 X49.043 Y114.662
G1 F3150 X35.824 Y101.444 E545.23676
G0 F7200 X36.937 Y104.819
G1 F3150 X45.661 Y113.543 E546.71402
G0 F7200 X76.056 Y117.936
G0 X76.68 Y118.073
G0 X94.109 Y125.48
G0 X95.105 Y126.193
G0 X97.976 Y129.654
G1 F3150 X106.324 Y138.002 E548.12761
G0 F600 X106.324 Y138.002 Z0.66
G0 F7200 X126.563 Y136.679
;TIME_ELAPSED:94.843897
;LAYER:-5
;TYPE:SUPPORT
G1 F3150 X127.38 Y136.017 E548.23254
G1 X128.056 Y135.389 E548.3246
G1 X130.018 Y133.428 E548.60139
G1 X130.743 Y132.647 E548.70772
G1 X131.444 Y131.761 E548.82045
G1 X131.795 Y131.249 E548.88239
G1 X125.854 Y137.19 E549.72073
G1 X124.931 Y137.52 E549.81854
G1 X125.034 Y137.674 E549.83702
G1 X124.693 Y137.871 E549.87632
G1 X123.871 Y138.276 E549.96775
G1 X122.998 Y138.632 E550.06183
G1 X133.28 Y128.349 E551.5128
G1 X133.657 Y127.213 E551.63223
G1 X133.913 Y126.303 E551.72655
G1 X120.951 Y139.264 E553.55556
G1 X118.995 Y139.806 E553.75808
G1 X137.195 Y121.606 E556.3263
G1 X137.838 Y120.716 E556.43586
G1 X138.354 Y119.869 E556.53482
G1 X138.826 Y118.963 E556.63675
G1 X139.128 Y118.259 E556.71319
G1 X117.225 Y140.162 E559.80394
G1 X116.01 Y140.275 E559.92569
G1 X115.693 Y140.279 E559.95733
G1 X139.827 Y116.145 E563.3629
G1 X140.032 Y115.033 E563.47572
G1 X140.098 Y114.461 E563.53317
G1 X114.294 Y140.265 E567.1744
G1 X113.036 Y140.108 E567.30089
G1 X140.196 Y112.948 E571.13346
G1 X140.2 Y111.53 E571.27495
G1 X111.864 Y139.866 E575.27347
G1 X111.318 Y139.721 E575.32984
G1 X110.758 Y139.557 E575.38806
G1 X140.2 Y110.116 E579.54257
G1 X140.2 Y109.549 E579.59915
G1 X140.144 Y108.758 E579.67827
G1 X109.664 Y139.238 E583.97933
G1 X108.57 Y138.918 E584.09307
G1 X140.007 Y107.48 E588.52924
G1 X139.771 Y106.432 E588.63642
G1 X139.729 Y106.344 E588.64615
G1 X107.53 Y138.543 E593.18978
G1 X106.855 Y138.266 E593.26258
G1 X106.545 Y138.114 E593.29703
G1 X139.415 Y105.244 E597.93535
G1 X139.023 Y104.222 E598.04456
G1 X105.618 Y137.626 E602.7583
G1 X104.74 Y137.091 E602.86089
G1 X138.56 Y103.27 E607.63333
G1 X138.238 Y102.687 E607.69978
G1 X138.08 Y102.337 E607.7381
G1 X103.931 Y136.485 E612.55682
G1 X103.157 Y135.845 E612.65703
G1 X137.698 Y101.304 E617.53114
G1 X137.652 Y101.143 E617.54785
G1 X137.534 Y100.374 E617.62548
G1 X137.524 Y100.063 E617.65653
G1 X102.442 Y135.146 E622.60705
G1 X101.735 Y134.439 E622.70681
G1 X137.693 Y98.48 E627.78095
G1 X137.749 Y98.244 E627.80515
G1 X138.018 Y97.514 E627.88278
G1 X138.288 Y96.987 E627.94186
G1 X138.417 Y96.756 E627.96826
G1 X138.84 Y95.919 E628.06183
G1 X101.028 Y133.732 E633.39759
G1 X100.321 Y133.025 E633.49735
G1 X139.673 Y93.672 E639.05041
G1 X139.876 Y92.879 E639.13209
G1 X140.062 Y91.869 E639.23456
G1 X99.672 Y132.259 E644.93403
G1 X99.306 Y131.808 E644.99199
G1 X99.061 Y131.456 E645.03478
G1 X140.2 Y90.317 E650.83994
G1 X140.2 Y88.902 E650.98112
G1 X98.588 Y130.515 E656.8531
G1 X98.465 Y130.175 E656.88917
G1 X98.311 Y130.278 E656.90766
G1 X97.994 Y129.694 E656.97396
G1 X140.2 Y87.488 E662.92969
G1 X140.2 Y86.555 E663.02278
G1 X140.168 Y86.106 E663.0677
