;FLAVOR:Marlin
;TIME:2522
;Filament used: 5.41435m
;Layer height: 0.2
;MINX:50.4
;MINY:49.4
;MINZ:0.36
;MAXX:124.6
;MAXY:123.6
;MAXZ:28.11
;TARGET_MACHINE.NAME:Unknown
;Generated with Cura_SteamEngine 5.10.0
M104 S200
M105
M109 S200
G28 ;Home
G1 Z15.0 F6000 ;Move the platform down 15mm
;Prime the extruder
G92 E0
G1 F200 E3
G92 E0
M82 ;absolute extrusion mode
G92 E0
G92 E0
G1 F1500 E-6.5
;LAYER_COUNT:134
;LAYER:-6
M107
G0 F7200 X55.415 Y55.436 Z0.36
;TYPE:SUPPORT-INTERFACE
G1 F1500 E0
G1 F2700 X57.198 Y53.653 E0.30192
G1 X57.891 Y53.011 E0.41503
G1 X58.721 Y52.336 E0.54313
G1 X59.675 Y51.67 E0.68244
G1 X60.668 Y51.098 E0.81965
G1 X61.556 Y50.666 E0.93789
G1 X62.427 Y50.308 E1.05065
G1 X63.467 Y49.969 E1.18163
G1 X64.499 Y49.712 E1.30897
G1 X65.605 Y49.521 E1.44336
G1 X66.629 Y49.428 E1.56647
G1 X67.503 Y49.4 E1.67117
G1 X107.503 Y49.4 E6.46063
G1 X108.639 Y49.448 E6.59678
G1 X109.48 Y49.533 E6.69799
G1 X110.611 Y49.736 E6.83557
G1 X111.555 Y49.977 E6.95223
G1 X112.635 Y50.335 E7.08846
G1 X113.707 Y50.783 E7.22758
G1 X114.568 Y51.226 E7.34352
G1 X115.484 Y51.779 E7.47163
G1 X116.423 Y52.446 E7.60955
G1 X117.179 Y53.077 E7.72745
G1 X117.802 Y53.656 E7.82929
G1 X120.343 Y56.198 E8.25965
G1 X120.989 Y56.895 E8.37344
G1 X121.66 Y57.721 E8.50086
G1 X122.255 Y58.573 E8.62529
G1 X122.879 Y59.631 E8.77237
G1 X123.291 Y60.465 E8.88375
G1 X123.696 Y61.451 E9.01138
G1 X124.011 Y62.411 E9.13236
G1 X124.319 Y63.664 E9.28685
G1 X124.486 Y64.725 E9.41546
G1 X124.576 Y65.776 E9.54176
G1 X124.6 Y66.495 E9.6279
G1 X124.6 Y106.487 E14.4164
G1 X124.552 Y107.638 E14.55434
G1 X124.452 Y108.569 E14.66645
G1 X124.229 Y109.74 E14.80918
G1 X124.004 Y110.614 E14.91724
G1 X123.661 Y111.635 E15.04621
G1 X123.217 Y112.698 E15.18415
G1 X122.691 Y113.711 E15.32082
G1 X122.217 Y114.483 E15.42929
G1 X121.546 Y115.431 E15.56835
G1 X120.92 Y116.179 E15.68514
G1 X120.34 Y116.802 E15.78706
G1 X117.798 Y119.343 E16.21742
G1 X117.113 Y119.978 E16.32926
G1 X116.278 Y120.66 E16.45835
G1 X115.321 Y121.325 E16.59789
G1 X114.327 Y121.898 E16.73526
G1 X113.511 Y122.299 E16.84413
G1 X112.537 Y122.7 E16.97025
G1 X111.577 Y123.015 E17.09123
G1 X110.497 Y123.284 E17.22449
G1 X109.39 Y123.475 E17.359
G1 X108.366 Y123.572 E17.48216
G1 X107.493 Y123.6 E17.58674
G1 X67.492 Y123.596 E22.37632
G1 X66.357 Y123.552 E22.51233
G1 X65.517 Y123.463 E22.61347
G1 X64.389 Y123.26 E22.7507
G1 X63.441 Y123.019 E22.86782
G1 X62.365 Y122.661 E23.0036
G1 X61.289 Y122.213 E23.14316
G1 X60.424 Y121.766 E23.25974
G1 X59.512 Y121.217 E23.3872
G1 X58.498 Y120.491 E23.53652
G1 X57.818 Y119.92 E23.64284
G1 X57.198 Y119.344 E23.74417
G1 X54.649 Y116.795 E24.1758
G1 X53.889 Y115.967 E24.31038
G1 X53.278 Y115.201 E24.4277
G1 X52.671 Y114.318 E24.556
G1 X52.098 Y113.328 E24.69296
G1 X51.666 Y112.441 E24.81109
G1 X51.296 Y111.526 E24.92927
G1 X50.981 Y110.568 E25.05002
G1 X50.712 Y109.501 E25.18178
G1 X50.521 Y108.387 E25.31711
G1 X50.428 Y107.363 E25.44022
G1 X50.4 Y106.505 E25.54301
G1 X50.4 Y66.509 E30.33199
G1 X50.448 Y65.36 E30.46969
G1 X50.572 Y64.288 E30.5989
G1 X50.735 Y63.402 E30.70677
G1 X50.996 Y62.381 E30.83295
G1 X51.335 Y61.365 E30.9612
G1 X51.78 Y60.301 E31.09929
G1 X52.242 Y59.4 E31.22053
G1 X52.779 Y58.512 E31.34479
G1 X53.45 Y57.565 E31.48375
G1 X54.076 Y56.817 E31.60054
G1 X54.66 Y56.19 E31.70314
G1 X55.415 Y55.436 E31.8309
G1 X55.708 Y55.708
G1 X118.288 Y118.288 E42.42776
G0 F7200 X119.419 Y117.156
G1 F2700 X56.839 Y54.577 E53.02453
G0 F7200 X57.99 Y53.464
G1 F2700 X120.533 Y116.008 E63.61521
G0 F7200 X121.538 Y114.75
G1 F2700 X59.246 Y52.458 E74.1633
G0 F7200 X60.632 Y51.581
G1 F2700 X122.419 Y113.368 E84.62587
G0 F7200 X123.145 Y111.832
G1 F2700 X62.163 Y50.849 E94.95222
G0 F7200 X63.86 Y50.284
G1 F2700 X123.714 Y110.138 E105.08747
G0 F7200 X124.085 Y108.246
G1 F2700 X65.75 Y49.91 E114.9656
G0 F7200 X67.902 Y49.8
G1 F2700 X124.2 Y106.099 E124.49879
G0 F7200 X124.2 Y103.836
G1 F2700 X70.165 Y49.8 E133.64878
G0 F7200 X72.428 Y49.8
G1 F2700 X124.2 Y101.573 E142.41557
G0 F7200 X124.2 Y99.31
G1 F2700 X74.69 Y49.8 E150.79925
G0 F7200 X76.953 Y49.8
G1 F2700 X124.2 Y97.048 E158.7998
G0 F7200 X124.2 Y94.785
G1 F2700 X79.216 Y49.8 E166.41716
G0 F7200 X81.479 Y49.8
G1 F2700 X124.2 Y92.522 E173.65132
G0 F7200 X124.2 Y90.259
G1 F2700 X83.741 Y49.8 E180.50236
G0 F7200 X86.004 Y49.8
G1 F2700 X124.2 Y87.997 E186.97029
G0 F7200 X124.2 Y85.734
G1 F2700 X88.267 Y49.8 E193.05502
G0 F7200 X90.529 Y49.8
G1 F2700 X124.2 Y83.471 E198.75663
G0 F7200 X124.2 Y81.208
G1 F2700 X92.792 Y49.8 E204.07504
G0 F7200 X95.055 Y49.8
G1 F2700 X124.2 Y78.946 E209.01033
G0 F7200 X124.2 Y76.683
G1 F2700 X97.318 Y49.8 E213.56242
G0 F7200 X99.58 Y49.8
G1 F2700 X124.2 Y74.42 E217.7314
G0 F7200 X124.2 Y72.157
G1 F2700 X101.843 Y49.8 E221.51718
G0 F7200 X104.106 Y49.8
G1 F2700 X124.2 Y69.895 E224.91984
G0 F7200 X124.2 Y67.632
G1 F2700 X106.369 Y49.8 E227.9393
G0 F7200 X108.687 Y49.855
G1 F2700 X124.135 Y65.304 E230.55524
G0 F7200 X123.631 Y62.537
G1 F2700 X111.461 Y50.367 E232.61602
G0 F7200 X115.974 Y52.617
G1 F2700 X121.39 Y58.033 E233.53313
G0 F7200 X117.142 Y119.405
G1 F2700 X54.589 Y56.852 E244.12541
G0 F7200 X53.566 Y58.092
G1 F2700 X115.905 Y120.431 E254.68146
G0 F7200 X114.531 Y121.319
G1 F2700 X52.672 Y59.46 E265.15623
G0 F7200 X51.929 Y60.98
G1 F2700 X113.018 Y122.069 E275.50061
G0 F7200 X111.346 Y122.66
G1 F2700 X51.339 Y62.652 E285.66186
G0 F7200 X50.947 Y64.523
G1 F2700 X109.476 Y123.053 E295.57283
G0 F7200 X107.36 Y123.199
G1 F2700 X50.8 Y66.639 E305.1503
G0 F7200 X50.8 Y68.902
G1 F2700 X105.097 Y123.199 E314.34458
G0 F7200 X102.835 Y123.199
G1 F2700 X50.8 Y71.165 E323.15573
G0 F7200 X50.8 Y73.427
G1 F2700 X100.571 Y123.199 E331.58369
G0 F7200 X98.308 Y123.199
G1 F2700 X50.8 Y75.69 E339.62844
G0 F7200 X50.8 Y77.953
G1 F2700 X96.046 Y123.199 E347.29008
G0 F7200 X93.782 Y123.198
G1 F2700 X50.8 Y80.216 E354.56835
G0 F7200 X50.8 Y82.478
G1 F2700 X91.519 Y123.198 E361.46351
G0 F7200 X89.257 Y123.198
G1 F2700 X50.8 Y84.741 E367.97554
G0 F7200 X50.8 Y87.004
G1 F2700 X86.993 Y123.197 E374.10421
G0 F7200 X84.73 Y123.197
G1 F2700 X50.8 Y89.267 E379.84968
G0 F7200 X50.8 Y91.529
G1 F2700 X82.468 Y123.197 E385.21211
G0 F7200 X80.204 Y123.196
G1 F2700 X50.8 Y93.792 E390.19118
G0 F7200 X50.8 Y96.055
G1 F2700 X77.942 Y123.196 E394.78713
G0 F7200 X75.679 Y123.196
G1 F2700 X50.8 Y98.318 E398.99988
G0 F7200 X50.8 Y100.58
G1 F2700 X73.415 Y123.196 E402.82943
G0 F7200 X71.153 Y123.196
G1 F2700 X50.8 Y102.843 E406.27587
G0 F7200 X50.8 Y105.106
G1 F2700 X68.89 Y123.196 E409.3391
G0 F7200 X66.592 Y123.16
G1 F2700 X50.833 Y107.402 E412.00753
G0 F7200 X51.277 Y110.109
G1 F2700 X63.889 Y122.721 E414.14316
G0 F7200 X59.874 Y120.968
G1 F2700 X53.007 Y114.101 E415.30597
G0 F600 X53.007 Y114.101 Z0.66
G0 F7200 X59.301 Y52.422
;TIME_ELAPSED:83.902668
;LAYER:-5
;TYPE:SUPPORT
G1 F2700 X53.422 Y58.301 E416.13556
G1 X53.089 Y58.761 E416.19222
G1 X53.262 Y58.845 E416.21141
G1 X52.608 Y59.572 E416.30899
G1 X52.173 Y60.66 E416.4259
G1 X52.097 Y60.583 E416.4367
G1 X51.767 Y61.371 E416.52194
G1 X62.391 Y50.746 E418.02117
G1 X63.58 Y50.355 E418.14606
G1 X64.4 Y50.151 E418.23037
G1 X51.14 Y63.412 E420.10157
G1 X50.944 Y64.511 E420.21296
G1 X50.881 Y65.084 E420.27048
G1 X66.082 Y49.884 E422.41544
G1 X66.654 Y49.828 E422.47278
G1 X67.58 Y49.799 E422.56523
G1 X50.8 Y66.58 E424.93314
G1 X50.8 Y67.994 E425.07423
G1 X68.995 Y49.799 E427.64174
G1 X70.409 Y49.799 E427.78283
G1 X50.8 Y69.408 E430.54987
G1 X50.8 Y70.822 E430.69096
G1 X71.823 Y49.799 E433.65753
G1 X73.237 Y49.799 E433.79862
G1 X50.8 Y72.237 E436.96479
G1 X50.8 Y73.651 E437.10588
G1 X74.651 Y49.799 E440.47159
G1 X76.066 Y49.799 E440.61278
G1 X50.8 Y75.065 E444.17808
G1 X50.8 Y76.479 E444.31917
G1 X77.48 Y49.799 E448.08401
G1 X78.894 Y49.799 E448.2251
G1 X50.8 Y77.893 E452.18946
G1 X50.8 Y79.308 E452.33065
G1 X80.308 Y49.799 E456.49462
G1 X81.722 Y49.799 E456.63571
G1 X50.8 Y80.722 E460.99921
G1 X50.8 Y82.136 E461.1403
G1 X83.137 Y49.799 E465.7034
G1 X84.551 Y49.799 E465.84449
G1 X50.8 Y83.55 E470.60712
G1 X50.8 Y84.965 E470.74831
G1 X85.965 Y49.799 E475.71054
G1 X87.379 Y49.799 E475.85163
G1 X50.8 Y86.379 E481.01339
G1 X50.8 Y87.793 E481.15448
G1 X88.793 Y49.8 E486.5157
G1 X90.207 Y49.8 E486.65679
G1 X50.8 Y89.207 E492.21755
G1 X50.8 Y90.621 E492.35864
G1 X91.621 Y49.8 E498.11892
G1 X93.035 Y49.8 E498.26001
G1 X50.8 Y92.036 E504.2199
G1 X50.8 Y93.45 E504.36098
G1 X94.45 Y49.8 E510.52047
G1 X95.864 Y49.8 E510.66156
G1 X50.8 Y94.864 E517.02058
G1 X50.8 Y96.278 E517.16167
G1 X97.278 Y49.8 E523.72022
G1 X98.692 Y49.8 E523.8613
G1 X50.8 Y97.692 E530.61938
G1 X50.8 Y99.107 E530.76057
G1 X100.107 Y49.8 E537.71832
G1 X101.521 Y49.8 E537.85941
G1 X50.8 Y100.521 E545.01669
G1 X50.8 Y101.935 E545.15778
G1 X102.935 Y49.8 E552.51459
G1 X104.349 Y49.8 E552.65568
G1 X50.8 Y103.349 E560.21203
G1 X50.8 Y104.764 E560.35322
G1 X105.763 Y49.8 E568.10916
G1 X107.178 Y49.8 E568.25035
G1 X50.789 Y106.189 E576.20745
G1 X50.835 Y107.557 E576.34402
G1 X108.549 Y49.843 E584.48809
G1 X109.82 Y49.986 E584.61571
G1 X51.001 Y108.805 E592.91571
G1 X51.103 Y109.408 E592.97673
G1 X51.244 Y109.976 E593.03513
G1 X110.976 Y50.244 E601.46396
G1 X111.808 Y50.459 E601.5497
G1 X111.749 Y50.697 E601.57417
G1 X111.927 Y50.708 E601.59196
G1 X51.55 Y111.084 E610.11174
G1 X51.957 Y112.091 E610.22011
G1 X113.09 Y50.959 E618.84657
G1 X113.416 Y51.097 E618.88189
G1 X113.34 Y51.173 E618.89262
G1 X114.019 Y51.444 E618.96557
G1 X52.41 Y113.053 E627.65926
G1 X52.662 Y113.506 E627.71098
G1 X52.815 Y113.403 E627.72939
G1 X52.99 Y113.887 E627.78074
G1 X114.871 Y52.006 E636.51282
G1 X115.154 Y52.262 E636.5509
G1 X115.24 Y52.087 E636.57035
G1 X115.799 Y52.492 E636.63923
G1 X53.477 Y114.814 E645.43354
G1 X54.111 Y115.595 E645.53391
G1 X116.596 Y53.11 E654.35122
G1 X117.363 Y53.757 E654.45134
G1 X54.769 Y116.351 E663.28403
G1 X55.477 Y117.057 E663.3838
G1 X118.058 Y54.476 E672.21465
G1 X118.765 Y55.183 E672.31442
G1 X56.184 Y117.764 E681.14527
G1 X56.891 Y118.471 E681.24504
G1 X119.472 Y55.89 E690.07589
G1 X120.174 Y56.602 E690.17566
G1 X57.601 Y119.176 E699.00546
G1 X57.967 Y119.521 E699.05565
G1 X58.348 Y119.843 E699.10542
G1 X120.843 Y57.348 E707.92414
G1 X121.476 Y58.129 E708.02445
G1 X59.141 Y120.464 E716.82059
G1 X59.76 Y120.911 E716.89678
G1 X59.846 Y120.738 E716.91605
G1 X60.074 Y120.945 E716.94678
G1 X121.983 Y59.036 E725.68281
G1 X122.183 Y59.594 E725.74196
G1 X122.337 Y59.492 E725.76039
G1 X122.556 Y59.878 E725.80467
G1 X60.907 Y121.526 E734.50394
G1 X61.66 Y121.827 E734.58485
G1 X61.584 Y121.903 E734.59558
G1 X61.837 Y122.011 E734.62303
G1 X123.015 Y60.833 E743.2559
G1 X123.422 Y61.84 E743.36428
G1 X62.977 Y122.285 E751.89372
G1 X63.251 Y122.302 E751.92111
G1 X63.192 Y122.541 E751.94568
G1 X63.942 Y122.735 E752.02298
G1 X123.737 Y62.94 E760.4607
G1 X123.924 Y63.727 E760.54141
G1 X123.984 Y64.106 E760.5797
G1 X65.087 Y123.002 E768.89063
G1 X66.355 Y123.15 E769.01801
G1 X124.161 Y65.343 E777.17513
G1 X124.208 Y66.711 E777.31171
G1 X67.719 Y123.2 E785.28292
G1 X69.133 Y123.2 E785.42401
G1 X124.2 Y68.133 E793.19456
G1 X124.2 Y69.547 E793.33565
G1 X70.547 Y123.2 E800.90666
G1 X71.962 Y123.2 E801.04785
G1 X124.2 Y70.962 E808.4192
G1 X124.2 Y72.376 E808.56029
G1 X73.376 Y123.2 E815.73211
G1 X74.79 Y123.2 E815.87319
G1 X124.2 Y73.79 E822.84548
G1 X124.2 Y75.204 E822.98657
G1 X76.204 Y123.2 E829.75932
G1 X77.618 Y123.2 E829.90041
G1 X124.2 Y76.619 E836.47357
G1 X124.2 Y78.033 E836.61465
G1 X79.033 Y123.2 E842.98821
G1 X80.447 Y123.2 E843.1293
G1 X124.2 Y79.447 E849.30332
G1 X124.2 Y80.861 E849.44441
G1 X81.861 Y123.2 E855.4189
G1 X83.275 Y123.2 E855.55999
G1 X124.2 Y82.275 E861.33495
G1 X124.2 Y83.69 E861.47613
G1 X84.689 Y123.2 E867.05149
G1 X86.104 Y123.2 E867.19268
G1 X124.2 Y85.104 E872.56844
G1 X124.2 Y86.518 E872.70953
G1 X87.518 Y123.2 E877.88576
G1 X88.932 Y123.2 E878.02685
G1 X124.2 Y87.932 E883.00354
G1 X124.2 Y89.346 E883.14463
G1 X90.346 Y123.2 E887.9218
G1 X91.761 Y123.2 E888.06298
G1 X124.2 Y90.761 E892.64048
G1 X124.2 Y92.175 E892.78157
G1 X93.175 Y123.2 E897.15953
G1 X94.589 Y123.2 E897.30062
G1 X124.2 Y93.589 E901.47905
G1 X124.2 Y95.003 E901.62014
G1 X96.003 Y123.2 E905.59904
G1 X97.417 Y123.2 E905.74013
G1 X124.2 Y96.418 E909.51943
G1 X124.2 Y97.832 E909.66052
G1 X98.832 Y123.2 E913.24022
G1 X100.246 Y123.2 E913.38131
G1 X124.2 Y99.246 E916.76148
G1 X124.2 Y100.66 E916.90257
G1 X101.66 Y123.2 E920.0832
G1 X103.074 Y123.2 E920.22429
G1 X124.2 Y102.074 E923.2054
G1 X124.2 Y103.489 E923.34659
G1 X104.488 Y123.2 E926.1281
G1 X105.903 Y123.2 E926.26929
G1 X124.2 Y104.903 E928.85119
G1 X124.2 Y106.317 E928.99228
G1 X107.317 Y123.2 E931.37465
G1 X108.346 Y123.172 E931.47736
G1 X108.803 Y123.128 E931.52318
G1 X124.13 Y107.801 E933.68598
G1 X124.031 Y108.659 E933.77216
G1 X123.883 Y109.462 E933.85363
G1 X110.462 Y122.883 E935.74748
G1 X111.424 Y122.644 E935.84639
G1 X112.46 Y122.3 E935.95531
G1 X123.254 Y111.505 E937.47853
G1 X123.249 Y111.592 E937.48723
G1 X122.819 Y112.601 E937.59667
G1 X122.425 Y113.368 E937.6827
G1 X121.851 Y114.323 E937.79388
G1 X121.185 Y115.243 E937.90721
G1 X120.522 Y116.032 E938.01004
G1 X120.046 Y116.537 E938.07929
G1 X117.528 Y119.053 E938.43446
G1 X116.863 Y119.671 E938.52504
G1 X116.035 Y120.343 E938.63145
G0 F7200 X115.355 Y120.819
G1 F2700 X121.851 Y114.323 E939.5481
G0 F600 X121.851 Y114.323 Z0.86
G0 F7200 X122.05 Y58.627
;TIME_ELAPSED:202.117919
;LAYER:-4
;TYPE:SUPPORT-INTERFACE
G1 F3600 X121.497 Y57.836 E939.58021
G1 X120.841 Y57.027 E939.61485
G1 X120.189 Y56.325 E939.64671
G1 X117.681 Y53.815 E939.76473
G1 X117.154 Y53.319 E939.7888
G1 X116.361 Y52.652 E939.82326
G1 X115.534 Y52.054 E939.85721
G1 X115.207 Y51.851 E939.87001
G1 X122.088 Y58.731 E940.19365
G1 X122.286 Y59.287 E940.21328
G1 X122.405 Y59.208 E940.21803
G1 X122.71 Y59.735 E940.23828
G1 X122.884 Y60.093 E940.25152
G1 X114.022 Y51.231 E940.66836
G1 X113.696 Y51.1 E940.68005
G1 X113.769 Y51.027 E940.68348
G1 X112.879 Y50.654 E940.71557
G1 X123.35 Y61.124 E941.20808
G1 X123.508 Y61.516 E941.22213
G1 X123.665 Y62.005 E941.23921
G1 X112.185 Y50.526 E941.77917
G1 X112.001 Y50.514 E941.78531
G1 X112.035 Y50.376 E941.79003
G1 X111.992 Y50.332 E941.79208
G1 X111.188 Y50.094 E941.81997
G1 X123.913 Y62.819 E942.41851
G1 X124.089 Y63.561 E942.44388
G1 X110.437 Y49.909 E943.08603
G1 X109.744 Y49.782 E943.10946
G1 X124.208 Y64.246 E943.7898
G1 X124.316 Y64.919 E943.81247
G1 X109.1 Y49.703 E944.52819
G1 X108.472 Y49.641 E944.54917
G1 X124.362 Y65.53 E945.29657
G1 X124.388 Y66.122 E945.31628
G1 X107.883 Y49.617 E946.09262
G1 X107.301 Y49.601 E946.11199
G1 X124.4 Y66.7 E946.91627
G1 X124.4 Y67.266 E946.9351
G1 X106.736 Y49.601 E947.76598
G1 X106.17 Y49.601 E947.78481
G1 X124.4 Y67.831 E948.64229
G1 X124.4 Y68.397 E948.66111
G1 X105.604 Y49.601 E949.54522
G1 X105.039 Y49.601 E949.56401
G1 X124.4 Y68.963 E950.47472
G1 X124.4 Y69.528 E950.49351
G1 X104.473 Y49.601 E951.43081
G1 X103.907 Y49.601 E951.44964
G1 X124.4 Y70.094 E952.41357
G1 X124.4 Y70.66 E952.43239
G1 X103.342 Y49.601 E953.42292
G1 X102.776 Y49.601 E953.44175
G1 X124.4 Y71.225 E954.45887
G1 X124.4 Y71.791 E954.4777
G1 X102.21 Y49.601 E955.52145
G1 X101.644 Y49.601 E955.54027
G1 X124.4 Y72.357 E956.61064
G1 X124.4 Y72.923 E956.62947
G1 X101.079 Y49.601 E957.72644
G1 X100.513 Y49.601 E957.74527
G1 X124.4 Y73.488 E958.86884
G1 X124.4 Y74.054 E958.88766
G1 X99.947 Y49.601 E960.03786
G1 X99.382 Y49.601 E960.05665
G1 X124.4 Y74.62 E961.23344
G1 X124.4 Y75.185 E961.25224
G1 X98.816 Y49.601 E962.45563
G1 X98.25 Y49.601 E962.47445
G1 X124.4 Y75.751 E963.70447
G1 X124.4 Y76.317 E963.72329
G1 X97.685 Y49.601 E964.97991
G1 X97.119 Y49.601 E964.99873
G1 X124.4 Y76.882 E966.28195
G1 X124.4 Y77.448 E966.30077
G1 X96.553 Y49.601 E967.61061
G1 X95.988 Y49.601 E967.6294
G1 X124.4 Y78.014 E968.96584
G1 X124.4 Y78.579 E968.98463
G1 X95.422 Y49.601 E970.34767
G1 X94.856 Y49.601 E970.36649
G1 X124.4 Y79.145 E971.75615
G1 X124.4 Y79.711 E971.77498
G1 X94.291 Y49.601 E973.19124
G1 X93.725 Y49.601 E973.21006
G1 X124.4 Y80.276 E974.65292
G1 X124.4 Y80.842 E974.67175
G1 X93.159 Y49.601 E976.14123
