;FLAVOR:Marlin
;TIME:2259
;Filament used: 2.78723m
;Layer height: 0.2
;MINX:67.076
;MINY:61.098
;MINZ:0.3
;MAXX:114.888
;MAXY:111.902
;MAXZ:43.7
;TARGET_MACHINE.NAME:Unknown
;Generated with Cura_SteamEngine 5.10.0
M104 S200
M105
M109 S200
G28 ;Home
G1 Z15.0 F6000 ;Move the platform down 15mm
;Prime the extruder
G92 E0
G1 F200 E3
G92 E0
M82 ;absolute extrusion mode
G92 E0
G92 E0
G1 F1500 E-6.5
;LAYER_COUNT:218
;LAYER:0
M107
G0 F3600 X68.808 Y66.436 Z0.3
;TYPE:SKIRT
G1 F1500 E0
G1 F3300 X70.817 Y64.318 E0.12744
G1 X72.838 Y63.02 E0.23229
G1 X75.615 Y62.325 E0.35726
G1 X77.721 Y62.111 E0.44966
G1 X80.862 Y62.992 E0.59207
G1 X82.869 Y64.125 E0.69268
G1 X84.9 Y66.272 E0.8217
G1 X85.937 Y68.074 E0.91246
G1 X86.772 Y70.979 E1.04441
G1 X86.791 Y71.906 E1.08488
G1 X86.484 Y74.119 E1.18242
G1 X85.975 Y75.914 E1.26386
G1 X84.952 Y77.78 E1.35676
G1 X82.678 Y80.054 E1.49715
G1 X80.975 Y81.026 E1.58275
G1 X78.179 Y81.801 E1.70941
G1 X75.815 Y81.853 E1.81263
G1 X73.104 Y81.064 E1.93588
G1 X71.227 Y80.049 E2.02904
G1 X69.058 Y77.88 E2.16294
G1 X67.936 Y76.011 E2.2581
G1 X67.16 Y73.388 E2.37751
G1 X67.087 Y70.889 E2.48665
G1 X68.071 Y67.876 E2.62502
G1 X68.808 Y66.436 E2.69563
G0 F3600 X69.097 Y66.64
G1 F3300 X71.044 Y64.588 E2.81912
G1 X72.976 Y63.347 E2.91936
G1 X75.7 Y62.665 E3.04194
G1 X77.689 Y62.466 E3.1292
G1 X80.727 Y63.318 E3.26694
G1 X82.651 Y64.404 E3.36339
G1 X84.618 Y66.483 E3.48833
G1 X85.613 Y68.212 E3.57541
G1 X86.423 Y71.03 E3.70341
G1 X86.444 Y71.858 E3.73956
G1 X86.147 Y74.023 E3.83496
G1 X85.648 Y75.782 E3.91478
G1 X84.668 Y77.57 E4.00379
G1 X82.467 Y79.771 E4.13967
G1 X80.838 Y80.701 E4.22155
G1 X78.129 Y81.452 E4.34427
G1 X75.862 Y81.502 E4.44326
G1 X73.239 Y80.739 E4.56251
G1 X71.435 Y79.763 E4.65205
G1 X69.337 Y77.665 E4.78157
G1 X68.26 Y75.871 E4.87291
G1 X67.509 Y73.332 E4.9885
G1 X67.439 Y70.94 E5.09296
G1 X68.383 Y68.035 E5.2263
G1 X69.097 Y66.64 E5.29471
G0 F3600 X69.386 Y66.844
G1 F3300 X71.271 Y64.858 E5.41424
G1 X73.114 Y63.674 E5.50987
G1 X75.785 Y63.005 E5.63007
G1 X77.658 Y62.821 E5.71223
G1 X80.591 Y63.643 E5.8452
G1 X82.435 Y64.684 E5.93764
G1 X84.334 Y66.692 E6.05829
G1 X85.289 Y68.35 E6.14181
G1 X86.074 Y71.082 E6.2659
G1 X86.097 Y71.811 E6.29774
G1 X85.81 Y73.928 E6.391
G1 X85.322 Y75.649 E6.46909
G1 X84.384 Y77.36 E6.55427
G1 X82.254 Y79.49 E6.68577
G1 X80.703 Y80.375 E6.76372
G1 X78.081 Y81.103 E6.88251
G1 X75.908 Y81.151 E6.9774
G1 X73.372 Y80.413 E7.0927
G1 X71.645 Y79.479 E7.17841
G1 X69.616 Y77.45 E7.30367
G1 X68.584 Y75.731 E7.39119
G1 X67.858 Y73.276 E7.50295
G1 X67.791 Y70.99 E7.60279
G1 X68.695 Y68.194 E7.73106
G1 X69.386 Y66.844 E7.79727
G0 F3600 X69.675 Y67.048
G1 F3300 X71.498 Y65.128 E7.91285
G1 X73.252 Y64.001 E8.00386
G1 X75.87 Y63.345 E8.12168
G1 X77.626 Y63.175 E8.19869
G1 X80.455 Y63.968 E8.32695
G1 X82.217 Y64.963 E8.41528
G1 X84.052 Y66.903 E8.53186
G1 X84.965 Y68.488 E8.61171
G1 X85.725 Y71.135 E8.73193
G1 X85.75 Y71.765 E8.75945
G1 X85.473 Y73.832 E8.85049
G1 X84.995 Y75.517 E8.92695
G1 X84.1 Y77.15 E9.00824
G1 X82.043 Y79.207 E9.13523
G1 X80.565 Y80.051 E9.20953
G1 X78.028 Y80.754 E9.32445
G1 X75.954 Y80.8 E9.41501
G1 X73.505 Y80.087 E9.52636
G1 X71.855 Y79.195 E9.60824
G1 X69.895 Y77.235 E9.72924
G1 X68.908 Y75.591 E9.81295
G1 X68.207 Y73.22 E9.92088
G1 X68.143 Y71.039 E10.01613
G1 X69.007 Y68.353 E10.13931
G1 X69.675 Y67.048 E10.2033
G0 F3600 X69.964 Y67.252
G1 F3300 X71.722 Y65.4 E10.31478
G1 X73.393 Y64.327 E10.40147
G1 X75.955 Y63.685 E10.51676
G1 X77.593 Y63.529 E10.58859
G1 X80.32 Y64.294 E10.71223
G1 X81.999 Y65.242 E10.7964
G1 X83.77 Y67.114 E10.9089
G1 X84.641 Y68.626 E10.98507
G1 X85.376 Y71.188 E11.10143
G1 X85.403 Y71.719 E11.12464
G1 X85.136 Y73.737 E11.2135
G1 X84.669 Y75.384 E11.28823
G1 X83.816 Y76.94 E11.36569
G1 X81.83 Y78.926 E11.4883
G1 X80.43 Y79.725 E11.55867
G1 X77.979 Y80.405 E11.6697
G1 X76 Y80.449 E11.75612
G1 X73.64 Y79.762 E11.86342
G1 X72.063 Y78.909 E11.94168
G1 X70.174 Y77.02 E12.0583
G1 X69.232 Y75.451 E12.13819
G1 X68.556 Y73.164 E12.2423
G1 X68.495 Y71.088 E12.33296
G1 X69.319 Y68.512 E12.45103
G1 X69.964 Y67.252 E12.51282
G0 F3600 X70.253 Y67.456
G1 F3300 X71.946 Y65.672 E12.62019
G1 X73.534 Y64.653 E12.70255
G1 X76.04 Y64.025 E12.81533
G1 X77.562 Y63.884 E12.88206
G1 X80.185 Y64.62 E13.00099
G1 X81.781 Y65.521 E13.08099
G1 X83.488 Y67.325 E13.18941
G1 X84.317 Y68.764 E13.26191
G1 X85.029 Y71.246 E13.37463
G1 X85.056 Y71.674 E13.39335
G1 X84.799 Y73.641 E13.47995
G1 X84.342 Y75.252 E13.55305
G1 X83.532 Y76.73 E13.62662
G1 X81.619 Y78.643 E13.74472
G1 X80.292 Y79.401 E13.81144
G1 X77.926 Y80.056 E13.91861
G1 X76.046 Y80.098 E14.0007
G1 X73.773 Y79.436 E14.10404
G1 X72.273 Y78.625 E14.17848
G1 X70.453 Y76.805 E14.29084
G1 X69.556 Y75.311 E14.36691
G1 X68.905 Y73.108 E14.46719
G1 X68.847 Y71.138 E14.55323
G1 X69.631 Y68.671 E14.66623
G1 X70.253 Y67.456 E14.72582
G0 F3600 X70.542 Y67.66
G1 F3300 X72.17 Y65.944 E14.82907
G1 X73.677 Y64.977 E14.90724
G1 X76.072 Y64.374 E15.01505
G1 X77.531 Y64.239 E15.07902
G1 X80.049 Y64.945 E15.19318
G1 X81.565 Y65.801 E15.26918
G1 X83.204 Y67.534 E15.3733
G1 X83.993 Y68.902 E15.44224
G1 X84.683 Y71.307 E15.55147
G1 X84.709 Y71.629 E15.56557
G1 X84.462 Y73.546 E15.64995
G1 X84.016 Y75.119 E15.72132
G1 X83.248 Y76.52 E15.79107
G1 X81.408 Y78.36 E15.90466
G1 X80.154 Y79.076 E15.9677
G1 X77.877 Y79.707 E16.07084
G1 X76.093 Y79.747 E16.14874
G1 X73.908 Y79.111 E16.24808
G1 X72.481 Y78.339 E16.31891
G1 X70.732 Y76.59 E16.42689
G1 X69.88 Y75.171 E16.49914
G1 X69.254 Y73.052 E16.59559
G1 X69.199 Y71.187 E16.67704
G1 X69.943 Y68.83 E16.78494
G1 X70.542 Y67.66 E16.84232
G0 F3600 X70.832 Y67.863
G1 F3300 X72.397 Y66.214 E16.94156
G1 X73.817 Y65.302 E17.01524
G1 X76.104 Y64.723 E17.11822
G1 X77.5 Y64.594 E17.17942
G1 X79.914 Y65.271 E17.28887
G1 X81.347 Y66.08 E17.36071
G1 X82.922 Y67.745 E17.46076
G1 X83.669 Y69.04 E17.52602
G1 X84.335 Y71.346 E17.6308
G1 X84.362 Y71.585 E17.6413
G1 X84.125 Y73.45 E17.72337
G1 X83.689 Y74.987 E17.79311
G1 X82.964 Y76.31 E17.85897
G1 X81.195 Y78.079 E17.96818
G1 X80.019 Y78.75 E18.02729
G1 X77.828 Y79.358 E18.12655
G1 X76.139 Y79.396 E18.2003
G1 X74.041 Y78.785 E18.29569
G1 X72.691 Y78.055 E18.36268
G1 X71.011 Y76.375 E18.4664
G1 X70.204 Y75.031 E18.53484
G1 X69.603 Y72.996 E18.62746
G1 X69.551 Y71.236 E18.70433
G1 X70.255 Y68.99 E18.80708
G1 X70.832 Y67.863 E18.86235
G0 F3600 X71.122 Y68.066
G1 F3300 X72.624 Y66.484 E18.95758
G1 X73.957 Y65.627 E19.02676
G1 X76.136 Y65.072 E19.12492
G1 X77.469 Y64.949 E19.18335
G1 X79.779 Y65.597 E19.28809
G1 X81.129 Y66.359 E19.35576
G1 X82.64 Y67.956 E19.45174
G1 X83.345 Y69.179 E19.51336
G1 X83.999 Y71.443 E19.61623
G1 X84.01 Y71.583 E19.62236
G1 X83.788 Y73.355 E19.70032
G1 X83.363 Y74.854 E19.76834
G1 X82.68 Y76.1 E19.83037
G1 X80.984 Y77.796 E19.93507
G1 X79.882 Y78.425 E19.99046
G1 X77.778 Y79.009 E20.08578
G1 X76.185 Y79.045 E20.15534
G1 X74.174 Y78.459 E20.24678
G1 X72.901 Y77.771 E20.30995
G1 X71.29 Y76.16 E20.40941
G1 X70.528 Y74.891 E20.47402
G1 X69.952 Y72.94 E20.56283
G1 X69.903 Y71.284 E20.63515
G1 X70.567 Y69.15 E20.73271
G1 X71.122 Y68.066 E20.78587
G0 F3600 X71.412 Y68.269
G1 F3300 X72.848 Y66.756 E20.87693
G1 X74.1 Y65.952 E20.94189
G1 X76.168 Y65.421 E21.03509
G1 X77.438 Y65.304 E21.09077
G1 X79.644 Y65.923 E21.19079
G1 X80.913 Y66.639 E21.25439
G1 X82.356 Y68.165 E21.34608
G1 X83.021 Y69.318 E21.40418
G1 X83.663 Y71.54 E21.50515
G1 X83.451 Y73.259 E21.58076
G1 X83.036 Y74.722 E21.64714
G1 X82.396 Y75.89 E21.70528
G1 X80.773 Y77.513 E21.80548
G1 X79.745 Y78.1 E21.85716
G1 X77.727 Y78.66 E21.94858
G1 X76.232 Y78.694 E22.01386
G1 X74.309 Y78.134 E22.10129
G1 X73.109 Y77.485 E22.16085
G1 X71.569 Y75.945 E22.25592
G1 X70.852 Y74.751 E22.31672
G1 X70.301 Y72.884 E22.4017
G1 X70.255 Y71.33 E22.46957
G1 X70.879 Y69.31 E22.56186
G1 X71.412 Y68.269 E22.61291
G0 F3600 X71.702 Y68.472
G1 F3300 X73.072 Y67.028 E22.69981
G1 X74.242 Y66.277 E22.7605
G1 X76.2 Y65.77 E22.84879
G1 X77.407 Y65.659 E22.9017
G1 X79.508 Y66.248 E22.99696
G1 X80.695 Y66.918 E23.05646
G1 X82.074 Y68.376 E23.14406
G1 X82.697 Y69.457 E23.19853
G1 X83.307 Y71.569 E23.2945
G1 X83.114 Y73.164 E23.36463
G1 X82.71 Y74.589 E23.42929
G1 X82.112 Y75.68 E23.4836
G1 X80.562 Y77.23 E23.57929
G1 X79.608 Y77.775 E23.62726
G1 X77.676 Y78.311 E23.71478
G1 X76.278 Y78.343 E23.77582
G1 X74.442 Y77.808 E23.85931
G1 X73.319 Y77.201 E23.91503
G1 X71.848 Y75.73 E24.00585
G1 X71.176 Y74.611 E24.06283
G1 X70.65 Y72.828 E24.14398
G1 X70.607 Y71.378 E24.2073
G1 X71.191 Y69.47 E24.29441
G1 X71.702 Y68.472 E24.34336
G0 F3600 X71.992 Y68.675
G1 F3300 X73.299 Y67.298 E24.42623
G1 X74.381 Y66.603 E24.48237
G1 X76.232 Y66.119 E24.56589
G1 X77.376 Y66.014 E24.61604
G1 X79.373 Y66.574 E24.70658
G1 X80.477 Y67.197 E24.76192
G1 X81.792 Y68.587 E24.84545
G1 X82.373 Y69.596 E24.89628
G1 X82.951 Y71.596 E24.98716
G1 X82.777 Y73.068 E25.05186
G1 X82.383 Y74.457 E25.11489
G1 X81.828 Y75.47 E25.16531
G1 X80.349 Y76.949 E25.25662
G1 X79.473 Y77.449 E25.30065
G1 X77.625 Y77.962 E25.38438
G1 X76.324 Y77.992 E25.44119
G1 X74.577 Y77.483 E25.52062
G1 X73.527 Y76.915 E25.57273
G1 X72.127 Y75.515 E25.65916
G1 X71.5 Y74.471 E25.71233
G1 X70.999 Y72.772 E25.78965
G1 X70.959 Y71.425 E25.84848
G1 X71.503 Y69.63 E25.93036
G1 X71.992 Y68.675 E25.97719
G0 F3600 X72.282 Y68.878
G1 F3300 X73.523 Y67.57 E26.0559
G1 X74.523 Y66.928 E26.10778
G1 X76.321 Y66.458 E26.18891
G1 X77.345 Y66.369 E26.23378
G1 X79.237 Y66.899 E26.31955
G1 X80.259 Y67.476 E26.37078
G1 X81.51 Y68.798 E26.45024
G1 X82.049 Y69.735 E26.49743
G1 X82.595 Y71.624 E26.58326
G1 X82.44 Y72.973 E26.64254
G1 X82.057 Y74.324 E26.70384
G1 X81.544 Y75.26 E26.75043
G1 X80.138 Y76.666 E26.83724
G1 X79.336 Y77.124 E26.87755
G1 X77.574 Y77.613 E26.95738
G1 X76.371 Y77.641 E27.00991
G1 X74.71 Y77.157 E27.08543
G1 X73.737 Y76.631 E27.13372
G1 X72.406 Y75.3 E27.21589
G1 X71.824 Y74.331 E27.26523
G1 X71.348 Y72.716 E27.33873
G1 X71.311 Y71.471 E27.3931
G1 X71.815 Y69.79 E27.46971
G1 X72.282 Y68.878 E27.51444
G0 F3600 X72.572 Y69.081
G1 F3300 X73.75 Y67.84 E27.58914
G1 X74.662 Y67.254 E27.63646
G1 X76.41 Y66.797 E27.71533
G1 X77.312 Y66.723 E27.75484
G1 X79.102 Y67.225 E27.836
G1 X80.041 Y67.755 E27.88307
G1 X81.228 Y69.009 E27.95844
G1 X81.725 Y69.873 E28.00195
G1 X82.239 Y71.653 E28.08283
G1 X82.103 Y72.877 E28.13659
G1 X81.73 Y74.192 E28.19626
G1 X81.26 Y75.05 E28.23897
G1 X79.927 Y76.383 E28.32126
G1 X79.199 Y76.799 E28.35787
G1 X77.523 Y77.264 E28.4338
G1 X76.417 Y77.29 E28.48209
G1 X74.845 Y76.832 E28.55357
G1 X73.945 Y76.345 E28.59824
G1 X72.685 Y75.085 E28.67603
G1 X72.148 Y74.191 E28.72155
G1 X71.697 Y72.66 E28.79123
G1 X71.663 Y71.518 E28.8411
G1 X72.127 Y69.95 E28.91248
G1 X72.572 Y69.081 E28.9551
G0 F3600 X72.86 Y69.286
G1 F3300 X73.974 Y68.112 E29.02575
G1 X74.806 Y67.578 E29.06891
G1 X76.439 Y67.146 E29.14265
G1 X77.279 Y67.077 E29.17944
G1 X78.966 Y67.55 E29.25593
G1 X79.823 Y68.034 E29.29889
G1 X80.946 Y69.22 E29.37019
G1 X81.401 Y70.011 E29.41003
G1 X81.884 Y71.683 E29.486
G1 X81.766 Y72.782 E29.53425
G1 X81.404 Y74.059 E29.5922
G1 X80.976 Y74.84 E29.63107
G1 X79.714 Y76.102 E29.70899
G1 X79.064 Y76.473 E29.74166
G1 X77.472 Y76.915 E29.81378
G1 X76.464 Y76.939 E29.8578
G1 X74.978 Y76.506 E29.92537
G1 X74.155 Y76.061 E29.96621
G1 X72.964 Y74.87 E30.03974
G1 X72.472 Y74.051 E30.08144
G1 X72.046 Y72.604 E30.14729
G1 X72.015 Y71.564 E30.19271
G1 X72.463 Y70.049 E30.26168
G1 X72.86 Y69.286 E30.29923
G0 F3600 X73.149 Y69.49
G1 F3300 X74.198 Y68.384 E30.36577
G1 X74.95 Y67.902 E30.40476
G1 X76.468 Y67.495 E30.47337
G1 X77.245 Y67.431 E30.5074
G1 X78.831 Y67.876 E30.57931
G1 X79.605 Y68.313 E30.61811
G1 X80.664 Y69.431 E30.68534
G1 X81.077 Y70.149 E30.7215
G1 X81.529 Y71.714 E30.79261
G1 X81.429 Y72.686 E30.83526
G1 X81.077 Y73.927 E30.89157
G1 X80.692 Y74.63 E30.92656
G1 X79.503 Y75.819 E30.99997
G1 X78.927 Y76.148 E31.02892
G1 X77.421 Y76.566 E31.09715
G1 X76.511 Y76.588 E31.13689
G1 X75.111 Y76.18 E31.20055
G1 X74.365 Y75.777 E31.23756
G1 X73.243 Y74.655 E31.30683
G1 X72.796 Y73.911 E31.34472
G1 X72.395 Y72.548 E31.40674
G1 X72.367 Y71.609 E31.44775
G1 X72.774 Y70.211 E31.51131
G1 X73.149 Y69.49 E31.54679
G0 F3600 X73.437 Y69.695
G1 F3300 X74.422 Y68.656 E31.60929
G1 X75.093 Y68.226 E31.64408
G1 X76.497 Y67.844 E31.7076
G1 X77.211 Y67.785 E31.73887
G1 X78.696 Y68.202 E31.80621
G1 X79.387 Y68.592 E31.84084
G1 X80.382 Y69.642 E31.90399
G1 X80.753 Y70.287 E31.93647
G1 X81.174 Y71.746 E32.00276
G1 X81.092 Y72.591 E32.03982
G1 X80.751 Y73.794 E32.09441
G1 X80.408 Y74.42 E32.12557
G1 X79.292 Y75.536 E32.19447
G1 X78.79 Y75.823 E32.21971
G1 X77.37 Y76.217 E32.28404
G1 X76.556 Y76.237 E32.31958
G1 X75.246 Y75.855 E32.37915
G1 X74.573 Y75.491 E32.41255
G1 X73.522 Y74.44 E32.47744
G1 X73.12 Y73.771 E32.51151
G1 X72.744 Y72.492 E32.56971
G1 X72.719 Y71.653 E32.60635
G1 X73.1 Y70.343 E32.6659
G1 X73.437 Y69.695 E32.69779
G0 F3600 X73.725 Y69.9
G1 F3300 X74.649 Y68.926 E32.7564
G1 X75.236 Y68.549 E32.78685
G1 X76.526 Y68.193 E32.84527
G1 X77.177 Y68.139 E32.87379
G1 X78.561 Y68.528 E32.93654
G1 X79.169 Y68.871 E32.96702
G1 X80.1 Y69.853 E33.02609
G1 X80.429 Y70.425 E33.0549
G1 X80.819 Y71.777 E33.11632
G1 X80.755 Y72.495 E33.14779
G1 X80.424 Y73.662 E33.20074
G1 X80.124 Y74.21 E33.22802
G1 X79.077 Y75.257 E33.29265
G1 X78.696 Y75.486 E33.31206
G1 X77.319 Y75.868 E33.37444
G1 X76.603 Y75.886 E33.40571
G1 X75.379 Y75.529 E33.46137
G1 X74.783 Y75.207 E33.49094
G1 X73.801 Y74.225 E33.55156
G1 X73.444 Y73.631 E33.58182
G1 X73.093 Y72.436 E33.63619
G1 X73.071 Y71.697 E33.66846
G1 X73.426 Y70.475 E33.72401
G1 X73.725 Y69.9 E33.7523
G0 F3600 X74.013 Y70.105
G1 F3300 X74.873 Y69.198 E33.80687
G1 X75.381 Y68.872 E33.83322
G1 X76.555 Y68.542 E33.88645
G1 X77.143 Y68.493 E33.91221
G1 X78.426 Y68.854 E33.97039
G1 X78.951 Y69.15 E33.9967
G1 X79.817 Y70.063 E34.05163
G1 X80.105 Y70.565 E34.0769
G1 X80.465 Y71.81 E34.13347
G1 X80.418 Y72.399 E34.15927
G1 X80.097 Y73.53 E34.21059
G1 X79.84 Y74 E34.23398
G1 X78.857 Y74.983 E34.29466
G1 X78.602 Y75.149 E34.30794
G1 X77.268 Y75.519 E34.36838
G1 X76.648 Y75.535 E34.39545
G1 X75.514 Y75.204 E34.44702
G1 X74.991 Y74.921 E34.47298
G1 X74.08 Y74.01 E34.52922
G1 X73.768 Y73.491 E34.55566
G1 X73.442 Y72.38 E34.6062
G1 X73.423 Y71.741 E34.63411
G1 X73.752 Y70.607 E34.68565
G1 X74.013 Y70.105 E34.71035
G0 F3600 X74.3 Y70.311
G1 F3300 X75.1 Y69.468 E34.76109
G1 X75.524 Y69.195 E34.7831
G1 X76.65 Y68.879 E34.83415
G1 X77.108 Y68.847 E34.8542
G1 X78.331 Y69.191 E34.90966
G1 X78.732 Y69.428 E34.92999
G1 X79.536 Y70.276 E34.981
G1 X79.769 Y70.662 E35.00068
G1 X80.111 Y71.846 E35.05448
G1 X80.081 Y72.305 E35.07456
G1 X79.784 Y73.373 E35.12296
G1 X79.593 Y73.753 E35.14152
G1 X78.61 Y74.736 E35.20221
G1 X78.457 Y74.826 E35.20996
G1 X77.175 Y75.182 E35.26804
G1 X76.694 Y75.184 E35.28904
G1 X75.612 Y74.868 E35.33824
G1 X75.2 Y74.636 E35.35888
G1 X74.359 Y73.795 E35.4108
G1 X74.092 Y73.351 E35.43342
G1 X73.778 Y72.281 E35.4821
G1 X73.774 Y71.786 E35.50371
G1 X74.088 Y70.705 E35.55285
G1 X74.3 Y70.311 E35.57238
G0 F3600 X74.554 Y70.552
G1 F3300 X75.354 Y69.709 E35.62312
G1 X75.619 Y69.532 E35.63703
G1 X76.745 Y69.216 E35.68808
G1 X77.072 Y69.201 E35.70237
G1 X78.198 Y69.517 E35.75342
G1 X78.478 Y69.669 E35.76733
G1 X79.282 Y70.517 E35.81834
G1 X79.433 Y70.759 E35.8308
G1 X79.758 Y71.883 E35.88187
G1 X79.744 Y72.211 E35.8962
G1 X79.447 Y73.279 E35.9446
G1 X79.305 Y73.547 E35.95784
G1 X78.363 Y74.489 E36.01599
G1 X77.122 Y74.834 E36.07222
G1 X76.792 Y74.848 E36.08664
G1 X75.71 Y74.532 E36.13585
G1 X75.447 Y74.389 E36.14891
G1 X74.606 Y73.548 E36.20083
G1 X74.428 Y73.252 E36.21591
G1 X74.126 Y72.223 E36.26273
G1 X74.11 Y71.884 E36.27754
G1 X74.424 Y70.803 E36.32668
G1 X74.554 Y70.552 E36.33902
G0 F3600 X75.096 Y70.999
G1 F3300 X75.862 Y70.191 E36.38762
G1 X76.935 Y69.89 E36.43627
G1 X78.008 Y70.191 E36.48492
G1 X78.774 Y70.999 E36.53353
G1 X79.07 Y72.023 E36.58006
G1 X78.773 Y73.091 E36.62845
G1 X78.001 Y73.863 E36.67611
G1 X76.934 Y74.16 E36.72446
G1 X75.906 Y73.86 E36.77121
G1 X75.1 Y73.054 E36.82097
G1 X74.798 Y72.025 E36.86778
